; generated by PrusaSlicer 2.6.0 on 2023-07-09 at 12:05:33 UTC

; 

; external perimeters extrusion width = 0.45mm
; perimeters extrusion width = 0.45mm
; infill extrusion width = 0.45mm
; solid infill extrusion width = 0.45mm
; top infill extrusion width = 0.40mm
; first layer extrusion width = 0.42mm

M104 S230 ; set temperature
;TYPE:Custom
G28 ;Home
G1 Z15.0 F2000 ;Move the platform
M106 S255
M109 S230 ; set temperature and wait for it to be reached
G21 ; set units to millimeters
G90 ; use absolute coordinates
M82 ; use absolute distances for extrusion
G92 E0
; Filament gcode
M107
;LAYER_CHANGE
;Z:0.15
;HEIGHT:0.15
G1 Z.15 F7800
G1 E-2 F2400
G92 E0
G1 X134.679 Y134.679 F7800
G1 E2 F2400
;TYPE:Skirt/Brim
;WIDTH:0.42
G1 F1800
G1 X141.199 Y128.159 E2.223
G1 X141.806 Y127.69 E2.24155
G1 X143.775 Y127.028 E2.29179
G1 X156.182 Y127.032 E2.59185
G1 X157.533 Y127.367 E2.62551
G1 X158.72 Y128.078 E2.65897
G1 X171.841 Y141.199 E3.10774
G1 X172.31 Y141.806 E3.12629
G1 X172.972 Y143.774 E3.17651
G1 X172.972 Y156.073 E3.47396
G1 X172.873 Y156.834 E3.49252
G1 X171.949 Y158.694 E3.54275
G1 X158.801 Y171.841 E3.99243
G1 X158.194 Y172.31 E4.01098
G1 X156.226 Y172.972 E4.0612
G1 X143.927 Y172.972 E4.35865
G1 X143.166 Y172.873 E4.37721
G1 X141.306 Y171.949 E4.42744
G1 X128.159 Y158.801 E4.87712
G1 X127.69 Y158.194 E4.89567
G1 X127.028 Y156.226 E4.94589
G1 X127.028 Y143.927 E5.24334
G1 X127.127 Y143.166 E5.2619
G1 X128.051 Y141.306 E5.31213
G1 X134.636 Y134.721 E5.53735
G1 X134.91 Y134.995 F7800
G1 F1800
G1 X141.464 Y128.442 E5.7615
G1 X142.017 Y128.017 E5.77837
G1 X143.807 Y127.416 E5.82404
G1 X156.158 Y127.42 E6.12275
G1 X157.36 Y127.716 E6.15269
G1 X158.464 Y128.369 E6.18371
G1 X171.558 Y141.464 E6.63158
G1 X171.983 Y142.017 E6.64845
G1 X172.584 Y143.806 E6.69409
G1 X172.584 Y156.06 E6.99045
G1 X172.493 Y156.752 E7.00733
G1 X171.653 Y158.442 E7.05297
G1 X158.536 Y171.558 E7.50159
G1 X157.983 Y171.983 E7.51846
G1 X156.194 Y172.584 E7.5641
G1 X143.94 Y172.584 E7.86046
G1 X143.248 Y172.493 E7.87734
G1 X141.558 Y171.653 E7.92298
G1 X128.442 Y158.536 E8.3716
G1 X128.017 Y157.983 E8.38847
G1 X127.416 Y156.194 E8.43411
G1 X127.416 Y143.94 E8.73047
G1 X127.507 Y143.248 E8.74735
G1 X128.347 Y141.558 E8.79299
G1 X134.868 Y135.038 E9.01601
G1 X135.142 Y135.312 F7800
G1 F1800
G1 X141.729 Y128.725 E9.2413
G1 X142.227 Y128.344 E9.25646
G1 X143.838 Y127.804 E9.29755
G1 X156.134 Y127.808 E9.59493
G1 X157.238 Y128.085 E9.62246
G1 X158.206 Y128.661 E9.6497
G1 X171.275 Y141.729 E10.09668
G1 X171.656 Y142.227 E10.11184
G1 X172.196 Y143.837 E10.15291
G1 X172.196 Y156.047 E10.44821
G1 X172.113 Y156.669 E10.46339
G1 X171.356 Y158.19 E10.50448
G1 X158.271 Y171.275 E10.95202
G1 X157.773 Y171.656 E10.96718
G1 X156.163 Y172.196 E11.00825
G1 X143.953 Y172.196 E11.30355
G1 X143.331 Y172.113 E11.31873
G1 X141.81 Y171.356 E11.35982
G1 X128.725 Y158.271 E11.80736
G1 X128.344 Y157.773 E11.82252
G1 X127.804 Y156.163 E11.86359
G1 X127.804 Y143.953 E12.15889
G1 X127.887 Y143.331 E12.17407
G1 X128.644 Y141.81 E12.21516
G1 X135.1 Y135.354 E12.43597
G1 X135.374 Y135.629 F7800
G1 F1800
G1 X141.993 Y129.009 E12.66237
G1 X142.436 Y128.672 E12.67583
G1 X143.869 Y128.192 E12.71238
G1 X156.11 Y128.196 E13.00843
G1 X157.066 Y128.433 E13.03225
G1 X157.95 Y128.953 E13.05705
G1 X170.991 Y141.993 E13.50307
G1 X171.328 Y142.436 E13.51653
G1 X171.808 Y143.869 E13.55308
G1 X171.808 Y156.034 E13.84729
G1 X171.733 Y156.585 E13.86074
G1 X171.06 Y157.938 E13.89729
G1 X158.007 Y170.991 E14.34374
G1 X157.564 Y171.328 E14.3572
G1 X156.131 Y171.808 E14.39375
G1 X143.966 Y171.808 E14.68796
G1 X143.415 Y171.733 E14.70141
G1 X142.062 Y171.06 E14.73796
G1 X129.009 Y158.007 E15.18441
G1 X128.672 Y157.564 E15.19787
G1 X128.192 Y156.131 E15.23442
G1 X128.192 Y143.966 E15.52863
G1 X128.267 Y143.415 E15.54208
G1 X128.94 Y142.062 E15.57863
G1 X135.332 Y135.671 E15.79724
G1 X135.606 Y135.945 F7800
G1 F1800
G1 X142.258 Y129.293 E16.02476
G1 X142.644 Y129.001 E16.03647
G1 X143.901 Y128.58 E16.06853
G1 X156.087 Y128.583 E16.36325
G1 X156.897 Y128.783 E16.38343
G1 X157.694 Y129.245 E16.40571
G1 X170.707 Y142.258 E16.85079
G1 X170.999 Y142.644 E16.8625
G1 X171.42 Y143.9 E16.89454
G1 X171.42 Y156.02 E17.18766
G1 X171.354 Y156.5 E17.19938
G1 X170.763 Y157.686 E17.23143
G1 X157.742 Y170.707 E17.67678
G1 X157.356 Y170.999 E17.68849
G1 X156.1 Y171.42 E17.72053
G1 X143.98 Y171.42 E18.01365
G1 X143.5 Y171.354 E18.02537
G1 X142.314 Y170.763 E18.05742
G1 X129.293 Y157.742 E18.50277
G1 X129.001 Y157.356 E18.51448
G1 X128.58 Y156.1 E18.54652
G1 X128.58 Y143.98 E18.83964
G1 X128.646 Y143.5 E18.85136
G1 X129.237 Y142.314 E18.88341
G1 X135.563 Y135.988 E19.09978
G1 X135.838 Y136.262 F7800
G1 F1800
G1 X142.522 Y129.577 E19.32841
G1 X142.852 Y129.33 E19.33838
G1 X143.932 Y128.967 E19.36594
G1 X156.064 Y128.971 E19.65935
G1 X156.729 Y129.134 E19.67591
G1 X157.439 Y129.538 E19.69567
G1 X170.423 Y142.522 E20.13976
G1 X170.67 Y142.852 E20.14973
G1 X171.032 Y143.932 E20.17728
G1 X171.032 Y156.006 E20.46929
G1 X170.974 Y156.414 E20.47926
G1 X170.467 Y157.434 E20.50681
G1 X157.478 Y170.423 E20.95107
G1 X157.148 Y170.67 E20.96104
G1 X156.068 Y171.032 E20.98859
G1 X143.994 Y171.032 E21.2806
G1 X143.586 Y170.974 E21.29057
G1 X142.566 Y170.467 E21.31812
G1 X129.577 Y157.478 E21.76238
G1 X129.33 Y157.148 E21.77235
G1 X128.968 Y156.068 E21.7999
G1 X128.968 Y143.994 E22.09191
G1 X129.026 Y143.586 E22.10188
G1 X129.533 Y142.566 E22.12943
G1 X135.795 Y136.304 E22.34361
G1 X136.069 Y136.579 F7800
G1 F1800
G1 X142.786 Y129.862 E22.57335
G1 X143.058 Y129.66 E22.58154
G1 X143.964 Y129.355 E22.60466
G1 X156.041 Y129.359 E22.89674
G1 X156.564 Y129.485 E22.90975
G1 X157.184 Y129.832 E22.92693
G1 X170.138 Y142.786 E23.36999
G1 X170.34 Y143.058 E23.37818
G1 X170.645 Y143.963 E23.40128
G1 X170.645 Y155.991 E23.69218
G1 X170.595 Y156.327 E23.7004
G1 X170.17 Y157.182 E23.72349
G1 X157.214 Y170.138 E24.16662
G1 X156.942 Y170.34 E24.17481
G1 X156.037 Y170.645 E24.19791
G1 X144.009 Y170.645 E24.48881
G1 X143.673 Y170.595 E24.49703
G1 X142.818 Y170.17 E24.52012
G1 X129.862 Y157.214 E24.96325
G1 X129.66 Y156.942 E24.97144
G1 X129.355 Y156.037 E24.99454
G1 X129.355 Y144.009 E25.28544
G1 X129.405 Y143.673 E25.29366
G1 X129.83 Y142.818 E25.31675
G1 X136.027 Y136.621 E25.5287
G1 X136.301 Y136.895 F7800
G1 F1800
G1 X143.049 Y130.147 E25.7595
G1 X143.263 Y129.99 E25.76592
G1 X143.995 Y129.743 E25.7846
G1 X156.019 Y129.747 E26.0754
G1 X156.402 Y129.838 E26.08492
G1 X156.93 Y130.126 E26.09947
G1 X169.853 Y143.049 E26.54147
G1 X170.01 Y143.263 E26.54789
G1 X170.257 Y143.995 E26.56657
G1 X170.257 Y155.976 E26.85633
G1 X170.217 Y156.238 E26.86274
G1 X169.874 Y156.93 E26.88142
G1 X156.951 Y169.853 E27.32342
G1 X156.737 Y170.01 E27.32984
G1 X156.005 Y170.257 E27.34852
G1 X144.024 Y170.257 E27.63828
G1 X143.762 Y170.217 E27.64469
G1 X143.07 Y169.874 E27.66337
G1 X130.147 Y156.951 E28.10537
G1 X129.99 Y156.737 E28.11179
G1 X129.743 Y156.005 E28.13047
G1 X129.743 Y144.024 E28.42023
G1 X129.783 Y143.762 E28.42664
G1 X130.126 Y143.07 E28.44532
G1 X136.259 Y136.938 E28.65507
G1 X136.533 Y137.212 F7800
G1 F1800
G1 X143.312 Y130.433 E28.88693
G1 X143.466 Y130.322 E28.89152
G1 X144.027 Y130.131 E28.90585
G1 X155.996 Y130.135 E29.19532
G1 X156.244 Y130.193 E29.20148
G1 X156.677 Y130.422 E29.21333
G1 X169.567 Y143.312 E29.6542
G1 X169.678 Y143.466 E29.65879
G1 X169.869 Y144.027 E29.67312
G1 X169.869 Y155.96 E29.96172
G1 X169.839 Y156.147 E29.9663
G1 X169.577 Y156.678 E29.98062
G1 X156.688 Y169.567 E30.42146
G1 X156.534 Y169.678 E30.42605
G1 X155.973 Y169.869 E30.44038
G1 X144.04 Y169.869 E30.72898
G1 X143.853 Y169.839 E30.73356
G1 X143.322 Y169.577 E30.74788
G1 X130.433 Y156.688 E31.18872
G1 X130.322 Y156.534 E31.19331
G1 X130.131 Y155.973 E31.20764
G1 X130.131 Y144.04 E31.49624
G1 X130.161 Y143.853 E31.50082
G1 X130.423 Y143.322 E31.51514
G1 X136.491 Y137.254 E31.72268
G1 X136.765 Y137.528 F7800
G1 F1800
G1 X143.574 Y130.72 E31.95555
G1 X143.666 Y130.655 E31.95827
G1 X144.06 Y130.519 E31.96835
G1 X155.974 Y130.522 E32.25649
G1 X156.091 Y130.55 E32.2594
G1 X156.426 Y130.719 E32.26847
G1 X169.28 Y143.574 E32.70813
G1 X169.345 Y143.666 E32.71085
G1 X169.481 Y144.06 E32.72093
G1 X169.481 Y155.942 E33.00829
G1 X169.462 Y156.053 E33.01101
G1 X169.279 Y156.427 E33.02108
G1 X156.426 Y169.28 E33.46069
G1 X156.334 Y169.345 E33.46341
G1 X155.94 Y169.481 E33.47349
G1 X144.058 Y169.481 E33.76085
G1 X143.947 Y169.462 E33.76357
G1 X143.573 Y169.279 E33.77364
G1 X130.72 Y156.426 E34.21325
G1 X130.655 Y156.334 E34.21597
G1 X130.519 Y155.94 E34.22605
G1 X130.519 Y144.058 E34.51341
G1 X130.538 Y143.947 E34.51613
G1 X130.721 Y143.573 E34.5262
G1 X136.722 Y137.571 E34.73147
G1 X136.997 Y137.845 F7800
G1 F1800
G1 X143.833 Y131.009 E34.96528
G1 X144.094 Y130.907 E34.97206
G1 X155.92 Y130.907 E35.25807
G1 X156.178 Y131.019 E35.26487
G1 X169.01 Y143.861 E35.70393
G1 X169.093 Y144.094 E35.70991
G1 X169.093 Y155.92 E35.99592
G1 X168.981 Y156.178 E36.00272
G1 X156.139 Y169.01 E36.44178
G1 X155.906 Y169.093 E36.44776
G1 X144.08 Y169.093 E36.73377
G1 X143.822 Y168.981 E36.74057
G1 X131.009 Y156.167 E37.17882
G1 X130.907 Y155.906 E37.1856
G1 X130.913 Y144.047 E37.47241
G1 X131.019 Y143.822 E37.47843
G1 X136.954 Y137.888 E37.68141
G1 X137.228 Y138.162 F7800
G1 F1800
G1 X144.066 Y131.324 E37.91529
G1 X144.137 Y131.294 E37.91715
G1 X155.863 Y131.294 E38.20074
G1 X155.934 Y131.324 E38.2026
G1 X168.676 Y144.066 E38.63841
G1 X168.706 Y144.137 E38.64027
G1 X168.706 Y155.863 E38.92386
G1 X168.676 Y155.934 E38.92572
G1 X155.934 Y168.676 E39.36153
G1 X155.863 Y168.706 E39.36339
G1 X144.137 Y168.706 E39.64698
G1 X144.066 Y168.676 E39.64884
G1 X131.324 Y155.934 E40.08465
G1 X131.294 Y155.863 E40.08651
G1 X131.294 Y144.137 E40.3701
G1 X131.324 Y144.066 E40.37196
G1 X137.186 Y138.204 E40.57246
G1 E38.57246 F2400
G92 E0
G1 X167.526 Y144.584 F7800
G1 E2 F2400
;TYPE:Perimeter
;WIDTH:0.419999
G1 F1800
G1 X167.526 Y155.416 E2.26197
G1 X155.416 Y167.526 E2.67616
G1 X144.584 Y167.526 E2.93813
G1 X132.474 Y155.416 E3.35232
G1 X132.474 Y144.584 E3.61429
G1 X144.584 Y132.474 E4.02848
G1 X155.416 Y132.474 E4.29045
G1 X167.484 Y144.542 E4.70321
G1 X167.914 Y144.424 F7800
G1 F1800
G1 X167.914 Y155.576 E4.97292
G1 X155.576 Y167.914 E5.39491
G1 X144.424 Y167.914 E5.66462
G1 X132.086 Y155.576 E6.08661
G1 X132.086 Y144.424 E6.35632
G1 X144.424 Y132.086 E6.77831
G1 X155.576 Y132.086 E7.04802
G1 X167.871 Y144.381 E7.46854
G1 X168.302 Y144.263 F7800
;TYPE:External perimeter
G1 F1800
G1 X168.302 Y155.737 E7.74604
G1 X155.737 Y168.302 E8.17579
G1 X144.263 Y168.302 E8.45329
G1 X131.698 Y155.737 E8.88304
G1 X131.698 Y144.263 E9.16054
G1 X144.263 Y131.698 E9.59029
G1 X155.737 Y131.698 E9.86779
G1 X168.259 Y144.221 E10.29609
G1 X168.049 Y144.573 F7800
G1 X167.41 Y144.88
;TYPE:Solid infill
;WIDTH:0.420752
G1 F1800
G1 X155.295 Y132.765 E10.71126
G1 X154.745 Y132.765 E10.72459
G1 X167.235 Y145.255 E11.15261
G1 X167.235 Y145.804 E11.16591
G1 X154.196 Y132.765 E11.61274
G1 X153.646 Y132.765 E11.62607
G1 X167.235 Y146.354 E12.09175
G1 X167.235 Y146.903 E12.10505
G1 X153.097 Y132.765 E12.58954
G1 X152.547 Y132.765 E12.60287
G1 X167.235 Y147.453 E13.10621
G1 X167.235 Y148.002 E13.11951
G1 X151.998 Y132.765 E13.64167
G1 X151.448 Y132.765 E13.655
G1 X167.235 Y148.552 E14.196
G1 X167.235 Y149.101 E14.2093
G1 X150.899 Y132.765 E14.76912
G1 X150.349 Y132.765 E14.78245
G1 X167.235 Y149.651 E15.36112
G1 X167.235 Y150.2 E15.37442
G1 X149.8 Y132.765 E15.9719
G1 X149.25 Y132.765 E15.98523
G1 X167.235 Y150.75 E16.60156
G1 X167.235 Y151.299 E16.61486
G1 X148.701 Y132.765 E17.25
G1 X148.151 Y132.765 E17.26333
G1 X167.235 Y151.849 E17.91732
G1 X167.235 Y152.399 E17.93065
G1 X147.601 Y132.765 E18.60349
G1 X147.052 Y132.765 E18.61679
G1 X167.235 Y152.948 E19.30844
G1 X167.235 Y153.498 E19.32177
G1 X146.502 Y132.765 E20.03227
G1 X145.953 Y132.765 E20.04557
G1 X167.235 Y154.047 E20.77488
G1 X167.235 Y154.597 E20.78821
G1 X145.403 Y132.765 E21.53637
G1 X144.854 Y132.765 E21.54967
G1 X167.235 Y155.146 E22.31664
G1 X167.235 Y155.295 E22.32025
G1 X167.035 Y155.495 E22.3271
G1 X144.505 Y132.965 E23.09918
G1 X144.23 Y133.24 E23.1086
G1 X166.76 Y155.77 E23.88068
G1 X166.486 Y156.045 E23.89009
G1 X143.955 Y133.514 E24.6622
G1 X143.68 Y133.789 E24.67162
G1 X166.211 Y156.32 E25.44373
G1 X165.936 Y156.594 E25.45314
G1 X143.406 Y134.064 E26.22522
G1 X143.131 Y134.339 E26.23464
G1 X165.661 Y156.869 E27.00672
G1 X165.387 Y157.144 E27.01613
G1 X142.856 Y134.613 E27.78824
G1 X142.581 Y134.888 E27.79766
G1 X165.112 Y157.419 E28.56977
G1 X164.837 Y157.693 E28.57918
G1 X142.307 Y135.163 E29.35126
G1 X142.032 Y135.438 E29.36068
G1 X164.562 Y157.968 E30.13276
G1 X164.288 Y158.243 E30.14217
G1 X141.757 Y135.712 E30.91428
G1 X141.482 Y135.987 E30.9237
G1 X164.013 Y158.518 E31.69581
G1 X163.738 Y158.792 E31.70522
G1 X141.208 Y136.262 E32.4773
G1 X140.933 Y136.537 E32.48672
G1 X163.463 Y159.067 E33.2588
G1 X163.189 Y159.342 E33.26821
G1 X140.658 Y136.811 E34.04032
G1 X140.383 Y137.086 E34.04974
G1 X162.914 Y159.617 E34.82185
G1 X162.639 Y159.891 E34.83126
G1 X140.109 Y137.361 E35.60334
G1 X139.834 Y137.636 E35.61276
G1 X162.364 Y160.166 E36.38484
G1 X162.089 Y160.441 E36.39426
G1 X139.559 Y137.911 E37.16634
G1 X139.284 Y138.185 E37.17575
G1 X161.815 Y160.716 E37.94786
G1 X161.54 Y160.99 E37.95727
G1 X139.01 Y138.46 E38.72935
G1 X138.735 Y138.735 E38.73877
G1 X161.265 Y161.265 E39.51085
G1 X160.99 Y161.54 E39.52027
G1 X138.46 Y139.01 E40.29235
G1 X138.185 Y139.284 E40.30176
G1 X160.716 Y161.815 E41.07387
G1 X160.441 Y162.09 E41.08329
G1 X137.91 Y139.559 E41.8554
G1 X137.636 Y139.834 E41.86481
G1 X160.166 Y162.364 E42.63689
G1 X159.891 Y162.639 E42.64631
G1 X137.361 Y140.109 E43.41839
G1 X137.086 Y140.383 E43.4278
G1 X159.617 Y162.914 E44.19991
G1 X159.342 Y163.189 E44.20933
G1 X136.811 Y140.658 E44.98144
G1 X136.537 Y140.933 E44.99085
G1 X159.067 Y163.463 E45.76293
G1 X158.792 Y163.738 E45.77235
G1 X136.262 Y141.208 E46.54443
G1 X135.987 Y141.482 E46.55384
G1 X158.518 Y164.013 E47.32595
G1 X158.243 Y164.288 E47.33537
G1 X135.712 Y141.757 E48.10748
G1 X135.438 Y142.032 E48.11689
G1 X157.968 Y164.562 E48.88897
G1 X157.693 Y164.837 E48.89839
G1 X135.163 Y142.307 E49.67047
G1 X134.888 Y142.581 E49.67988
G1 X157.419 Y165.112 E50.45199
G1 X157.144 Y165.387 E50.46141
G1 X134.613 Y142.856 E51.23352
G1 X134.339 Y143.131 E51.24293
G1 X156.869 Y165.661 E52.01501
G1 X156.594 Y165.936 E52.02443
G1 X134.064 Y143.406 E52.79651
G1 X133.789 Y143.68 E52.80592
G1 X156.32 Y166.211 E53.57803
G1 X156.045 Y166.486 E53.58745
G1 X133.514 Y143.955 E54.35956
G1 X133.24 Y144.23 E54.36897
G1 X155.77 Y166.76 E55.14105
G1 X155.495 Y167.035 E55.15047
G1 X132.965 Y144.505 E55.92255
G1 X132.765 Y144.705 E55.9294
G1 X132.765 Y144.854 E55.93301
G1 X155.146 Y167.235 E56.69998
G1 X154.596 Y167.235 E56.71331
G1 X132.765 Y145.404 E57.46144
G1 X132.765 Y145.953 E57.47474
G1 X154.047 Y167.235 E58.20405
G1 X153.497 Y167.235 E58.21738
G1 X132.765 Y146.503 E58.92784
G1 X132.765 Y147.052 E58.94114
G1 X152.948 Y167.235 E59.63279
G1 X152.398 Y167.235 E59.64612
G1 X132.765 Y147.602 E60.31892
G1 X132.765 Y148.151 E60.33222
G1 X151.849 Y167.235 E60.98621
G1 X151.299 Y167.235 E60.99954
G1 X132.765 Y148.701 E61.63468
G1 X132.765 Y149.25 E61.64798
G1 X150.75 Y167.235 E62.26431
G1 X150.2 Y167.235 E62.27764
G1 X132.765 Y149.8 E62.87512
G1 X132.765 Y150.349 E62.88842
G1 X149.651 Y167.235 E63.46709
G1 X149.101 Y167.235 E63.48042
G1 X132.765 Y150.899 E64.04024
G1 X132.765 Y151.448 E64.05354
G1 X148.552 Y167.235 E64.59454
G1 X148.002 Y167.235 E64.60787
G1 X132.765 Y151.998 E65.13003
G1 X132.765 Y152.547 E65.14333
G1 X147.453 Y167.235 E65.64667
G1 X146.903 Y167.235 E65.66
G1 X132.765 Y153.097 E66.14449
G1 X132.765 Y153.646 E66.15779
G1 X146.354 Y167.235 E66.62347
G1 X145.804 Y167.235 E66.6368
G1 X132.765 Y154.196 E67.08363
G1 X132.765 Y154.745 E67.09693
G1 X145.255 Y167.235 E67.52495
G1 X144.705 Y167.235 E67.53828
G1 X132.59 Y155.12 E67.95345
;LAYER_CHANGE
;Z:0.27
;HEIGHT:0.12
G1 Z.27 F7800
M140 S90 ; set bed temperature
