; generated by PrusaSlicer 2.6.0 on 2023-07-09 at 12:04:59 UTC

; 

; external perimeters extrusion width = 0.45mm
; perimeters extrusion width = 0.45mm
; infill extrusion width = 0.45mm
; solid infill extrusion width = 0.45mm
; top infill extrusion width = 0.40mm
; first layer extrusion width = 0.42mm

M104 S230 ; set temperature
;TYPE:Custom
G28 ;Home
G1 Z15.0 F2000 ;Move the platform
M106 S255
M109 S230 ; set temperature and wait for it to be reached
G21 ; set units to millimeters
G90 ; use absolute coordinates
M82 ; use absolute distances for extrusion
G92 E0
; Filament gcode
M107
;LAYER_CHANGE
;Z:0.15
;HEIGHT:0.15
G1 Z.15 F7800
G1 E-2 F2400
G92 E0
G1 X27.616 Y102.298 F7800
G1 E2 F2400
;TYPE:Skirt/Brim
;WIDTH:0.42
G1 F1800
G1 X28.694 Y102.081 E2.02659
G1 X31.645 Y102.293 E2.09814
G1 X32.958 Y102.721 E2.13154
G1 X34.07 Y103.499 E2.16436
G1 X37.493 Y107.559 E2.29279
G1 X40.836 Y104.78 E2.39793
G1 X41.911 Y104.305 E2.42635
G1 X42.927 Y104.149 E2.45121
G1 X44.168 Y104.265 E2.48135
G1 X45.154 Y104.611 E2.50662
G1 X46.23 Y105.371 E2.53848
G1 X50.739 Y110.744 E2.70812
G1 X51.409 Y112.326 E2.74967
G1 X51.467 Y112.949 E2.7648
G1 X51.425 Y113.939 E2.78876
G1 X51.065 Y115.132 E2.8189
G1 X50.455 Y116.077 E2.8461
G1 X49.644 Y116.848 E2.87316
G1 X49.432 Y117.08 E2.88076
G1 X49.244 Y117.325 E2.88823
G1 X49.078 Y117.585 E2.89569
G1 X48.936 Y117.859 E2.90315
G1 X48.818 Y118.144 E2.91061
G1 X48.725 Y118.437 E2.91804
G1 X48.658 Y118.74 E2.92555
G1 X48.618 Y119.044 E2.93297
G1 X48.606 Y119.329 E2.93987
G1 X48.641 Y119.849 E2.95247
G1 X48.767 Y120.413 E2.96645
G1 X48.875 Y120.71 E2.97409
G1 X49.14 Y121.222 E2.98803
G1 X49.501 Y121.715 E3.00281
G1 X64.165 Y139.191 E3.55455
G1 X65.455 Y140.664 E3.6019
G1 X66.773 Y142.048 E3.64812
G1 X68.159 Y143.384 E3.69468
G1 X69.58 Y144.645 E3.74063
G1 X71.062 Y145.853 E3.78687
G1 X72.593 Y146.997 E3.83309
G1 X74.171 Y148.076 E3.87932
G1 X75.793 Y149.088 E3.92556
G1 X77.471 Y150.039 E3.97221
G1 X82.878 Y152.863 E4.11974
G1 X88.376 Y155.546 E4.2677
G1 X93.945 Y158.079 E4.41566
G1 X99.58 Y160.459 E4.5636
G1 X105.278 Y162.685 E4.71155
G1 X111.034 Y164.755 E4.85949
G1 X116.845 Y166.669 E5.00746
G1 X122.705 Y168.423 E5.1554
G1 X128.611 Y170.018 E5.30335
G1 X134.558 Y171.451 E5.45129
G1 X140.542 Y172.723 E5.59925
G1 X146.558 Y173.831 E5.74719
G1 X152.602 Y174.775 E5.89514
G1 X158.669 Y175.554 E6.04307
G1 X164.756 Y176.169 E6.19103
G1 X170.857 Y176.617 E6.33898
G1 X176.968 Y176.9 E6.48693
G1 X183.084 Y177.016 E6.63487
G1 X189.201 Y176.967 E6.78281
G1 X195.315 Y176.75 E6.93077
G1 X201.42 Y176.368 E7.07871
G1 X207.513 Y175.82 E7.22666
G1 X213.589 Y175.106 E7.37462
G1 X219.643 Y174.228 E7.52257
G1 X225.67 Y173.185 E7.6705
G1 X231.667 Y171.979 E7.81844
G1 X237.63 Y170.611 E7.9664
G1 X243.538 Y169.084 E8.11398
G1 X249.415 Y167.394 E8.26187
G1 X250.218 Y167.134 E8.28228
G1 X251.005 Y166.842 E8.30258
G1 X251.767 Y166.525 E8.32254
G1 X252.523 Y166.174 E8.3427
G1 X253.26 Y165.794 E8.36275
G1 X253.982 Y165.384 E8.38283
G1 X254.688 Y164.945 E8.40294
G1 X255.375 Y164.478 E8.42303
G1 X256.043 Y163.983 E8.44314
G1 X256.725 Y163.434 E8.46431
G1 X263.727 Y157.559 E8.68537
G1 X264.928 Y156.967 E8.71775
G1 X266.204 Y156.777 E8.74895
G1 X267.595 Y156.972 E8.78292
G1 X268.376 Y157.305 E8.80345
G1 X269.347 Y158.012 E8.8325
G1 X277.66 Y167.919 E9.14528
G1 X278.121 Y168.74 E9.16805
G1 X278.397 Y169.664 E9.19137
G1 X278.267 Y171.768 E9.24235
G1 X277.923 Y172.577 E9.26361
G1 X277.215 Y173.549 E9.29269
G1 X264.404 Y184.299 E9.69715
G1 X263.297 Y184.913 E9.72777
G1 X257.07 Y186.929 E9.88607
G1 X250.934 Y188.743 E10.04082
G1 X244.728 Y190.402 E10.19618
G1 X238.476 Y191.9 E10.35166
G1 X232.251 Y193.221 E10.50556
G1 X225.909 Y194.396 E10.66155
G1 X219.589 Y195.396 E10.8163
G1 X213.265 Y196.229 E10.97057
G1 X206.906 Y196.899 E11.12521
G1 X200.528 Y197.404 E11.27994
G1 X194.117 Y197.744 E11.43521
G1 X187.75 Y197.915 E11.58925
G1 X181.322 Y197.922 E11.74471
G1 X174.925 Y197.761 E11.89947
G1 X168.53 Y197.433 E12.05434
G1 X162.13 Y196.938 E12.20959
G1 X155.775 Y196.279 E12.36411
G1 X149.42 Y195.453 E12.5191
G1 X143.103 Y194.463 E12.67374
G1 X136.804 Y193.308 E12.82862
G1 X130.522 Y191.986 E12.98388
G1 X124.302 Y190.507 E13.1385
G1 X118.108 Y188.863 E13.29349
G1 X111.958 Y187.057 E13.44851
G1 X105.819 Y185.079 E13.6045
G1 X99.825 Y182.974 E13.75814
G1 X93.849 Y180.7 E13.91278
G1 X87.926 Y178.267 E14.06764
G1 X82.053 Y175.675 E14.2229
G1 X76.251 Y172.93 E14.37813
G1 X70.539 Y170.044 E14.53291
G1 X64.854 Y166.981 E14.68909
G1 X62.971 Y165.884 E14.74179
G1 X61.119 Y164.702 E14.79493
G1 X59.33 Y163.456 E14.84766
G1 X57.579 Y162.129 E14.90079
G1 X55.871 Y160.723 E14.95429
G1 X54.222 Y159.248 E15.0078
G1 X52.566 Y157.638 E15.06366
G1 X51.071 Y156.061 E15.11621
G1 X49.634 Y154.418 E15.169
G1 X33.476 Y135.162 E15.77694
G1 X33.056 Y134.724 E15.79162
G1 X32.864 Y134.562 E15.7977
G1 X32.43 Y134.273 E15.81031
G1 X32.186 Y134.146 E15.81696
G1 X31.901 Y134.028 E15.82442
G1 X31.607 Y133.935 E15.83188
G1 X31.305 Y133.869 E15.83936
G1 X30.999 Y133.828 E15.84683
G1 X30.691 Y133.815 E15.85429
G1 X30.383 Y133.828 E15.86175
G1 X30.077 Y133.869 E15.86922
G1 X29.776 Y133.935 E15.87667
G1 X29.482 Y134.028 E15.88413
G1 X29.197 Y134.146 E15.89159
G1 X28.923 Y134.289 E15.89906
G1 X28.659 Y134.457 E15.90663
G1 X27.802 Y135.096 E15.93248
G1 X26.901 Y135.507 E15.95643
G1 X25.667 Y135.707 E15.98666
G1 X24.652 Y135.612 E16.01131
G1 X23.684 Y135.312 E16.03582
G1 X22.448 Y134.465 E16.07206
G1 X17.998 Y129.161 E16.2395
G1 X17.537 Y128.34 E16.26227
G1 X17.262 Y127.421 E16.28547
G1 X17.239 Y127.17 E16.29157
G1 X17.417 Y125.241 E16.33842
G1 X17.793 Y124.388 E16.36096
G1 X18.282 Y123.71 E16.38118
G1 X21.629 Y120.868 E16.48737
G1 X18.054 Y116.54 E16.62313
G1 X17.665 Y115.633 E16.647
G1 X17.447 Y114.294 E16.67981
G1 X17.802 Y111.059 E16.75852
G1 X18.182 Y110.182 E16.78164
G1 X18.953 Y109.135 E16.81309
G1 X26.591 Y102.776 E17.05345
G1 X27.562 Y102.323 E17.07936
G1 X27.723 Y102.675 F7800
G1 F1800
G1 X28.742 Y102.467 E17.10451
G1 X31.592 Y102.678 E17.17363
G1 X32.808 Y103.08 E17.2046
G1 X33.825 Y103.801 E17.23475
G1 X37.444 Y108.104 E17.37073
G1 X41.063 Y105.095 E17.48456
G1 X41.997 Y104.684 E17.50924
G1 X42.917 Y104.538 E17.53177
G1 X44.065 Y104.639 E17.55964
G1 X44.955 Y104.945 E17.5824
G1 X45.95 Y105.64 E17.61175
G1 X50.423 Y110.971 E17.78005
G1 X51.026 Y112.393 E17.81741
G1 X51.079 Y112.946 E17.83085
G1 X51.039 Y113.897 E17.85387
G1 X50.703 Y114.99 E17.88152
G1 X50.143 Y115.844 E17.90622
G1 X49.368 Y116.576 E17.932
G1 X49.135 Y116.83 E17.94034
G1 X48.926 Y117.102 E17.94864
G1 X48.742 Y117.391 E17.95693
G1 X48.584 Y117.694 E17.96519
G1 X48.453 Y118.011 E17.97349
G1 X48.35 Y118.337 E17.98176
G1 X48.276 Y118.673 E17.99008
G1 X48.231 Y119.011 E17.99833
G1 X48.217 Y119.333 E18.00612
G1 X48.255 Y119.891 E18.01965
G1 X48.309 Y120.2 E18.02724
G1 X48.398 Y120.534 E18.0356
G1 X48.515 Y120.855 E18.04386
G1 X48.66 Y121.165 E18.05214
G1 X48.818 Y121.438 E18.05977
G1 X49.196 Y121.954 E18.07524
G1 X63.871 Y139.443 E18.62739
G1 X65.169 Y140.926 E18.67505
G1 X66.498 Y142.322 E18.72167
G1 X67.895 Y143.669 E18.7686
G1 X69.328 Y144.941 E18.81494
G1 X70.823 Y146.159 E18.86158
G1 X72.367 Y147.313 E18.9082
G1 X73.959 Y148.401 E18.95483
G1 X75.595 Y149.421 E19.00146
G1 X77.285 Y150.38 E19.04845
G1 X82.704 Y153.209 E19.19629
G1 X88.211 Y155.897 E19.34449
G1 X93.789 Y158.434 E19.49269
G1 X99.434 Y160.818 E19.64089
G1 X105.142 Y163.048 E19.7891
G1 X110.908 Y165.122 E19.9373
G1 X116.729 Y167.039 E20.08552
G1 X122.599 Y168.796 E20.23371
G1 X128.515 Y170.394 E20.38192
G1 X134.472 Y171.829 E20.53011
G1 X140.467 Y173.103 E20.67834
G1 X146.493 Y174.213 E20.82653
G1 X152.548 Y175.159 E20.97475
G1 X158.625 Y175.94 E21.12293
G1 X164.722 Y176.555 E21.27113
G1 X170.834 Y177.005 E21.41935
G1 X176.955 Y177.288 E21.56754
G1 X183.082 Y177.404 E21.71575
G1 X189.209 Y177.354 E21.86394
G1 X195.334 Y177.138 E22.01216
G1 X201.45 Y176.755 E22.16036
G1 X207.553 Y176.206 E22.30856
G1 X213.639 Y175.491 E22.45676
G1 X219.703 Y174.611 E22.60495
G1 X225.742 Y173.567 E22.75317
G1 X231.749 Y172.358 E22.90136
G1 X237.722 Y170.987 E23.04957
G1 X243.641 Y169.458 E23.19742
G1 X249.529 Y167.765 E23.34559
G1 X250.346 Y167.5 E23.36636
G1 X251.147 Y167.203 E23.38702
G1 X251.924 Y166.88 E23.40737
G1 X252.694 Y166.522 E23.42791
G1 X253.445 Y166.135 E23.44834
G1 X254.181 Y165.718 E23.4688
G1 X254.899 Y165.27 E23.48927
G1 X255.599 Y164.794 E23.50974
G1 X256.28 Y164.29 E23.53023
G1 X256.971 Y163.734 E23.55168
G1 X263.959 Y157.87 E23.7723
G1 X265.018 Y157.346 E23.80088
G1 X266.181 Y157.165 E23.82935
G1 X267.469 Y157.339 E23.86078
G1 X268.168 Y157.633 E23.87912
G1 X269.066 Y158.28 E23.90589
G1 X277.351 Y168.154 E24.21762
G1 X277.772 Y168.909 E24.23853
G1 X278.015 Y169.74 E24.25947
G1 X277.897 Y171.648 E24.3057
G1 X277.595 Y172.369 E24.32461
G1 X276.947 Y173.268 E24.35141
G1 X264.169 Y183.99 E24.75483
G1 X263.159 Y184.549 E24.78275
G1 X256.953 Y186.56 E24.94052
G1 X250.827 Y188.37 E25.09501
G1 X244.63 Y190.027 E25.25015
G1 X238.388 Y191.522 E25.40538
G1 X232.173 Y192.842 E25.55904
G1 X225.846 Y194.013 E25.71466
G1 X219.531 Y195.012 E25.86929
G1 X213.222 Y195.844 E26.02319
G1 X206.873 Y196.513 E26.17759
G1 X200.505 Y197.017 E26.33208
G1 X194.099 Y197.357 E26.48723
G1 X187.747 Y197.527 E26.64091
G1 X181.325 Y197.534 E26.79623
G1 X174.938 Y197.373 E26.95075
G1 X168.552 Y197.046 E27.1054
G1 X162.162 Y196.551 E27.2604
G1 X155.817 Y195.894 E27.41467
G1 X149.472 Y195.068 E27.56942
G1 X143.165 Y194.081 E27.72381
G1 X136.876 Y192.927 E27.87845
G1 X130.609 Y191.608 E28.03334
G1 X124.394 Y190.131 E28.18784
G1 X118.214 Y188.49 E28.34248
G1 X112.07 Y186.686 E28.49734
G1 X105.945 Y184.713 E28.65297
G1 X99.956 Y182.609 E28.80649
G1 X93.99 Y180.338 E28.96088
G1 X88.075 Y177.909 E29.11553
G1 X82.217 Y175.323 E29.2704
G1 X76.423 Y172.582 E29.42542
G1 X70.721 Y169.701 E29.57993
G1 X65.046 Y166.645 E29.73581
G1 X63.176 Y165.555 E29.78816
G1 X61.331 Y164.377 E29.8411
G1 X59.555 Y163.14 E29.89344
G1 X57.817 Y161.823 E29.94618
G1 X56.121 Y160.426 E29.99932
G1 X54.483 Y158.961 E30.05247
G1 X52.844 Y157.369 E30.10773
G1 X51.36 Y155.803 E30.15991
G1 X49.93 Y154.167 E30.21246
G1 X33.765 Y134.903 E30.82066
G1 X33.322 Y134.44 E30.83616
G1 X33.097 Y134.252 E30.84325
G1 X32.627 Y133.939 E30.85691
G1 X32.35 Y133.794 E30.86447
G1 X32.034 Y133.663 E30.87274
G1 X31.707 Y133.561 E30.88102
G1 X31.373 Y133.486 E30.8893
G1 X31.033 Y133.442 E30.89759
G1 X30.691 Y133.427 E30.90587
G1 X30.349 Y133.442 E30.91415
G1 X30.01 Y133.486 E30.92242
G1 X29.676 Y133.561 E30.9307
G1 X29.349 Y133.663 E30.93898
G1 X29.033 Y133.794 E30.94725
G1 X28.729 Y133.953 E30.95555
G1 X28.437 Y134.138 E30.96391
G1 X27.622 Y134.752 E30.98859
G1 X26.764 Y135.143 E31.01139
G1 X25.679 Y135.318 E31.03797
G1 X24.709 Y135.227 E31.06153
G1 X23.829 Y134.951 E31.08383
G1 X22.728 Y134.195 E31.11613
G1 X18.307 Y128.927 E31.28246
G1 X17.886 Y128.171 E31.30339
G1 X17.64 Y127.33 E31.32458
G1 X17.626 Y127.188 E31.32803
G1 X17.8 Y125.309 E31.37367
G1 X18.12 Y124.597 E31.39255
G1 X18.552 Y123.989 E31.41059
G1 X22.172 Y120.916 E31.52543
G1 X18.372 Y116.316 E31.66973
G1 X18.031 Y115.505 E31.69101
G1 X17.835 Y114.309 E31.72032
G1 X18.171 Y111.184 E31.79633
G1 X18.509 Y110.392 E31.81716
G1 X19.219 Y109.417 E31.84633
G1 X26.819 Y103.091 E32.08548
G1 X27.669 Y102.7 E32.10811
G1 X27.83 Y103.047 F7800
G1 F1800
G1 X28.791 Y102.852 E32.13183
G1 X31.537 Y103.063 E32.19844
G1 X32.656 Y103.438 E32.22698
G1 X33.579 Y104.101 E32.25446
G1 X37.395 Y108.649 E32.39804
G1 X41.29 Y105.411 E32.52054
G1 X42.084 Y105.063 E32.54151
G1 X42.91 Y104.926 E32.56176
G1 X43.965 Y105.015 E32.58737
G1 X44.758 Y105.28 E32.60759
G1 X45.67 Y105.91 E32.6344
G1 X50.108 Y111.198 E32.80136
G1 X50.643 Y112.461 E32.83453
G1 X50.691 Y112.944 E32.84627
G1 X50.653 Y113.854 E32.8683
G1 X50.341 Y114.847 E32.89347
G1 X49.834 Y115.61 E32.91563
G1 X49.093 Y116.302 E32.94015
G1 X48.837 Y116.581 E32.94931
G1 X48.608 Y116.879 E32.9584
G1 X48.406 Y117.197 E32.96751
G1 X48.232 Y117.53 E32.9766
G1 X48.088 Y117.878 E32.98571
G1 X47.975 Y118.236 E32.99479
G1 X47.894 Y118.606 E33.00395
G1 X47.845 Y118.977 E33.013
G1 X47.829 Y119.338 E33.02174
G1 X47.869 Y119.938 E33.03628
G1 X47.93 Y120.284 E33.04478
G1 X48.028 Y120.65 E33.05394
G1 X48.157 Y121.003 E33.06303
G1 X48.316 Y121.344 E33.07213
G1 X48.492 Y121.65 E33.08067
G1 X48.891 Y122.194 E33.09699
G1 X63.576 Y139.696 E33.64953
G1 X64.882 Y141.187 E33.69747
G1 X66.223 Y142.595 E33.7445
G1 X67.632 Y143.954 E33.79184
G1 X69.077 Y145.236 E33.83856
G1 X70.584 Y146.464 E33.88557
G1 X72.142 Y147.628 E33.9326
G1 X73.747 Y148.726 E33.97963
G1 X75.396 Y149.755 E34.02664
G1 X77.1 Y150.721 E34.07401
G1 X82.529 Y153.555 E34.22212
G1 X88.045 Y156.248 E34.37057
G1 X93.633 Y158.789 E34.51903
G1 X99.288 Y161.178 E34.6675
G1 X105.006 Y163.411 E34.81596
G1 X110.781 Y165.489 E34.96439
G1 X116.613 Y167.409 E35.11288
G1 X122.493 Y169.169 E35.26132
G1 X128.419 Y170.769 E35.40977
G1 X134.386 Y172.208 E35.55822
G1 X140.391 Y173.483 E35.70669
G1 X146.428 Y174.595 E35.85515
G1 X152.493 Y175.543 E36.00361
G1 X158.581 Y176.325 E36.15206
G1 X164.689 Y176.942 E36.30053
G1 X170.811 Y177.392 E36.44899
G1 X176.942 Y177.675 E36.59743
G1 X183.08 Y177.792 E36.7459
G1 X189.218 Y177.742 E36.89435
G1 X195.353 Y177.525 E37.04282
G1 X201.479 Y177.142 E37.19127
G1 X207.593 Y176.592 E37.33973
G1 X213.689 Y175.876 E37.48817
G1 X219.764 Y174.994 E37.63663
G1 X225.813 Y173.948 E37.7851
G1 X231.831 Y172.738 E37.93356
G1 X237.814 Y171.364 E38.08202
G1 X243.743 Y169.832 E38.23012
G1 X249.642 Y168.136 E38.37857
G1 X250.473 Y167.867 E38.39969
G1 X251.289 Y167.564 E38.42074
G1 X252.08 Y167.235 E38.44146
G1 X252.864 Y166.87 E38.46238
G1 X253.629 Y166.476 E38.48319
G1 X254.379 Y166.051 E38.50404
G1 X255.111 Y165.596 E38.52488
G1 X255.824 Y165.111 E38.54574
G1 X256.517 Y164.597 E38.56661
G1 X257.217 Y164.034 E38.58834
G1 X264.191 Y158.182 E38.80852
G1 X265.109 Y157.723 E38.83334
G1 X266.16 Y157.553 E38.85909
G1 X267.346 Y157.708 E38.88802
G1 X267.962 Y157.962 E38.90413
G1 X268.785 Y158.549 E38.92858
G1 X277.042 Y168.389 E39.23924
G1 X277.421 Y169.076 E39.25822
G1 X277.633 Y169.814 E39.27679
G1 X277.526 Y171.531 E39.3184
G1 X277.265 Y172.163 E39.33494
G1 X276.679 Y172.987 E39.35939
G1 X263.934 Y183.681 E39.76176
G1 X263.022 Y184.186 E39.78697
G1 X256.836 Y186.19 E39.94423
G1 X250.719 Y187.998 E40.0985
G1 X244.537 Y189.65 E40.25326
G1 X238.3 Y191.145 E40.40837
G1 X232.095 Y192.462 E40.56178
G1 X225.778 Y193.631 E40.71715
G1 X219.473 Y194.629 E40.87153
G1 X213.179 Y195.458 E41.02506
G1 X206.84 Y196.126 E41.17922
G1 X200.476 Y196.63 E41.33361
G1 X194.086 Y196.969 E41.48837
G1 X187.745 Y197.14 E41.64178
G1 X181.332 Y197.146 E41.79688
G1 X174.95 Y196.986 E41.95128
G1 X168.579 Y196.659 E42.10556
G1 X162.194 Y196.165 E42.26044
G1 X155.86 Y195.508 E42.41445
G1 X149.525 Y194.684 E42.56895
G1 X143.228 Y193.698 E42.7231
G1 X136.949 Y192.546 E42.87749
G1 X130.696 Y191.23 E43.03203
G1 X124.487 Y189.754 E43.18638
G1 X118.321 Y188.117 E43.34067
G1 X112.181 Y186.314 E43.49544
G1 X106.072 Y184.346 E43.65066
G1 X100.087 Y182.244 E43.80407
G1 X94.13 Y179.977 E43.95822
G1 X88.225 Y177.552 E44.11261
G1 X82.376 Y174.969 E44.26725
G1 X76.596 Y172.235 E44.42189
G1 X70.903 Y169.358 E44.57616
G1 X65.239 Y166.308 E44.73174
G1 X63.382 Y165.225 E44.78373
G1 X61.543 Y164.052 E44.83648
G1 X59.78 Y162.824 E44.88844
G1 X58.054 Y161.516 E44.94082
G1 X56.371 Y160.129 E44.99356
G1 X54.745 Y158.675 E45.04631
G1 X53.123 Y157.099 E45.10101
G1 X51.65 Y155.545 E45.15279
G1 X50.226 Y153.917 E45.2051
G1 X34.053 Y134.643 E45.8136
G1 X33.587 Y134.157 E45.82988
G1 X33.33 Y133.941 E45.838
G1 X32.825 Y133.605 E45.85267
G1 X32.514 Y133.443 E45.86115
G1 X32.166 Y133.299 E45.87026
G1 X31.807 Y133.186 E45.87936
G1 X31.44 Y133.104 E45.88845
G1 X31.067 Y133.055 E45.89755
G1 X30.691 Y133.039 E45.90665
G1 X30.316 Y133.055 E45.91573
G1 X29.942 Y133.104 E45.92485
G1 X29.575 Y133.186 E45.93394
G1 X29.216 Y133.299 E45.94304
G1 X28.869 Y133.443 E45.95213
G1 X28.535 Y133.616 E45.96123
G1 X28.216 Y133.819 E45.97037
