; generated by PrusaSlicer 2.6.0 on 2023-06-24 at 17:35:25 UTC

; 

; external perimeters extrusion width = 0.45mm
; perimeters extrusion width = 0.45mm
; infill extrusion width = 0.45mm
; solid infill extrusion width = 0.45mm
; top infill extrusion width = 0.40mm
; first layer extrusion width = 0.42mm

M104 S220 ; set temperature
;TYPE:Custom
G28 ;Home
G1 Z15.0 F2000 ;Move the platform
M106 S255
M109 S220 ; set temperature and wait for it to be reached
G21 ; set units to millimeters
G90 ; use absolute coordinates
M82 ; use absolute distances for extrusion
G92 E0
; Filament gcode
M107
;LAYER_CHANGE
;Z:0.35
;HEIGHT:0.35
G1 Z.35 F7800
G1 E-2 F2400
G92 E0
G1 X134.753 Y116.427 F7800
G1 E2 F2400
;TYPE:Skirt/Brim
;WIDTH:0.42
G1 F1800
G1 X134.986 Y116.164 E2.01763
G1 X135.336 Y115.92 E2.03904
G1 X135.835 Y115.763 E2.06529
G1 X174.247 Y115.766 E3.99303
G1 X174.465 Y115.817 E4.00427
G1 X174.758 Y115.955 E4.02052
G1 X175.242 Y116.412 E4.05393
G1 X175.448 Y116.799 E4.07593
G1 X175.503 Y117.053 E4.08897
G1 X175.498 Y129.174 E4.69727
G1 X170.465 Y178.461 E7.18365
G1 X170.342 Y179.161 E7.21932
G1 X170.148 Y179.833 E7.25442
G1 X169.889 Y180.47 E7.28893
G1 X169.556 Y181.091 E7.32429
G1 X169.123 Y181.717 E7.36249
G1 X168.61 Y182.299 E7.40143
G1 X168.041 Y182.81 E7.43981
G1 X167.418 Y183.249 E7.47806
G1 X166.773 Y183.602 E7.51496
G1 X166.084 Y183.883 E7.5523
G1 X165.331 Y184.092 E7.59152
G1 X164.65 Y184.201 E7.62613
G1 X163.977 Y184.237 E7.65995
G1 X145.682 Y184.234 E8.5781
G1 X144.188 Y184.157 E8.65318
G1 X143.012 Y184.022 E8.71259
G1 X141.562 Y183.765 E8.78649
G1 X140.11 Y183.403 E8.86159
G1 X139.021 Y183.059 E8.9189
G1 X137.6 Y182.512 E8.99532
G1 X136.248 Y181.88 E9.07022
G1 X134.941 Y181.154 E9.14525
G1 X134.29 Y180.746 E9.18381
G1 X133.39 Y180.127 E9.23863
G1 X132.76 Y179.652 E9.27823
G1 X131.893 Y178.936 E9.33466
G1 X131.103 Y178.212 E9.38844
G1 X130.544 Y177.655 E9.42804
G1 X129.787 Y176.828 E9.48431
G1 X129.068 Y175.956 E9.54103
G1 X128.598 Y175.332 E9.58024
G1 X127.98 Y174.432 E9.63503
G1 X127.562 Y173.763 E9.67462
G1 X127.018 Y172.8 E9.73013
G1 X126.531 Y171.825 E9.78483
G1 X126.207 Y171.097 E9.82482
G1 X125.806 Y170.081 E9.87964
G1 X125.554 Y169.35 E9.91844
G1 X125.145 Y167.929 E9.99265
G1 X124.831 Y166.461 E10.06799
G1 X124.657 Y165.305 E10.12666
G1 X124.528 Y163.825 E10.20122
G1 X124.497 Y162.694 E10.258
G1 X124.497 Y149.078 E10.94133
G1 X124.512 Y148.195 E10.98565
G1 X124.587 Y146.907 E11.0504
G1 X124.679 Y145.992 E11.09655
G1 X124.797 Y145.113 E11.14106
G1 X124.945 Y144.233 E11.18584
G1 X125.213 Y142.965 E11.25088
G1 X125.435 Y142.097 E11.29584
G1 X125.685 Y141.237 E11.34079
G1 X126.109 Y139.98 E11.40737
G1 X134.732 Y116.483 E12.66349
G1 X135.034 Y116.628 F7800
G1 F1800
G1 X135.202 Y116.434 E12.67637
G1 X135.512 Y116.218 E12.69533
G1 X135.861 Y116.108 E12.71369
G1 X174.227 Y116.111 E14.63912
G1 X174.334 Y116.136 E14.64463
G1 X174.584 Y116.254 E14.6585
G1 X174.98 Y116.638 E14.68618
G1 X175.129 Y116.932 E14.70272
G1 X175.158 Y117.07 E14.7098
G1 X175.154 Y129.148 E15.31595
G1 X170.122 Y178.42 E17.80157
G1 X170.008 Y179.075 E17.83494
G1 X169.825 Y179.712 E17.8682
G1 X169.581 Y180.315 E17.90085
G1 X169.257 Y180.919 E17.93525
G1 X168.845 Y181.512 E17.97149
G1 X168.372 Y182.049 E18.0074
G1 X167.833 Y182.534 E18.04379
G1 X167.243 Y182.952 E18.08008
G1 X166.633 Y183.286 E18.11498
G1 X165.982 Y183.553 E18.15029
G1 X165.266 Y183.753 E18.1876
G1 X164.622 Y183.857 E18.22034
G1 X163.972 Y183.892 E18.25301
G1 X145.687 Y183.889 E19.17066
G1 X144.222 Y183.813 E19.24428
G1 X143.067 Y183.681 E19.30262
G1 X141.628 Y183.426 E19.37596
G1 X140.198 Y183.069 E19.44993
G1 X139.13 Y182.732 E19.50613
G1 X137.74 Y182.197 E19.58088
G1 X136.41 Y181.575 E19.65457
G1 X135.12 Y180.859 E19.72861
G1 X134.482 Y180.46 E19.76637
G1 X133.588 Y179.845 E19.82083
G1 X132.977 Y179.384 E19.85924
G1 X132.123 Y178.679 E19.91482
G1 X131.339 Y177.96 E19.96821
G1 X130.791 Y177.413 E20.00707
G1 X130.044 Y176.598 E20.06255
G1 X129.341 Y175.746 E20.11798
G1 X128.88 Y175.134 E20.15643
G1 X128.266 Y174.24 E20.21086
G1 X127.861 Y173.59 E20.24929
G1 X127.325 Y172.642 E20.30394
G1 X126.842 Y171.674 E20.35823
G1 X126.526 Y170.967 E20.39709
G1 X126.128 Y169.958 E20.45152
G1 X125.881 Y169.242 E20.48953
G1 X125.478 Y167.839 E20.56279
G1 X125.169 Y166.394 E20.63695
G1 X124.999 Y165.259 E20.69455
G1 X124.872 Y163.8 E20.76805
G1 X124.842 Y162.692 E20.82368
G1 X124.842 Y149.08 E21.50681
G1 X124.857 Y148.204 E21.55078
G1 X124.931 Y146.931 E21.61477
G1 X125.021 Y146.035 E21.65996
G1 X125.138 Y145.162 E21.70416
G1 X125.285 Y144.294 E21.74834
G1 X125.55 Y143.04 E21.81266
G1 X125.768 Y142.185 E21.85694
G1 X126.015 Y141.337 E21.90127
G1 X126.434 Y140.096 E21.967
G1 X135.014 Y116.684 E23.21837
G1 X135.319 Y116.824 F7800
G1 F1800
G1 X135.42 Y116.702 E23.22632
G1 X135.688 Y116.516 E23.24269
G1 X135.888 Y116.452 E23.25323
G1 X174.179 Y116.452 E25.1749
G1 X174.408 Y116.553 E25.18746
G1 X174.713 Y116.857 E25.20907
G1 X174.807 Y117.057 E25.22016
G1 X174.81 Y129.122 E25.82565
G1 X169.78 Y178.379 E28.31051
G1 X169.674 Y178.99 E28.34163
G1 X169.502 Y179.592 E28.37305
G1 X169.272 Y180.16 E28.4038
G1 X168.958 Y180.747 E28.43721
G1 X168.568 Y181.307 E28.47146
G1 X168.134 Y181.8 E28.50442
G1 X167.625 Y182.259 E28.53882
G1 X167.068 Y182.654 E28.57309
G1 X166.493 Y182.971 E28.60604
G1 X165.879 Y183.224 E28.63937
G1 X165.201 Y183.414 E28.67471
G1 X164.593 Y183.513 E28.70562
G1 X163.967 Y183.548 E28.73709
G1 X145.691 Y183.544 E29.65429
G1 X144.255 Y183.47 E29.72645
G1 X143.121 Y183.341 E29.78373
G1 X141.694 Y183.088 E29.85646
G1 X140.287 Y182.736 E29.92925
G1 X139.239 Y182.404 E29.98442
G1 X137.881 Y181.882 E30.05743
G1 X136.562 Y181.265 E30.13051
G1 X135.299 Y180.565 E30.20298
G1 X134.674 Y180.174 E30.23998
G1 X133.787 Y179.563 E30.29403
G1 X133.193 Y179.116 E30.33134
G1 X132.352 Y178.421 E30.38609
G1 X131.574 Y177.709 E30.43902
G1 X131.037 Y177.172 E30.47713
G1 X130.307 Y176.376 E30.53133
G1 X129.614 Y175.535 E30.58602
G1 X129.163 Y174.936 E30.62365
G1 X128.553 Y174.048 E30.67772
G1 X128.159 Y173.417 E30.71505
G1 X127.631 Y172.484 E30.76885
G1 X127.152 Y171.524 E30.82269
G1 X126.846 Y170.837 E30.86043
G1 X126.45 Y169.835 E30.9145
G1 X126.209 Y169.134 E30.9517
G1 X125.811 Y167.75 E31.02397
G1 X125.508 Y166.327 E31.09699
G1 X125.341 Y165.214 E31.15347
G1 X125.216 Y163.775 E31.22596
G1 X125.187 Y162.69 E31.28043
G1 X125.187 Y149.081 E31.96341
G1 X125.202 Y148.214 E32.00693
G1 X125.275 Y146.954 E32.07027
G1 X125.363 Y146.078 E32.11445
G1 X125.48 Y145.211 E32.15836
G1 X125.624 Y144.355 E32.20192
G1 X125.887 Y143.115 E32.26553
G1 X126.102 Y142.273 E32.30914
G1 X126.345 Y141.437 E32.35283
G1 X126.758 Y140.213 E32.41766
G1 X135.299 Y116.88 E33.66463
G1 X135.61 Y117.01 F7800
G1 F1800
G1 X135.642 Y116.968 E33.66728
G1 X135.864 Y116.813 E33.68087
G1 X135.914 Y116.797 E33.6835
G1 X174.128 Y116.797 E35.6013
G1 X174.191 Y116.824 E35.60474
G1 X174.442 Y117.074 E35.62252
G1 X174.468 Y117.138 E35.62599
G1 X174.466 Y129.095 E36.22606
G1 X169.437 Y178.338 E38.71022
G1 X169.335 Y178.922 E38.73997
G1 X169.179 Y179.471 E38.76861
G1 X168.964 Y180.006 E38.79755
G1 X168.659 Y180.575 E38.82995
G1 X168.291 Y181.102 E38.86221
G1 X167.882 Y181.564 E38.89318
G1 X167.402 Y181.996 E38.92559
G1 X166.877 Y182.367 E38.95785
G1 X166.336 Y182.664 E38.98882
G1 X165.757 Y182.901 E39.02022
G1 X165.118 Y183.079 E39.05351
G1 X164.548 Y183.171 E39.08249
G1 X163.963 Y183.203 E39.11189
G1 X145.696 Y183.2 E40.02864
G1 X144.279 Y183.126 E40.09985
G1 X143.176 Y183 E40.15557
G1 X141.772 Y182.752 E40.22712
G1 X140.386 Y182.406 E40.29881
G1 X139.357 Y182.081 E40.35297
G1 X138.021 Y181.567 E40.42481
G1 X136.724 Y180.961 E40.49666
G1 X135.478 Y180.27 E40.56816
G1 X134.867 Y179.887 E40.60435
G1 X133.985 Y179.281 E40.65806
G1 X133.41 Y178.847 E40.69421
G1 X132.582 Y178.164 E40.74808
G1 X131.81 Y177.457 E40.80062
G1 X131.284 Y176.931 E40.83795
G1 X130.565 Y176.146 E40.89137
G1 X129.887 Y175.325 E40.94481
G1 X129.445 Y174.737 E40.98173
G1 X128.839 Y173.855 E41.03544
G1 X128.457 Y173.244 E41.0716
G1 X127.938 Y172.326 E41.12452
G1 X127.462 Y171.373 E41.17798
G1 X127.165 Y170.707 E41.21458
G1 X126.773 Y169.712 E41.26825
G1 X126.536 Y169.026 E41.30467
G1 X126.144 Y167.661 E41.37594
G1 X125.846 Y166.261 E41.44777
G1 X125.683 Y165.168 E41.50323
G1 X125.56 Y163.751 E41.57461
G1 X125.532 Y162.688 E41.62798
G1 X125.532 Y149.083 E42.31076
G1 X125.547 Y148.223 E42.35393
G1 X125.62 Y146.978 E42.41652
G1 X125.705 Y146.121 E42.45974
G1 X125.82 Y145.265 E42.50309
G1 X125.964 Y144.416 E42.54631
G1 X126.223 Y143.19 E42.6092
G1 X126.435 Y142.361 E42.65214
G1 X126.675 Y141.537 E42.69521
G1 X127.083 Y140.329 E42.7592
G1 X135.589 Y117.066 E44.00227
G1 X135.906 Y117.204 F7800
G1 F1800
G1 X135.995 Y117.142 E44.00771
G1 X174.022 Y117.142 E45.91613
G1 X174.123 Y117.243 E45.9233
G1 X174.122 Y129.069 E46.5168
G1 X169.095 Y178.297 E49.0002
G1 X169.001 Y178.836 E49.02766
G1 X168.855 Y179.352 E49.05457
G1 X168.655 Y179.851 E49.08155
G1 X168.36 Y180.402 E49.11292
G1 X168.014 Y180.895 E49.14315
G1 X167.644 Y181.315 E49.17124
G1 X167.195 Y181.72 E49.20159
G1 X166.686 Y182.08 E49.23288
G1 X166.196 Y182.349 E49.26093
G1 X165.636 Y182.578 E49.29129
G1 X165.036 Y182.744 E49.32253
G1 X164.503 Y182.829 E49.34962
G1 X163.958 Y182.858 E49.37701
G1 X145.7 Y182.855 E50.2933
G1 X144.302 Y182.782 E50.36356
G1 X143.231 Y182.66 E50.41766
G1 X141.849 Y182.416 E50.48809
G1 X140.485 Y182.075 E50.55865
G1 X139.476 Y181.757 E50.61174
G1 X138.162 Y181.252 E50.68239
G1 X136.886 Y180.656 E50.75307
G1 X135.657 Y179.975 E50.82358
G1 X135.059 Y179.601 E50.85898
G1 X134.19 Y179.003 E50.91192
G1 X133.626 Y178.579 E50.94733
G1 X132.812 Y177.907 E51.0003
G1 X132.046 Y177.205 E51.05244
G1 X131.535 Y176.695 E51.08867
G1 X130.828 Y175.923 E51.14121
G1 X130.156 Y175.108 E51.19422
G1 X129.727 Y174.539 E51.22998
G1 X129.13 Y173.67 E51.28289
G1 X128.756 Y173.071 E51.31833
G1 X128.24 Y172.16 E51.37087
G1 X127.772 Y171.222 E51.42348
G1 X127.482 Y170.57 E51.45929
G1 X127.095 Y169.589 E51.51221
G1 X126.864 Y168.918 E51.54782
G1 X126.478 Y167.571 E51.61814
G1 X126.184 Y166.194 E51.6888
G1 X126.026 Y165.133 E51.74263
G1 X125.904 Y163.737 E51.81296
G1 X125.877 Y162.685 E51.86577
G1 X125.877 Y149.084 E52.54835
G1 X125.891 Y148.24 E52.59071
G1 X125.964 Y147.002 E52.65295
G1 X126.048 Y146.158 E52.69552
G1 X126.161 Y145.32 E52.73796
G1 X126.302 Y144.484 E52.78051
G1 X126.56 Y143.265 E52.84304
G1 X126.769 Y142.449 E52.88531
G1 X127.006 Y141.637 E52.92776
G1 X127.408 Y140.446 E52.99084
G1 X135.885 Y117.261 E54.22973
G1 E52.22973 F2400
G92 E0
G1 X173.051 Y118.214 F7800
G1 E2 F2400
;TYPE:Perimeter
;WIDTH:0.42
G1 F1800
G1 X173.051 Y129.006 E2.54161
G1 X168.046 Y178.012 E5.01381
G1 X167.956 Y178.591 E5.04322
G1 X167.767 Y179.187 E5.0746
G1 X167.45 Y179.832 E5.11067
G1 X167.026 Y180.396 E5.14608
G1 X166.517 Y180.888 E5.18161
G1 X165.927 Y181.275 E5.21702
G1 X165.28 Y181.565 E5.2526
G1 X164.582 Y181.731 E5.28861
G1 X163.935 Y181.786 E5.3212
G1 X145.724 Y181.782 E6.23513
G1 X144.385 Y181.712 E6.30242
G1 X143.39 Y181.599 E6.35268
G1 X142.078 Y181.368 E6.41954
G1 X140.781 Y181.044 E6.48663
G1 X139.835 Y180.746 E6.53641
G1 X138.586 Y180.267 E6.60354
G1 X137.378 Y179.703 E6.67045
G1 X136.205 Y179.053 E6.73775
G1 X135.65 Y178.706 E6.7706
G1 X134.823 Y178.137 E6.82098
G1 X134.033 Y177.531 E6.87095
G1 X133.521 Y177.103 E6.90444
G1 X132.784 Y176.428 E6.9546
G1 X132.312 Y175.956 E6.9881
G1 X131.634 Y175.216 E7.03847
G1 X131.001 Y174.448 E7.08842
G1 X130.599 Y173.915 E7.12192
G1 X130.029 Y173.085 E7.17245
G1 X129.679 Y172.526 E7.20555
G1 X129.185 Y171.652 E7.25593
G1 X128.741 Y170.761 E7.30589
G1 X128.469 Y170.152 E7.33936
G1 X128.1 Y169.214 E7.38995
G1 X127.885 Y168.591 E7.42303
G1 X127.517 Y167.306 E7.49011
G1 X127.239 Y165.998 E7.55722
G1 X127.092 Y165.012 E7.60725
G1 X126.975 Y163.681 E7.6743
G1 X126.949 Y162.674 E7.72485
G1 X126.949 Y149.092 E8.40647
G1 X126.963 Y148.284 E8.44703
G1 X127.033 Y147.083 E8.50741
G1 X127.113 Y146.281 E8.54786
G1 X127.221 Y145.483 E8.58827
G1 X127.355 Y144.688 E8.62873
G1 X127.605 Y143.506 E8.68936
G1 X127.804 Y142.73 E8.72956
G1 X128.03 Y141.955 E8.77007
G1 X128.419 Y140.803 E8.83109
G1 X136.678 Y118.214 E10.03813
G1 X172.991 Y118.214 E11.86053
G1 X173.396 Y117.87 F7800
G1 F1800
G1 X173.396 Y129.023 E12.42025
G1 X168.389 Y178.047 E14.89336
G1 X168.293 Y178.667 E14.92485
G1 X168.087 Y179.315 E14.95897
G1 X167.871 Y179.776 E14.98452
G1 X167.568 Y180.265 E15.01339
G1 X167.133 Y180.796 E15.04784
G1 X166.732 Y181.158 E15.07495
G1 X166.293 Y181.467 E15.10189
G1 X165.64 Y181.79 E15.13845
G1 X165.127 Y181.965 E15.16565
G1 X164.636 Y182.072 E15.19087
G1 X163.944 Y182.13 E15.22572
G1 X145.715 Y182.127 E16.14056
G1 X144.357 Y182.056 E16.20881
G1 X143.341 Y181.941 E16.26012
G1 X142.006 Y181.705 E16.32816
G1 X140.687 Y181.376 E16.39638
G1 X139.721 Y181.072 E16.4472
G1 X138.452 Y180.584 E16.51543
G1 X137.222 Y180.011 E16.58353
G1 X136.03 Y179.35 E16.65193
G1 X135.461 Y178.995 E16.68559
G1 X134.62 Y178.417 E16.7368
G1 X133.817 Y177.801 E16.78759
G1 X133.294 Y177.362 E16.82186
G1 X132.546 Y176.677 E16.87276
G1 X132.063 Y176.195 E16.907
G1 X131.374 Y175.442 E16.95822
G1 X130.73 Y174.661 E17.00902
G1 X130.319 Y174.117 E17.04324
G1 X129.74 Y173.274 E17.09456
G1 X129.383 Y172.702 E17.1284
G1 X128.88 Y171.814 E17.17962
G1 X128.429 Y170.908 E17.23041
G1 X128.151 Y170.285 E17.26465
G1 X127.776 Y169.334 E17.31595
G1 X127.556 Y168.695 E17.34987
G1 X127.182 Y167.389 E17.41805
G1 X126.899 Y166.06 E17.48624
G1 X126.749 Y165.053 E17.53733
G1 X126.631 Y163.701 E17.60544
G1 X126.604 Y162.678 E17.6568
G1 X126.604 Y149.089 E18.33878
G1 X126.618 Y148.271 E18.37984
G1 X126.689 Y147.056 E18.44092
G1 X126.771 Y146.24 E18.48208
G1 X126.88 Y145.432 E18.523
G1 X127.016 Y144.624 E18.56412
G1 X127.269 Y143.427 E18.62552
G1 X127.471 Y142.639 E18.66635
G1 X127.701 Y141.852 E18.7075
G1 X128.093 Y140.689 E18.76909
G1 X136.437 Y117.87 E19.98844
G1 X173.336 Y117.87 E21.84025
G1 X173.741 Y117.525 F7800
;TYPE:External perimeter
G1 F1800
G1 X173.741 Y129.041 E22.41819
G1 X168.715 Y178.251 E24.90068
G1 X168.63 Y178.743 E24.92574
G1 X168.408 Y179.442 E24.96255
G1 X168.175 Y179.939 E24.9901
G1 X167.873 Y180.43 E25.01903
G1 X167.543 Y180.852 E25.04592
G1 X167.162 Y181.234 E25.073
G1 X166.712 Y181.594 E25.10192
G1 X166.258 Y181.879 E25.12882
G1 X165.771 Y182.109 E25.15585
G1 X165.193 Y182.304 E25.18646
G1 X164.454 Y182.449 E25.22425
G1 X163.953 Y182.475 E25.24943
G1 X145.706 Y182.472 E26.16517
G1 X144.328 Y182.4 E26.23442
G1 X143.291 Y182.282 E26.2868
G1 X141.935 Y182.043 E26.3559
G1 X140.594 Y181.708 E26.42527
G1 X139.607 Y181.397 E26.4772
G1 X138.317 Y180.902 E26.54654
G1 X137.065 Y180.318 E26.61587
G1 X135.855 Y179.648 E26.68528
G1 X135.272 Y179.283 E26.7198
G1 X134.417 Y178.696 E26.77185
G1 X133.601 Y178.07 E26.82346
G1 X133.067 Y177.622 E26.85844
G1 X132.307 Y176.926 E26.91016
G1 X131.814 Y176.433 E26.94515
G1 X131.114 Y175.669 E26.99715
G1 X130.459 Y174.875 E27.04881
G1 X130.039 Y174.318 E27.08382
G1 X129.452 Y173.463 E27.13587
G1 X129.086 Y172.879 E27.17046
G1 X128.576 Y171.976 E27.22251
G1 X128.117 Y171.056 E27.27411
G1 X127.833 Y170.419 E27.30911
G1 X127.452 Y169.453 E27.36122
G1 X127.227 Y168.798 E27.39598
G1 X126.847 Y167.473 E27.46516
G1 X126.56 Y166.121 E27.53452
G1 X126.406 Y165.093 E27.58669
G1 X126.286 Y163.72 E27.65586
G1 X126.259 Y162.683 E27.70792
G1 X126.259 Y149.086 E28.3903
G1 X126.273 Y148.258 E28.43186
G1 X126.345 Y147.029 E28.49364
G1 X126.428 Y146.2 E28.53545
G1 X126.539 Y145.38 E28.57698
G1 X126.677 Y144.559 E28.61876
G1 X126.933 Y143.349 E28.68083
G1 X127.138 Y142.548 E28.72232
G1 X127.371 Y141.748 E28.76414
G1 X127.768 Y140.574 E28.82634
G1 X136.196 Y117.525 E30.05798
G1 X173.681 Y117.525 E31.9392
G1 X173.597 Y117.898 F7800
G1 E29.9392 F2400
G92 E0
G1 X150.108 Y136.923 F7800
G1 E2 F2400
;TYPE:Perimeter
G1 F1800
G1 X149.528 Y137.11 E2.03058
G1 X148.814 Y137.195 E2.06667
G1 X148.098 Y137.142 E2.1027
G1 X147.479 Y136.971 E2.13493
G1 X147.192 Y136.865 E2.15028
G1 X146.706 Y136.601 E2.17804
G1 X146.26 Y136.254 E2.2064
