; generated by PrusaSlicer 2.6.0 on 2023-07-10 at 10:20:29 UTC

; 

; external perimeters extrusion width = 0.45mm
; perimeters extrusion width = 0.45mm
; infill extrusion width = 0.45mm
; solid infill extrusion width = 0.45mm
; top infill extrusion width = 0.40mm
; first layer extrusion width = 0.42mm

M104 S230 ; set temperature
;TYPE:Custom
G28 ;Home
G1 Z15.0 F2000 ;Move the platform
M106 S255
M109 S230 ; set temperature and wait for it to be reached
G21 ; set units to millimeters
G90 ; use absolute coordinates
M82 ; use absolute distances for extrusion
G92 E0
; Filament gcode
M107
;LAYER_CHANGE
;Z:0.15
;HEIGHT:0.15
G1 Z.15 F7800
G1 E-2 F2400
G92 E0
G1 X97.19 Y132.148 F7800
G1 E2 F2400
;TYPE:Skirt/Brim
;WIDTH:0.42
G1 F1800
G1 X98.26 Y131.502 E2.03023
G1 X99.553 Y131.186 E2.06242
G1 X113.505 Y131.183 E2.39985
G1 X114.121 Y131.153 E2.41477
G1 X114.718 Y131.089 E2.42929
G1 X115.313 Y130.991 E2.44387
G1 X115.899 Y130.86 E2.45839
G1 X116.474 Y130.696 E2.47285
G1 X117.038 Y130.5 E2.48729
G1 X117.597 Y130.27 E2.50191
G1 X118.139 Y130.009 E2.51646
G1 X118.663 Y129.72 E2.53093
G1 X119.172 Y129.399 E2.54548
G1 X119.636 Y129.068 E2.55926
G1 X120.882 Y128.04 E2.59833
G1 X121.618 Y127.491 E2.62054
G1 X122.231 Y127.087 E2.6383
G1 X122.865 Y126.713 E2.6561
G1 X123.707 Y126.281 E2.67899
G1 X124.382 Y125.983 E2.69683
G1 X125.071 Y125.72 E2.71467
G1 X125.971 Y125.434 E2.73751
G1 X126.685 Y125.253 E2.75532
G1 X127.405 Y125.109 E2.77308
G1 X128.346 Y124.976 E2.79606
G1 X129.104 Y124.915 E2.81445
G1 X129.857 Y124.894 E2.83267
G1 X170.15 Y124.894 E3.80715
G1 X170.929 Y124.917 E3.826
G1 X171.711 Y124.983 E3.84498
G1 X172.485 Y125.09 E3.86388
G1 X173.244 Y125.237 E3.88258
G1 X174.165 Y125.473 E3.90557
G1 X174.935 Y125.722 E3.92514
G1 X175.684 Y126.01 E3.94455
G1 X176.354 Y126.31 E3.9623
G1 X177.014 Y126.647 E3.98022
G1 X177.827 Y127.123 E4.003
G1 X178.432 Y127.526 E4.02058
G1 X179.025 Y127.967 E4.03845
G1 X180.363 Y129.067 E4.08034
G1 X180.828 Y129.399 E4.09416
G1 X181.337 Y129.72 E4.10871
G1 X181.861 Y130.009 E4.12318
G1 X182.403 Y130.27 E4.13773
G1 X182.962 Y130.5 E4.15235
G1 X183.526 Y130.696 E4.16679
G1 X184.101 Y130.86 E4.18125
G1 X184.687 Y130.991 E4.19577
G1 X185.283 Y131.089 E4.21038
G1 X185.879 Y131.153 E4.22488
G1 X186.497 Y131.183 E4.23984
G1 X200.447 Y131.186 E4.57722
G1 X201.747 Y131.505 E4.60959
G1 X202.846 Y132.18 E4.64078
G1 X203.786 Y133.223 E4.67474
G1 X204.17 Y133.98 E4.69527
G1 X204.46 Y135.146 E4.72433
G1 X204.46 Y156.092 E5.23091
G1 X204.141 Y157.392 E5.26328
G1 X203.467 Y158.492 E5.29448
G1 X202.423 Y159.432 E5.32846
G1 X201.666 Y159.816 E5.34899
G1 X200.5 Y160.106 E5.37805
G1 X186.76 Y160.106 E5.71035
G1 X186.105 Y160.124 E5.7262
G1 X185.501 Y160.176 E5.74086
G1 X184.923 Y160.258 E5.75498
G1 X184.34 Y160.375 E5.76936
G1 X183.767 Y160.523 E5.78367
G1 X183.189 Y160.709 E5.79835
G1 X182.644 Y160.918 E5.81247
G1 X182.102 Y161.162 E5.82685
G1 X181.575 Y161.436 E5.84122
G1 X181.066 Y161.738 E5.85553
G1 X180.562 Y162.078 E5.87023
G1 X180.098 Y162.43 E5.88432
G1 X179.645 Y162.815 E5.8987
G1 X179.215 Y163.225 E5.91307
G1 X178.808 Y163.658 E5.92744
G1 X178.427 Y164.114 E5.94181
G1 X178.072 Y164.591 E5.95619
G1 X177.744 Y165.087 E5.97057
G1 X177.445 Y165.6 E5.98493
G1 X176.927 Y166.616 E6.01251
G1 X176.601 Y167.177 E6.0282
G1 X175.974 Y168.075 E6.05469
G1 X175.275 Y168.881 E6.08049
G1 X174.678 Y169.458 E6.10057
G1 X173.72 Y170.216 E6.13011
G1 X172.691 Y170.851 E6.15935
G1 X171.62 Y171.353 E6.18796
G1 X170.8 Y171.642 E6.20899
G1 X170.104 Y171.832 E6.22644
G1 X168.953 Y172.033 E6.2547
G1 X167.787 Y172.106 E6.28295
G1 X133.954 Y172.107 E7.1012
G1 X133.237 Y173.375 E7.13643
G1 X132.567 Y174.124 E7.16073
G1 X131.757 Y174.664 E7.18427
G1 X130.776 Y175.028 E7.20958
G1 X129.14 Y175.11 E7.2492
G1 X127.636 Y174.704 E7.28688
G1 X126.807 Y174.162 E7.31083
G1 X126.154 Y173.468 E7.33388
G1 X124.032 Y169.669 E7.43912
G1 X123.724 Y168.875 E7.45972
G1 X123.497 Y167.971 E7.48226
G1 X123.32 Y167.373 E7.49734
G1 X123.116 Y166.803 E7.51198
G1 X122.883 Y166.255 E7.52638
G1 X122.608 Y165.7 E7.54136
G1 X122.31 Y165.176 E7.55594
G1 X121.981 Y164.666 E7.57062
G1 X121.623 Y164.177 E7.58528
G1 X121.237 Y163.71 E7.59993
G1 X120.825 Y163.265 E7.6146
G1 X120.388 Y162.845 E7.62926
G1 X119.936 Y162.458 E7.64365
G1 X119.444 Y162.082 E7.65863
G1 X118.943 Y161.744 E7.67325
G1 X118.422 Y161.435 E7.6879
G1 X117.884 Y161.156 E7.70256
G1 X117.331 Y160.908 E7.71722
G1 X116.775 Y160.696 E7.73161
G1 X116.185 Y160.509 E7.74658
G1 X115.599 Y160.361 E7.7612
G1 X115.004 Y160.246 E7.77586
G1 X114.403 Y160.165 E7.79053
G1 X113.797 Y160.119 E7.80523
G1 X99.137 Y160.054 E8.15978
G1 X98.243 Y159.78 E8.18239
G1 X97.195 Y159.149 E8.21198
G1 X96.426 Y158.359 E8.23864
G1 X95.853 Y157.379 E8.2661
G1 X95.54 Y156.092 E8.29813
G1 X95.54 Y135.146 E8.80471
G1 X95.839 Y133.949 E8.83455
G1 X96.382 Y132.999 E8.86101
G1 X97.149 Y132.192 E8.88794
G1 X97.428 Y132.46 F7800
G1 F1800
G1 X98.433 Y131.851 E8.91636
G1 X99.576 Y131.574 E8.9448
G1 X113.515 Y131.571 E9.28191
G1 X114.152 Y131.539 E9.29734
G1 X114.77 Y131.473 E9.31237
G1 X115.387 Y131.372 E9.32749
G1 X115.995 Y131.236 E9.34256
G1 X116.591 Y131.066 E9.35755
G1 X117.176 Y130.863 E9.37253
G1 X117.755 Y130.624 E9.38768
G1 X118.317 Y130.354 E9.40276
G1 X118.86 Y130.054 E9.41776
G1 X119.388 Y129.721 E9.43286
G1 X119.872 Y129.376 E9.44723
G1 X121.125 Y128.342 E9.48652
G1 X121.836 Y127.812 E9.50797
G1 X122.441 Y127.413 E9.5255
G1 X123.057 Y127.05 E9.54279
G1 X123.869 Y126.633 E9.56487
G1 X124.525 Y126.344 E9.58221
G1 X125.204 Y126.084 E9.59979
G1 X126.072 Y125.809 E9.62181
G1 X126.767 Y125.632 E9.63916
G1 X127.476 Y125.49 E9.65665
G1 X128.383 Y125.362 E9.6788
G1 X129.12 Y125.303 E9.69668
G1 X129.859 Y125.282 E9.71456
G1 X170.147 Y125.282 E10.68892
G1 X170.902 Y125.304 E10.70719
G1 X171.663 Y125.368 E10.72566
G1 X172.416 Y125.472 E10.74404
G1 X173.165 Y125.617 E10.76249
G1 X174.052 Y125.844 E10.78463
G1 X174.801 Y126.086 E10.80367
G1 X175.53 Y126.366 E10.82256
G1 X176.191 Y126.662 E10.84008
G1 X176.833 Y126.99 E10.85752
G1 X177.616 Y127.449 E10.87947
G1 X178.212 Y127.846 E10.89679
G1 X178.79 Y128.276 E10.91421
G1 X180.127 Y129.375 E10.95607
G1 X180.612 Y129.721 E10.97048
G1 X181.14 Y130.054 E10.98558
G1 X181.683 Y130.354 E11.00058
G1 X182.245 Y130.624 E11.01566
G1 X182.824 Y130.863 E11.03081
G1 X183.409 Y131.066 E11.04579
G1 X184.005 Y131.236 E11.06078
G1 X184.613 Y131.372 E11.07585
G1 X185.23 Y131.474 E11.09097
G1 X185.849 Y131.539 E11.10602
G1 X186.487 Y131.571 E11.12147
G1 X200.424 Y131.574 E11.45853
G1 X201.572 Y131.853 E11.4871
G1 X202.579 Y132.462 E11.51556
G1 X203.454 Y133.424 E11.54701
G1 X203.8 Y134.098 E11.56533
G1 X204.072 Y135.171 E11.5921
G1 X204.072 Y156.069 E12.09752
G1 X203.794 Y157.217 E12.12609
G1 X203.184 Y158.225 E12.15458
G1 X202.222 Y159.1 E12.18603
G1 X201.549 Y159.446 E12.20433
G1 X200.475 Y159.718 E12.23112
G1 X186.754 Y159.718 E12.56296
G1 X186.083 Y159.737 E12.57919
G1 X185.457 Y159.791 E12.59439
G1 X184.858 Y159.876 E12.60902
G1 X184.254 Y159.996 E12.62391
G1 X183.659 Y160.151 E12.63878
G1 X183.06 Y160.343 E12.65399
G1 X182.495 Y160.56 E12.66863
G1 X181.933 Y160.813 E12.68354
G1 X181.387 Y161.097 E12.69842
G1 X180.858 Y161.411 E12.7133
G1 X180.337 Y161.762 E12.72849
G1 X179.855 Y162.127 E12.74311
G1 X179.385 Y162.527 E12.75804
G1 X178.939 Y162.952 E12.77294
G1 X178.518 Y163.401 E12.78783
G1 X178.122 Y163.874 E12.80275
G1 X177.754 Y164.368 E12.81765
G1 X177.415 Y164.882 E12.83254
G1 X177.105 Y165.414 E12.84743
G1 X176.589 Y166.425 E12.87488
G1 X176.27 Y166.975 E12.89026
G1 X175.662 Y167.844 E12.91591
G1 X174.988 Y168.621 E12.94079
G1 X174.43 Y169.16 E12.95955
G1 X173.506 Y169.892 E12.98806
G1 X172.516 Y170.505 E13.01622
G1 X171.482 Y170.991 E13.04385
G1 X170.678 Y171.274 E13.06446
G1 X170.011 Y171.455 E13.08117
G1 X168.918 Y171.647 E13.10801
G1 X167.781 Y171.718 E13.13556
G1 X133.727 Y171.72 E13.95915
G1 X132.934 Y173.132 E13.99832
G1 X132.295 Y173.847 E14.02151
G1 X131.562 Y174.328 E14.04271
G1 X130.726 Y174.642 E14.06431
G1 X129.151 Y174.721 E14.10245
G1 X127.82 Y174.362 E14.13579
G1 X127.073 Y173.879 E14.1573
G1 X126.453 Y173.219 E14.1792
G1 X124.388 Y169.516 E14.28174
G1 X124.09 Y168.746 E14.30171
G1 X123.871 Y167.869 E14.32357
G1 X123.689 Y167.252 E14.33913
G1 X123.477 Y166.662 E14.35429
G1 X123.235 Y166.093 E14.36924
G1 X122.951 Y165.518 E14.38475
G1 X122.642 Y164.974 E14.39988
G1 X122.3 Y164.446 E14.41509
G1 X121.929 Y163.939 E14.43028
G1 X121.529 Y163.454 E14.44548
G1 X121.102 Y162.993 E14.46068
G1 X120.649 Y162.558 E14.47587
G1 X120.18 Y162.156 E14.49081
G1 X119.671 Y161.767 E14.5063
G1 X119.151 Y161.416 E14.52147
G1 X118.611 Y161.096 E14.53665
G1 X118.053 Y160.806 E14.55186
G1 X117.479 Y160.549 E14.56707
G1 X116.903 Y160.33 E14.58197
G1 X116.291 Y160.136 E14.5975
G1 X115.684 Y159.982 E14.61265
G1 X115.067 Y159.863 E14.62785
G1 X114.444 Y159.779 E14.64305
G1 X113.813 Y159.732 E14.65835
G1 X99.221 Y159.674 E15.01126
G1 X98.42 Y159.435 E15.03148
G1 X97.455 Y158.86 E15.05865
G1 X96.721 Y158.106 E15.0841
G1 X96.203 Y157.21 E15.10913
G1 X95.928 Y156.069 E15.13752
G1 X95.928 Y135.171 E15.64294
G1 X96.208 Y134.071 E15.67039
G1 X96.705 Y133.214 E15.69435
G1 X97.387 Y132.503 E15.71818
G1 X97.665 Y132.772 F7800
G1 F1800
G1 X97.711 Y132.725 E15.71977
G1 X98.604 Y132.2 E15.74482
G1 X99.599 Y131.962 E15.76956
G1 X113.524 Y131.959 E16.10633
G1 X114.182 Y131.926 E16.12226
G1 X114.822 Y131.858 E16.13783
G1 X115.461 Y131.753 E16.15349
G1 X116.09 Y131.612 E16.16908
G1 X116.707 Y131.436 E16.1846
G1 X117.313 Y131.226 E16.20011
G1 X117.913 Y130.979 E16.2158
G1 X118.495 Y130.699 E16.23142
G1 X119.058 Y130.388 E16.24698
G1 X119.605 Y130.043 E16.26262
G1 X120.109 Y129.684 E16.27759
G1 X121.369 Y128.644 E16.3171
G1 X122.055 Y128.133 E16.33779
G1 X122.642 Y127.745 E16.35481
G1 X123.249 Y127.387 E16.37185
G1 X124.031 Y126.986 E16.3931
G1 X124.677 Y126.7 E16.41019
G1 X125.337 Y126.448 E16.42728
G1 X126.173 Y126.183 E16.44849
G1 X126.848 Y126.011 E16.46534
G1 X127.547 Y125.871 E16.48258
G1 X128.42 Y125.749 E16.5039
G1 X129.136 Y125.69 E16.52128
G1 X129.862 Y125.67 E16.53884
G1 X170.144 Y125.67 E17.51306
G1 X170.885 Y125.692 E17.53099
G1 X171.626 Y125.754 E17.54897
G1 X172.358 Y125.855 E17.56684
G1 X173.085 Y125.996 E17.58475
G1 X173.939 Y126.215 E17.60607
G1 X174.667 Y126.45 E17.62457
G1 X175.377 Y126.723 E17.64297
G1 X176.019 Y127.01 E17.65998
G1 X176.651 Y127.333 E17.67715
G1 X177.406 Y127.775 E17.69831
G1 X177.993 Y128.166 E17.71537
G1 X178.555 Y128.584 E17.73231
G1 X179.891 Y129.683 E17.77415
G1 X180.395 Y130.043 E17.78913
G1 X180.942 Y130.388 E17.80477
G1 X181.505 Y130.699 E17.82033
G1 X182.087 Y130.979 E17.83595
G1 X182.687 Y131.226 E17.85164
G1 X183.293 Y131.436 E17.86715
G1 X183.91 Y131.612 E17.88267
G1 X184.539 Y131.753 E17.89826
G1 X185.178 Y131.858 E17.91392
G1 X185.819 Y131.926 E17.92951
G1 X186.477 Y131.959 E17.94544
G1 X200.401 Y131.962 E18.28219
G1 X201.4 Y132.201 E18.30703
G1 X202.313 Y132.746 E18.33275
G1 X203.122 Y133.627 E18.36168
G1 X203.43 Y134.217 E18.37778
G1 X203.684 Y135.196 E18.40224
G1 X203.684 Y156.047 E18.90652
G1 X203.445 Y157.045 E18.93134
G1 X202.9 Y157.959 E18.95708
G1 X202.02 Y158.768 E18.98599
G1 X201.429 Y159.076 E19.00211
G1 X200.45 Y159.33 E19.02657
G1 X186.749 Y159.33 E19.35793
G1 X186.061 Y159.35 E19.37458
G1 X185.413 Y159.405 E19.39031
G1 X184.792 Y159.493 E19.40548
G1 X184.167 Y159.618 E19.42089
G1 X183.551 Y159.778 E19.43628
G1 X182.931 Y159.977 E19.45203
G1 X182.346 Y160.202 E19.46719
G1 X181.764 Y160.464 E19.48263
G1 X181.198 Y160.758 E19.49806
G1 X180.651 Y161.083 E19.51345
G1 X180.111 Y161.446 E19.52919
G1 X179.612 Y161.825 E19.54434
G1 X179.126 Y162.238 E19.55976
G1 X178.664 Y162.679 E19.57521
G1 X178.227 Y163.144 E19.59064
G1 X177.818 Y163.633 E19.60606
G1 X177.437 Y164.145 E19.62149
G1 X177.085 Y164.677 E19.63692
G1 X176.764 Y165.229 E19.65236
G1 X176.251 Y166.235 E19.67967
G1 X175.939 Y166.773 E19.69471
G1 X175.35 Y167.613 E19.71952
G1 X174.701 Y168.36 E19.74345
G1 X174.181 Y168.862 E19.76093
G1 X173.292 Y169.569 E19.7884
G1 X172.34 Y170.159 E19.81549
G1 X171.344 Y170.628 E19.84212
G1 X170.556 Y170.906 E19.86233
G1 X169.918 Y171.079 E19.87832
G1 X168.862 Y171.263 E19.90424
G1 X167.775 Y171.33 E19.93058
G1 X133.499 Y171.332 E20.75954
G1 X132.63 Y172.89 E20.80268
G1 X132.024 Y173.568 E20.82467
G1 X131.369 Y173.992 E20.84354
G1 X130.675 Y174.256 E20.8615
G1 X129.162 Y174.332 E20.89814
G1 X128.006 Y174.019 E20.9271
G1 X127.304 Y173.566 E20.94731
G1 X126.753 Y172.973 E20.96689
G1 X124.745 Y169.363 E21.06679
G1 X124.456 Y168.618 E21.08612
G1 X124.246 Y167.768 E21.1073
G1 X124.058 Y167.132 E21.12334
G1 X123.838 Y166.521 E21.13905
G1 X123.588 Y165.931 E21.15455
G1 X123.294 Y165.336 E21.1706
G1 X122.974 Y164.773 E21.18626
G1 X122.62 Y164.226 E21.20202
G1 X122.235 Y163.701 E21.21777
G1 X121.821 Y163.199 E21.23351
G1 X121.379 Y162.722 E21.24924
G1 X120.91 Y162.27 E21.26499
G1 X120.424 Y161.854 E21.28046
G1 X119.897 Y161.452 E21.29649
G1 X119.359 Y161.089 E21.31219
G1 X118.799 Y160.756 E21.32795
G1 X118.222 Y160.457 E21.34367
G1 X117.628 Y160.191 E21.35941
G1 X117.03 Y159.964 E21.37488
G1 X116.397 Y159.763 E21.39094
G1 X115.768 Y159.604 E21.40663
G1 X115.129 Y159.48 E21.42237
G1 X114.484 Y159.394 E21.43811
G1 X113.828 Y159.344 E21.45402
G1 X99.303 Y159.294 E21.80531
G1 X98.595 Y159.088 E21.82314
G1 X97.712 Y158.569 E21.84791
G1 X97.044 Y157.89 E21.87095
G1 X96.553 Y157.041 E21.89467
G1 X96.316 Y156.047 E21.91938
G1 X96.316 Y135.196 E22.42366
G1 X96.576 Y134.196 E22.44865
G1 X97.027 Y133.432 E22.47011
G1 X97.623 Y132.815 E22.49086
G1 X97.9 Y133.086 F7800
G1 F1800
G1 X97.969 Y133.016 E22.49324
G1 X98.772 Y132.55 E22.51569
G1 X99.621 Y132.35 E22.53678
G1 X113.534 Y132.346 E22.87326
G1 X114.212 Y132.313 E22.88968
G1 X114.875 Y132.242 E22.90581
G1 X115.535 Y132.134 E22.92198
G1 X116.186 Y131.988 E22.93812
G1 X116.824 Y131.806 E22.95417
G1 X117.451 Y131.589 E22.97022
G1 X118.071 Y131.333 E22.98644
G1 X118.673 Y131.043 E23.0026
G1 X119.255 Y130.722 E23.01867
G1 X119.821 Y130.365 E23.03485
G1 X120.345 Y129.992 E23.05041
G1 X121.612 Y128.946 E23.09015
G1 X122.273 Y128.453 E23.11009
G1 X122.843 Y128.076 E23.12662
G1 X123.441 Y127.724 E23.1434
G1 X124.193 Y127.338 E23.16384
G1 X124.82 Y127.061 E23.18042
G1 X125.47 Y126.812 E23.19725
G1 X126.274 Y126.558 E23.21764
G1 X126.939 Y126.389 E23.23423
G1 X127.617 Y126.253 E23.25095
G1 X128.457 Y126.135 E23.27146
G1 X129.162 Y126.077 E23.28857
G1 X129.865 Y126.058 E23.30558
G1 X170.141 Y126.058 E24.27965
G1 X170.868 Y126.079 E24.29724
G1 X171.588 Y126.14 E24.31472
G1 X172.299 Y126.239 E24.33208
G1 X173.005 Y126.376 E24.34947
G1 X173.826 Y126.586 E24.36997
G1 X174.533 Y126.814 E24.38794
G1 X175.223 Y127.079 E24.40582
G1 X175.848 Y127.358 E24.42237
G1 X176.47 Y127.675 E24.43925
G1 X177.195 Y128.101 E24.45959
G1 X177.766 Y128.48 E24.47616
G1 X178.32 Y128.892 E24.49286
G1 X179.654 Y129.991 E24.53466
G1 X180.179 Y130.365 E24.55025
G1 X180.745 Y130.722 E24.56643
G1 X181.327 Y131.043 E24.5825
G1 X181.929 Y131.333 E24.59866
G1 X182.549 Y131.589 E24.61488
G1 X183.176 Y131.806 E24.63093
G1 X183.814 Y131.988 E24.64698
G1 X184.465 Y132.134 E24.66312
G1 X185.126 Y132.242 E24.67932
G1 X185.789 Y132.313 E24.69545
G1 X186.468 Y132.347 E24.71189
G1 X200.379 Y132.35 E25.04833
G1 X201.229 Y132.551 E25.06945
G1 X202.049 Y133.031 E25.09243
G1 X202.792 Y133.832 E25.11885
G1 X203.062 Y134.34 E25.13276
G1 X203.296 Y135.222 E25.15483
G1 X203.296 Y156.025 E25.65795
G1 X203.096 Y156.875 E25.67907
G1 X202.615 Y157.695 E25.70206
G1 X201.814 Y158.438 E25.72848
G1 X201.307 Y158.708 E25.74237
G1 X200.424 Y158.942 E25.76446
G1 X186.743 Y158.942 E26.09533
G1 X186.039 Y158.962 E26.11236
G1 X185.369 Y159.02 E26.12862
G1 X184.727 Y159.111 E26.1443
G1 X184.08 Y159.24 E26.16026
G1 X183.442 Y159.405 E26.1762
G1 X182.802 Y159.611 E26.19246
G1 X182.197 Y159.844 E26.20814
G1 X181.595 Y160.114 E26.2241
G1 X181.009 Y160.419 E26.24008
G1 X180.443 Y160.755 E26.256
G1 X179.885 Y161.131 E26.27227
G1 X179.369 Y161.522 E26.28793
G1 X178.866 Y161.95 E26.3039
G1 X178.388 Y162.405 E26.31986
