; generated by PrusaSlicer 2.6.0 on 2023-06-23 at 07:04:32 UTC

; 

; external perimeters extrusion width = 0.45mm
; perimeters extrusion width = 0.45mm
; infill extrusion width = 0.45mm
; solid infill extrusion width = 0.45mm
; top infill extrusion width = 0.40mm
; first layer extrusion width = 0.42mm

M104 S220 ; set temperature
;TYPE:Custom
G28 ;Home
G1 Z15.0 F2000 ;Move the platform
M106 S255
M109 S220 ; set temperature and wait for it to be reached
G21 ; set units to millimeters
G90 ; use absolute coordinates
M82 ; use absolute distances for extrusion
G92 E0
; Filament gcode
M107
;LAYER_CHANGE
;Z:0.35
;HEIGHT:0.35
G1 Z.35 F7800
G1 E-2 F2400
G92 E0
G1 X126.803 Y113.329 F7800
G1 E2 F2400
;TYPE:Skirt/Brim
;WIDTH:0.42
G1 F1800
G1 X127.229 Y112.892 E2.03063
G1 X127.629 Y112.682 E2.0533
G1 X128.187 Y112.633 E2.08141
G1 X171.221 Y112.638 E4.24111
G1 X171.452 Y112.697 E4.25308
G1 X171.704 Y112.822 E4.2672
G1 X171.859 Y112.939 E4.27695
G1 X172.293 Y113.495 E4.31235
G1 X172.407 Y113.749 E4.32632
G1 X172.459 Y114.025 E4.34042
G1 X172.448 Y114.302 E4.35433
G1 X151.954 Y187.642 E8.17597
G1 X151.756 Y187.948 E8.19426
G1 X151.467 Y188.187 E8.21308
G1 X151.237 Y188.298 E8.2259
G1 X150.283 Y188.398 E8.27404
G1 X150.03 Y188.358 E8.28689
G1 X149.607 Y188.135 E8.31089
G1 X149.357 Y187.868 E8.32925
G1 X140.193 Y168.705 E9.39527
G1 X139.905 Y168.067 E9.4304
G1 X139.439 Y166.842 E9.49618
G1 X139.23 Y166.171 E9.53145
G1 X138.92 Y164.917 E9.59628
G1 X138.707 Y163.628 E9.66185
G1 X138.634 Y162.929 E9.69712
G1 X138.579 Y161.591 E9.76433
G1 X138.568 Y132.713 E11.2136
G1 X138.54 Y132.291 E11.23483
G1 X138.417 Y131.354 E11.28226
G1 X138.334 Y130.94 E11.30345
G1 X138.094 Y130.044 E11.35
G1 X137.782 Y129.187 E11.39577
G1 X137.39 Y128.346 E11.44234
G1 X137.187 Y127.976 E11.46352
G1 X136.688 Y127.193 E11.51012
G1 X136.134 Y126.47 E11.55583
G1 X135.518 Y125.798 E11.60158
G1 X134.834 Y125.171 E11.64815
G1 X134.496 Y124.901 E11.66986
G1 X133.744 Y124.375 E11.71592
G1 X132.955 Y123.919 E11.76165
G1 X132.129 Y123.534 E11.80739
G1 X131.269 Y123.22 E11.85334
G1 X130.849 Y123.097 E11.8753
G1 X129.942 Y122.897 E11.92191
G1 X129.039 Y122.778 E11.96762
G1 X127.718 Y122.708 E12.03401
G1 X127.613 Y122.682 E12.03944
G1 X127.188 Y122.445 E12.06386
G1 X126.759 Y121.97 E12.09598
G1 X126.706 Y121.876 E12.1014
G1 X126.579 Y121.453 E12.12356
G1 X126.599 Y113.793 E12.50799
G1 X126.709 Y113.488 E12.52426
G1 X126.773 Y113.381 E12.53052
G1 X127.065 Y113.561 F7800
G1 F1800
G1 X127.453 Y113.156 E12.55867
G1 X127.75 Y113.007 E12.57535
G1 X128.19 Y112.978 E12.59748
G1 X171.198 Y112.982 E14.75588
G1 X171.313 Y113.013 E14.76186
G1 X171.534 Y113.123 E14.77425
G1 X171.629 Y113.196 E14.78026
G1 X172.007 Y113.688 E14.8114
G1 X172.072 Y113.833 E14.81937
G1 X172.117 Y114.07 E14.83148
G1 X172.11 Y114.229 E14.83947
G1 X151.629 Y187.524 E18.65876
G1 X151.515 Y187.699 E18.66924
G1 X151.266 Y187.906 E18.68549
G1 X151.123 Y187.971 E18.69337
G1 X150.277 Y188.052 E18.73602
G1 X150.121 Y188.024 E18.74397
G1 X149.798 Y187.847 E18.76245
G1 X149.657 Y187.696 E18.77282
G1 X140.505 Y168.558 E19.83745
G1 X140.226 Y167.939 E19.87152
G1 X139.766 Y166.734 E19.93625
G1 X139.564 Y166.084 E19.97041
G1 X139.256 Y164.84 E20.03473
G1 X139.048 Y163.577 E20.09897
G1 X138.978 Y162.899 E20.13318
G1 X138.924 Y161.588 E20.19903
G1 X138.913 Y132.701 E21.64875
G1 X138.884 Y132.258 E21.67103
G1 X138.757 Y131.298 E21.71963
G1 X138.67 Y130.862 E21.74194
G1 X138.423 Y129.94 E21.78984
G1 X138.101 Y129.055 E21.8371
G1 X137.698 Y128.19 E21.88499
G1 X137.484 Y127.8 E21.90732
G1 X136.971 Y126.995 E21.95523
G1 X136.398 Y126.248 E22.00248
G1 X135.762 Y125.554 E22.04972
G1 X135.058 Y124.909 E22.09764
G1 X134.703 Y124.625 E22.12046
G1 X133.93 Y124.083 E22.16784
G1 X133.114 Y123.613 E22.2151
G1 X132.261 Y123.215 E22.26234
G1 X131.376 Y122.892 E22.30962
G1 X130.935 Y122.763 E22.33268
G1 X130.002 Y122.557 E22.38063
G1 X129.071 Y122.434 E22.42776
G1 X127.724 Y122.355 E22.49548
G1 X127.423 Y122.191 E22.51268
G1 X127.044 Y121.776 E22.54089
G1 X126.924 Y121.425 E22.55951
G1 X126.934 Y113.881 E22.93811
G1 X127.033 Y113.612 E22.9525
G1 X127.343 Y113.762 F7800
G1 F1800
G1 X127.674 Y113.423 E22.97628
G1 X127.861 Y113.335 E22.98665
G1 X128.197 Y113.323 E23.00352
G1 X171.141 Y113.323 E25.1587
G1 X171.391 Y113.447 E25.17271
G1 X171.737 Y113.917 E25.202
G1 X171.773 Y114.155 E25.21408
G1 X151.304 Y187.406 E29.03108
G1 X151.275 Y187.45 E29.03372
G1 X151.069 Y187.622 E29.04719
G1 X151.02 Y187.642 E29.04985
G1 X150.277 Y187.706 E29.08728
G1 X150.225 Y187.695 E29.08995
G1 X149.992 Y187.562 E29.10341
G1 X149.957 Y187.523 E29.10604
G1 X140.816 Y168.41 E30.1693
G1 X140.546 Y167.812 E30.20223
G1 X140.094 Y166.626 E30.26593
G1 X139.897 Y165.995 E30.2991
G1 X139.595 Y164.778 E30.36203
G1 X139.389 Y163.526 E30.42571
G1 X139.322 Y162.869 E30.45885
G1 X139.269 Y161.584 E30.52339
G1 X139.257 Y132.69 E31.97346
G1 X139.227 Y132.224 E31.9969
G1 X139.098 Y131.242 E32.04661
G1 X139.007 Y130.784 E32.07004
G1 X138.753 Y129.836 E32.11929
G1 X138.42 Y128.923 E32.16806
G1 X138.006 Y128.034 E32.21728
G1 X137.781 Y127.624 E32.24075
G1 X137.254 Y126.797 E32.28996
G1 X136.663 Y126.026 E32.33871
G1 X136.006 Y125.31 E32.38748
G1 X135.283 Y124.647 E32.43671
G1 X134.91 Y124.348 E32.4607
G1 X134.115 Y123.792 E32.50939
G1 X133.274 Y123.306 E32.55814
G1 X132.393 Y122.896 E32.60691
G1 X131.484 Y122.564 E32.65548
G1 X131.02 Y122.429 E32.67973
G1 X130.062 Y122.217 E32.72897
G1 X129.103 Y122.091 E32.77751
G1 X127.83 Y122.023 E32.84149
G1 X127.655 Y121.933 E32.85137
G1 X127.334 Y121.583 E32.8752
G1 X127.269 Y121.394 E32.88523
G1 X127.269 Y113.97 E33.25781
G1 X127.323 Y113.818 E33.26591
G1 X127.638 Y113.949 F7800
G1 F1800
G1 X127.891 Y113.694 E33.28394
G1 X127.954 Y113.668 E33.28736
G1 X171.081 Y113.668 E35.45173
G1 X171.153 Y113.704 E35.45577
G1 X171.409 Y114.041 E35.47701
G1 X171.424 Y114.12 E35.48105
G1 X150.993 Y187.236 E39.29101
G1 X150.91 Y187.305 E39.29643
G1 X150.327 Y187.356 E39.3258
G1 X150.233 Y187.302 E39.33124
G1 X141.13 Y168.267 E40.39015
G1 X140.866 Y167.684 E40.42227
G1 X140.422 Y166.518 E40.48489
G1 X140.231 Y165.907 E40.51702
G1 X139.932 Y164.701 E40.57938
G1 X139.731 Y163.475 E40.64173
G1 X139.665 Y162.839 E40.67382
G1 X139.614 Y161.58 E40.73706
G1 X139.602 Y132.679 E42.18748
G1 X139.57 Y132.19 E42.21207
G1 X139.438 Y131.186 E42.26289
G1 X139.343 Y130.705 E42.2875
G1 X139.082 Y129.732 E42.33806
G1 X138.739 Y128.791 E42.38832
G1 X138.314 Y127.878 E42.43886
G1 X138.078 Y127.449 E42.46343
G1 X137.537 Y126.599 E42.514
G1 X136.927 Y125.804 E42.56429
G1 X136.25 Y125.066 E42.61455
G1 X135.508 Y124.385 E42.66509
G1 X135.117 Y124.072 E42.69023
G1 X134.301 Y123.501 E42.74021
G1 X133.433 Y123 E42.79051
G1 X132.525 Y122.577 E42.84078
G1 X131.591 Y122.237 E42.89066
G1 X131.106 Y122.095 E42.91602
G1 X130.122 Y121.877 E42.9666
G1 X129.132 Y121.747 E43.01671
G1 X127.937 Y121.694 E43.07674
G1 X127.876 Y121.667 E43.08009
G1 X127.639 Y121.419 E43.09731
G1 X127.614 Y121.357 E43.10066
G1 X127.615 Y114.004 E43.46968
G1 X127.959 Y114.114 F7800
G1 F1800
G1 X128.06 Y114.013 E43.47685
G1 X170.955 Y114.013 E45.62957
G1 X171.058 Y114.149 E45.63813
G1 X150.708 Y186.976 E49.43303
G1 X150.47 Y186.997 E49.44502
G1 X141.443 Y168.123 E50.49499
G1 X141.187 Y167.556 E50.52621
G1 X140.749 Y166.41 E50.58778
G1 X140.564 Y165.819 E50.61886
G1 X140.268 Y164.625 E50.6806
G1 X140.072 Y163.425 E50.74162
G1 X140.009 Y162.809 E50.7727
G1 X139.959 Y161.577 E50.83458
G1 X139.947 Y132.667 E52.28545
G1 X139.914 Y132.156 E52.31115
G1 X139.779 Y131.129 E52.36313
G1 X139.679 Y130.627 E52.38882
G1 X139.411 Y129.628 E52.44073
G1 X139.058 Y128.659 E52.49249
G1 X138.621 Y127.722 E52.54438
G1 X138.375 Y127.273 E52.57007
G1 X137.82 Y126.401 E52.62194
G1 X137.191 Y125.583 E52.67373
G1 X136.494 Y124.822 E52.72552
G1 X135.732 Y124.123 E52.77741
G1 X135.324 Y123.796 E52.80365
G1 X134.486 Y123.21 E52.85497
G1 X133.592 Y122.694 E52.90677
G1 X132.657 Y122.258 E52.95854
G1 X131.699 Y121.909 E53.00971
G1 X131.192 Y121.76 E53.03623
G1 X130.182 Y121.537 E53.08814
G1 X129.162 Y121.403 E53.13977
G1 X128.054 Y121.354 E53.19543
G1 X127.959 Y121.254 E53.20235
G1 X127.959 Y114.174 E53.55767
G1 E51.55767 F2400
G92 E0
G1 X129.031 Y120.324 F7800
G1 E2 F2400
;TYPE:Perimeter
;WIDTH:0.42
G1 F1800
G1 X129.031 Y115.085 E2.26292
G1 X169.683 Y115.085 E4.30308
G1 X150.352 Y184.266 E7.90798
G1 X142.415 Y167.668 E8.8313
G1 X142.178 Y167.147 E8.86002
G1 X141.764 Y166.063 E8.91825
G1 X141.598 Y165.534 E8.94607
G1 X141.32 Y164.416 E9.00389
G1 X141.136 Y163.288 E9.06125
G1 X141.043 Y162.154 E9.11835
G1 X141.031 Y161.567 E9.14782
G1 X141.018 Y132.604 E10.60135
G1 X140.958 Y131.874 E10.63811
G1 X140.832 Y130.927 E10.68605
G1 X140.689 Y130.254 E10.72058
G1 X140.422 Y129.27 E10.77175
G1 X140.034 Y128.214 E10.82821
G1 X139.565 Y127.212 E10.88373
G1 X139.283 Y126.703 E10.91293
G1 X138.676 Y125.756 E10.96938
G1 X138.036 Y124.923 E11.0221
G1 X137.279 Y124.091 E11.07855
G1 X136.452 Y123.328 E11.13502
G1 X135.944 Y122.922 E11.16766
G1 X135.03 Y122.286 E11.22354
G1 X134.121 Y121.761 E11.27622
G1 X133.033 Y121.254 E11.33646
G1 X132.006 Y120.881 E11.39129
G1 X131.248 Y120.675 E11.43071
G1 X130.331 Y120.475 E11.47781
G1 X129.293 Y120.338 E11.53035
G1 X129.091 Y120.327 E11.5405
G1 X128.686 Y120.654 F7800
G1 F1800
G1 X128.686 Y114.74 E11.8373
G1 X170.138 Y114.74 E13.9176
G1 X150.437 Y185.243 E17.5914
G1 X142.102 Y167.814 E18.56096
G1 X141.86 Y167.28 E18.59038
G1 X141.438 Y166.176 E18.64969
G1 X141.266 Y165.628 E18.67851
G1 X140.982 Y164.486 E18.73757
G1 X140.793 Y163.33 E18.79636
G1 X140.699 Y162.172 E18.85467
G1 X140.686 Y161.571 E18.88484
G1 X140.673 Y132.627 E20.33742
G1 X140.616 Y131.919 E20.37307
G1 X140.493 Y130.994 E20.4199
G1 X140.356 Y130.344 E20.45324
G1 X140.098 Y129.388 E20.50293
G1 X139.721 Y128.36 E20.55788
G1 X139.262 Y127.378 E20.61228
G1 X138.992 Y126.888 E20.64036
G1 X138.402 Y125.966 E20.69529
G1 X137.734 Y125.098 E20.75026
G1 X137.024 Y124.324 E20.80297
G1 X136.218 Y123.583 E20.85792
G1 X135.746 Y123.204 E20.8883
G1 X134.858 Y122.585 E20.94262
G1 X133.948 Y122.06 E20.99534
G1 X132.956 Y121.595 E21.05032
G1 X131.941 Y121.223 E21.10457
G1 X131.173 Y121.011 E21.14455
G1 X130.286 Y120.817 E21.19012
G1 X129.248 Y120.68 E21.24266
G1 X128.746 Y120.656 E21.26788
G1 X128.341 Y120.984 F7800
;TYPE:External perimeter
G1 F1800
G1 X128.341 Y114.395 E21.59855
G1 X170.592 Y114.395 E23.71895
G1 X150.522 Y186.22 E27.46163
G1 X141.789 Y167.96 E28.47744
G1 X141.542 Y167.413 E28.50756
G1 X141.112 Y166.289 E28.56796
G1 X140.934 Y165.721 E28.59783
G1 X140.644 Y164.555 E28.65813
G1 X140.451 Y163.372 E28.71828
G1 X140.354 Y162.19 E28.7778
G1 X140.341 Y161.575 E28.80867
G1 X140.329 Y132.649 E30.26035
G1 X140.274 Y131.964 E30.29484
G1 X140.155 Y131.061 E30.34055
G1 X140.023 Y130.433 E30.37276
G1 X139.774 Y129.506 E30.42093
G1 X139.409 Y128.506 E30.47435
G1 X138.96 Y127.544 E30.52763
G1 X138.701 Y127.073 E30.55461
G1 X138.129 Y126.176 E30.608
G1 X137.489 Y125.342 E30.66076
G1 X136.77 Y124.557 E30.71418
G1 X135.985 Y123.837 E30.76764
G1 X135.549 Y123.487 E30.7957
G1 X134.685 Y122.883 E30.84861
G1 X133.776 Y122.358 E30.90129
G1 X132.811 Y121.907 E30.95475
G1 X131.823 Y121.547 E31.00752
G1 X131.099 Y121.348 E31.0452
G1 X130.241 Y121.159 E31.08929
G1 X129.203 Y121.022 E31.14183
G1 X128.401 Y120.987 E31.18212
G1 X128.552 Y120.644 F7800
G1 E29.18212 F2400
G92 E0
G1 X145.186 Y132.205 F7800
G1 E2 F2400
;TYPE:Perimeter
G1 F1800
G1 X145.224 Y132.086 E2.00627
G1 X145.501 Y131.612 E2.03382
G1 X145.813 Y131.26 E2.05743
G1 X146.191 Y130.964 E2.08152
G1 X146.687 Y130.711 E2.10946
G1 X147.15 Y130.583 E2.13357
G1 X147.701 Y130.538 E2.16131
G1 X148.183 Y130.597 E2.18568
G1 X148.73 Y130.777 E2.21458
G1 X149.21 Y131.06 E2.24254
G1 X149.568 Y131.381 E2.26667
G1 X149.903 Y131.826 E2.29462
G1 X150.111 Y132.26 E2.31877
G1 X150.251 Y132.799 E2.34672
G1 X150.276 Y133.279 E2.37084
G1 X150.207 Y133.804 E2.39741
G1 X150.048 Y134.267 E2.42198
G1 X149.811 Y134.686 E2.44614
G1 X149.435 Y135.122 E2.47503
G1 X148.99 Y135.457 E2.50298
G1 X148.55 Y135.666 E2.52743
G1 X148.021 Y135.804 E2.55487
G1 X147.556 Y135.832 E2.57825
G1 X147.079 Y135.773 E2.60237
G1 X146.532 Y135.593 E2.63127
G1 X146.052 Y135.31 E2.65923
G1 X145.707 Y135.003 E2.68241
G1 X145.411 Y134.625 E2.7065
G1 X145.157 Y134.129 E2.73447
G1 X145.029 Y133.665 E2.75863
G1 X144.986 Y133.279 E2.77812
G1 X145.029 Y132.705 E2.80701
G1 X145.168 Y132.262 E2.83031
G1 X145.507 Y132.311 F7800
G1 F1800
G1 X145.77 Y131.827 E2.85795
G1 X146.034 Y131.525 E2.87808
G1 X146.357 Y131.267 E2.89883
G1 X146.791 Y131.04 E2.92341
G1 X147.188 Y130.925 E2.94415
G1 X147.672 Y130.882 E2.96854
G1 X148.087 Y130.928 E2.98949
G1 X148.564 Y131.08 E3.01461
G1 X148.989 Y131.324 E3.0392
G1 X149.299 Y131.597 E3.05993
G1 X149.598 Y131.985 E3.08451
G1 X149.78 Y132.356 E3.10525
G1 X149.907 Y132.829 E3.12983
G1 X149.933 Y133.242 E3.1506
G1 X149.87 Y133.727 E3.17514
G1 X149.742 Y134.108 E3.19531
G1 X149.542 Y134.47 E3.21607
G1 X149.219 Y134.853 E3.24121
G1 X148.831 Y135.151 E3.26576
G1 X148.453 Y135.335 E3.28686
G1 X147.991 Y135.46 E3.31088
G1 X147.586 Y135.488 E3.33125
G1 X147.176 Y135.442 E3.35196
G1 X146.698 Y135.29 E3.37713
G1 X146.274 Y135.046 E3.40168
G1 X145.971 Y134.782 E3.42185
G1 X145.713 Y134.459 E3.4426
G1 X145.486 Y134.025 E3.46718
G1 X145.371 Y133.628 E3.48792
G1 X145.329 Y133.241 E3.50746
G1 X145.371 Y132.742 E3.53259
G1 X145.489 Y132.368 E3.55227
G1 X145.838 Y132.4 F7800
;TYPE:External perimeter
G1 F1800
G1 X146.034 Y132.049 E3.57245
G1 X146.256 Y131.789 E3.58961
G1 X146.523 Y131.569 E3.60697
G1 X146.895 Y131.369 E3.62817
G1 X147.226 Y131.268 E3.64554
G1 X147.642 Y131.226 E3.66652
G1 X147.99 Y131.259 E3.68406
G1 X148.398 Y131.382 E3.70545
G1 X148.767 Y131.588 E3.72666
G1 X149.03 Y131.813 E3.74403
G1 X149.292 Y132.144 E3.76522
G1 X149.448 Y132.453 E3.78259
G1 X149.563 Y132.859 E3.80377
G1 X149.59 Y133.204 E3.82114
G1 X149.541 Y133.623 E3.84231
G1 X149.436 Y133.949 E3.8595
G1 X149.273 Y134.254 E3.87686
G1 X149.003 Y134.584 E3.89826
G1 X148.672 Y134.846 E3.91945
G1 X148.356 Y135.004 E3.93718
G1 X147.96 Y135.117 E3.95785
G1 X147.616 Y135.144 E3.97517
G1 X147.272 Y135.111 E3.99251
G1 X146.864 Y134.988 E4.0139
G1 X146.495 Y134.782 E4.03511
G1 X146.235 Y134.56 E4.05227
G1 X146.015 Y134.293 E4.06963
G1 X145.815 Y133.921 E4.09083
G1 X145.714 Y133.59 E4.1082
G1 X145.672 Y133.204 E4.12769
G1 X145.721 Y132.747 E4.15076
G1 X145.816 Y132.456 E4.16612
G1 X145.6 Y132.079 F7800
G1 E2.16612 F2400
G92 E0
G1 X148.646 Y158.053 F7800
G1 E2 F2400
;TYPE:Perimeter
G1 F1800
G1 X148.556 Y158.096 E2.00501
G1 X148.025 Y158.236 E2.03257
G1 X147.537 Y158.262 E2.0571
G1 X147.022 Y158.195 E2.08316
G1 X146.532 Y158.024 E2.10921
G1 X146.052 Y157.742 E2.13715
G1 X145.694 Y157.42 E2.16131
G1 X145.359 Y156.976 E2.18922
G1 X145.157 Y156.56 E2.21243
G1 X145.029 Y156.097 E2.23654
G1 X144.986 Y155.524 E2.26538
G1 X145.062 Y154.975 E2.29319
G1 X145.224 Y154.518 E2.31752
G1 X145.506 Y154.037 E2.3455
G1 X145.828 Y153.68 E2.36963
G1 X146.272 Y153.344 E2.39757
G1 X146.688 Y153.143 E2.42076
G1 X147.15 Y153.014 E2.44483
G1 X147.701 Y152.97 E2.47257
G1 X148.194 Y153.032 E2.49751
G1 X148.729 Y153.209 E2.52579
G1 X149.207 Y153.489 E2.55359
G1 X149.568 Y153.813 E2.57793
G1 X149.903 Y154.258 E2.60588
G1 X150.111 Y154.692 E2.63003
G1 X150.251 Y155.231 E2.65798
G1 X150.278 Y155.692 E2.68116
G1 X150.219 Y156.169 E2.70528
G1 X150.061 Y156.673 E2.73179
G1 X149.811 Y157.117 E2.75736
G1 X149.435 Y157.553 E2.78625
G1 X148.994 Y157.887 E2.81401
G1 X148.701 Y158.027 E2.83031
G1 X148.507 Y157.742 F7800
G1 F1800
G1 X147.987 Y157.893 E2.85748
G1 X147.575 Y157.919 E2.8782
G1 X147.093 Y157.856 E2.9026
G1 X146.698 Y157.722 E2.92353
G1 X146.274 Y157.478 E2.94808
G1 X145.963 Y157.204 E2.96888
G1 X145.665 Y156.817 E2.99339
G1 X145.486 Y156.456 E3.01361
G1 X145.371 Y156.06 E3.0343
G1 X145.329 Y155.561 E3.05943
G1 X145.391 Y155.079 E3.08382
G1 X145.526 Y154.683 E3.10482
G1 X145.77 Y154.259 E3.12937
G1 X146.043 Y153.949 E3.1501
G1 X146.431 Y153.65 E3.17468
G1 X146.791 Y153.472 E3.19483
G1 X147.188 Y153.357 E3.21557
