; generated by PrusaSlicer 2.6.0 on 2023-06-22 at 23:13:31 UTC

; 

; external perimeters extrusion width = 0.45mm
; perimeters extrusion width = 0.45mm
; infill extrusion width = 0.45mm
; solid infill extrusion width = 0.45mm
; top infill extrusion width = 0.40mm
; first layer extrusion width = 0.42mm

M104 S220 ; set temperature
;TYPE:Custom
G28 ;Home
G1 Z15.0 F2000 ;Move the platform
M106 S255
M109 S220 ; set temperature and wait for it to be reached
G21 ; set units to millimeters
G90 ; use absolute coordinates
M82 ; use absolute distances for extrusion
G92 E0
; Filament gcode
M107
;LAYER_CHANGE
;Z:0.35
;HEIGHT:0.35
G1 Z.35 F7800
G1 E-2 F2400
G92 E0
G1 X128.141 Y112.939 F7800
G1 E2 F2400
;TYPE:Skirt/Brim
;WIDTH:0.42
G1 F1800
G1 X128.296 Y112.822 E2.00975
G1 X128.549 Y112.696 E2.02393
G1 X128.819 Y112.633 E2.03784
G1 X172.165 Y112.636 E4.2132
G1 X172.383 Y112.687 E4.22444
G1 X172.676 Y112.825 E4.24069
G1 X173.15 Y113.272 E4.27339
G1 X173.292 Y113.492 E4.28653
G1 X173.421 Y113.908 E4.30839
G1 X173.421 Y121.453 E4.68704
G1 X173.279 Y121.906 E4.71086
G1 X173.224 Y121.994 E4.71607
G1 X172.812 Y122.445 E4.74673
G1 X172.387 Y122.682 E4.77115
G1 X172.282 Y122.708 E4.77658
G1 X170.944 Y122.779 E4.84382
G1 X170.513 Y122.826 E4.86558
G1 X169.608 Y122.986 E4.9117
G1 X168.728 Y123.222 E4.95742
G1 X167.856 Y123.539 E5.00398
G1 X167.462 Y123.713 E5.0256
G1 X166.646 Y124.138 E5.07177
G1 X165.878 Y124.627 E5.11746
G1 X165.154 Y125.183 E5.16327
G1 X164.474 Y125.806 E5.20955
G1 X164.178 Y126.115 E5.23102
G1 X163.581 Y126.826 E5.27761
G1 X163.049 Y127.586 E5.32417
G1 X162.828 Y127.95 E5.34554
G1 X162.401 Y128.77 E5.39194
G1 X162.046 Y129.627 E5.43849
G1 X161.909 Y130.031 E5.4599
G1 X161.67 Y130.924 E5.50629
G1 X161.512 Y131.821 E5.552
G1 X161.432 Y132.73 E5.5978
G1 X161.421 Y161.599 E7.04662
G1 X161.365 Y162.939 E7.11393
G1 X161.21 Y164.208 E7.17809
G1 X161.08 Y164.919 E7.21436
G1 X160.767 Y166.181 E7.27961
G1 X160.558 Y166.852 E7.31488
G1 X160.095 Y168.067 E7.38013
G1 X159.809 Y168.701 E7.41504
G1 X150.643 Y187.868 E8.48129
G1 X150.395 Y188.135 E8.49958
G1 X150.07 Y188.321 E8.51837
G1 X149.825 Y188.39 E8.53114
G1 X148.762 Y188.297 E8.58469
G1 X148.533 Y188.187 E8.59744
G1 X148.244 Y187.948 E8.61626
G1 X148.046 Y187.642 E8.63455
G1 X127.552 Y114.302 E12.45619
G1 X127.541 Y114.025 E12.4701
G1 X127.593 Y113.749 E12.4842
G1 X127.707 Y113.495 E12.49817
G1 X128.104 Y112.987 E12.53053
G1 X128.371 Y113.196 F7800
G1 F1800
G1 X128.466 Y113.123 E12.53654
G1 X128.684 Y113.014 E12.54877
G1 X128.839 Y112.978 E12.55676
G1 X172.145 Y112.981 E14.73011
G1 X172.252 Y113.006 E14.73562
G1 X172.502 Y113.124 E14.74949
G1 X172.896 Y113.506 E14.77703
G1 X172.973 Y113.623 E14.78406
G1 X173.076 Y113.937 E14.80064
G1 X173.076 Y121.425 E15.17643
G1 X172.956 Y121.776 E15.19505
G1 X172.577 Y122.191 E15.22326
G1 X172.243 Y122.364 E15.24214
G1 X170.916 Y122.435 E15.30883
G1 X170.464 Y122.485 E15.33165
G1 X169.533 Y122.649 E15.37909
G1 X168.624 Y122.893 E15.42632
G1 X167.727 Y123.219 E15.47422
G1 X167.313 Y123.402 E15.49694
G1 X166.473 Y123.839 E15.54446
G1 X165.68 Y124.344 E15.59164
G1 X164.932 Y124.918 E15.63896
G1 X164.232 Y125.559 E15.68659
G1 X163.921 Y125.884 E15.70917
G1 X163.307 Y126.615 E15.75708
G1 X162.76 Y127.397 E15.80497
G1 X162.527 Y127.781 E15.82751
G1 X162.088 Y128.624 E15.87521
G1 X161.723 Y129.506 E15.92311
G1 X161.579 Y129.931 E15.94563
G1 X161.333 Y130.849 E15.99333
G1 X161.169 Y131.776 E16.04057
G1 X161.087 Y132.715 E16.08787
G1 X161.076 Y161.588 E17.53689
G1 X161.02 Y162.918 E17.6037
G1 X160.868 Y164.161 E17.66655
G1 X160.744 Y164.842 E17.70129
G1 X160.436 Y166.083 E17.76546
G1 X160.234 Y166.734 E17.79967
G1 X159.774 Y167.939 E17.8644
G1 X159.497 Y168.554 E17.89825
G1 X150.343 Y187.696 E18.9631
G1 X150.201 Y187.849 E18.97358
G1 X149.92 Y188.009 E18.98981
G1 X149.768 Y188.048 E18.99769
G1 X148.877 Y187.971 E19.04257
G1 X148.734 Y187.906 E19.05045
G1 X148.485 Y187.699 E19.0667
G1 X148.371 Y187.524 E19.07718
G1 X127.89 Y114.229 E22.89647
G1 X127.883 Y114.07 E22.90446
G1 X127.928 Y113.833 E22.91657
G1 X127.993 Y113.688 E22.92454
G1 X128.335 Y113.244 E22.95267
G1 X128.606 Y113.45 F7800
G1 F1800
G1 X128.859 Y113.323 E22.96688
G1 X172.097 Y113.323 E25.13682
G1 X172.326 Y113.423 E25.14936
G1 X172.64 Y113.737 E25.17165
G1 X172.731 Y113.97 E25.1842
G1 X172.731 Y121.394 E25.55678
G1 X172.666 Y121.583 E25.56681
G1 X172.345 Y121.933 E25.59064
G1 X172.17 Y122.023 E25.60052
G1 X170.888 Y122.091 E25.66495
G1 X170.415 Y122.143 E25.68883
G1 X169.459 Y122.312 E25.73755
G1 X168.52 Y122.564 E25.78634
G1 X167.598 Y122.899 E25.83557
G1 X167.163 Y123.091 E25.85943
G1 X166.301 Y123.54 E25.90821
G1 X165.482 Y124.062 E25.95695
G1 X164.71 Y124.654 E26.00577
G1 X163.991 Y125.312 E26.05468
G1 X163.664 Y125.654 E26.07843
G1 X163.033 Y126.405 E26.12766
G1 X162.471 Y127.209 E26.17689
G1 X162.226 Y127.612 E26.20056
G1 X161.775 Y128.478 E26.24956
G1 X161.4 Y129.384 E26.29877
G1 X161.249 Y129.831 E26.32245
G1 X160.996 Y130.774 E26.37145
G1 X160.827 Y131.731 E26.42022
G1 X160.743 Y132.699 E26.46898
G1 X160.731 Y161.584 E27.9186
G1 X160.677 Y162.883 E27.98385
G1 X160.527 Y164.114 E28.04609
G1 X160.408 Y164.764 E28.07925
G1 X160.103 Y165.996 E28.14295
G1 X159.906 Y166.626 E28.17608
G1 X159.454 Y167.812 E28.23978
G1 X159.184 Y168.41 E28.27271
G1 X150.043 Y187.523 E29.33597
G1 X150.008 Y187.562 E29.3386
G1 X149.775 Y187.695 E29.35206
G1 X149.723 Y187.706 E29.35473
G1 X148.98 Y187.642 E29.39216
G1 X148.931 Y187.622 E29.39482
G1 X148.725 Y187.45 E29.40829
G1 X148.696 Y187.406 E29.41093
G1 X128.227 Y114.155 E33.22793
G1 X128.28 Y113.881 E33.24194
G1 X128.57 Y113.498 E33.26605
G1 X128.845 Y113.706 F7800
G1 F1800
G1 X128.919 Y113.668 E33.27022
G1 X172.046 Y113.668 E35.43459
G1 X172.109 Y113.694 E35.43801
G1 X172.36 Y113.944 E35.45579
G1 X172.386 Y114.008 E35.45926
G1 X172.386 Y121.357 E35.82808
G1 X172.361 Y121.419 E35.83143
G1 X172.124 Y121.667 E35.84865
G1 X172.063 Y121.694 E35.852
G1 X170.863 Y121.747 E35.91228
G1 X170.366 Y121.802 E35.93737
G1 X169.384 Y121.975 E35.98741
G1 X168.416 Y122.234 E36.0377
G1 X167.47 Y122.579 E36.08823
G1 X167.014 Y122.78 E36.11324
G1 X166.128 Y123.241 E36.16336
G1 X165.284 Y123.779 E36.21359
G1 X164.488 Y124.389 E36.26392
G1 X163.75 Y125.065 E36.31415
G1 X163.407 Y125.423 E36.33903
G1 X162.759 Y126.195 E36.38961
G1 X162.182 Y127.02 E36.44013
G1 X161.926 Y127.443 E36.46494
G1 X161.463 Y128.332 E36.51524
G1 X161.077 Y129.263 E36.56582
G1 X160.918 Y129.731 E36.59063
G1 X160.659 Y130.7 E36.64097
G1 X160.485 Y131.686 E36.69122
G1 X160.398 Y132.684 E36.7415
G1 X160.386 Y161.58 E38.19167
G1 X160.334 Y162.848 E38.25536
G1 X160.185 Y164.067 E38.31699
G1 X160.069 Y164.696 E38.34909
G1 X159.769 Y165.908 E38.41175
G1 X159.578 Y166.518 E38.44383
G1 X159.134 Y167.684 E38.50645
G1 X158.87 Y168.267 E38.53857
G1 X149.767 Y187.302 E39.59748
G1 X149.673 Y187.356 E39.60292
G1 X149.09 Y187.305 E39.63229
G1 X149.007 Y187.236 E39.63771
G1 X128.576 Y114.12 E43.44767
G1 X128.591 Y114.041 E43.45171
G1 X128.809 Y113.754 E43.4698
G1 X129.045 Y114.013 F7800
G1 F1800
G1 X171.94 Y114.013 E45.62252
G1 X172.041 Y114.114 E45.62969
G1 X172.041 Y121.254 E45.98802
G1 X171.946 Y121.354 E45.99494
G1 X170.836 Y121.403 E46.0507
G1 X170.317 Y121.46 E46.0769
G1 X169.309 Y121.638 E46.12827
G1 X168.312 Y121.905 E46.18007
G1 X167.341 Y122.259 E46.23194
G1 X166.865 Y122.468 E46.25803
G1 X165.955 Y122.942 E46.30952
G1 X165.086 Y123.496 E46.36124
G1 X164.266 Y124.125 E46.41311
G1 X163.509 Y124.819 E46.46465
G1 X163.15 Y125.193 E46.49067
G1 X162.486 Y125.985 E46.54254
G1 X161.893 Y126.832 E46.59443
G1 X161.625 Y127.274 E46.62037
G1 X161.15 Y128.187 E46.67202
G1 X160.754 Y129.142 E46.7239
G1 X160.588 Y129.631 E46.74982
G1 X160.322 Y130.625 E46.80146
G1 X160.143 Y131.641 E46.85323
G1 X160.053 Y132.669 E46.90502
G1 X160.041 Y161.577 E48.35579
G1 X159.991 Y162.813 E48.41787
G1 X159.843 Y164.02 E48.4789
G1 X159.731 Y164.629 E48.50998
G1 X159.436 Y165.819 E48.57151
G1 X159.251 Y166.41 E48.60259
G1 X158.813 Y167.556 E48.66416
G1 X158.557 Y168.123 E48.69538
G1 X149.53 Y186.997 E49.74535
G1 X149.292 Y186.976 E49.75734
G1 X128.942 Y114.149 E53.55224
G1 X129.009 Y114.06 E53.55783
G1 E51.55783 F2400
G92 E0
G1 X170.969 Y120.324 F7800
G1 E2 F2400
;TYPE:Perimeter
;WIDTH:0.42
G1 F1800
G1 X170.137 Y120.403 E2.04194
G1 X169.114 Y120.584 E2.09408
G1 X167.954 Y120.894 E2.15434
G1 X166.967 Y121.253 E2.20705
G1 X165.955 Y121.722 E2.26303
G1 X165.381 Y122.036 E2.29587
G1 X164.44 Y122.64 E2.35199
G1 X163.607 Y123.28 E2.40471
G1 X162.779 Y124.033 E2.46088
G1 X162.333 Y124.499 E2.49325
G1 X161.613 Y125.362 E2.54965
G1 X161.01 Y126.222 E2.60236
G1 X160.677 Y126.773 E2.63467
G1 X160.163 Y127.768 E2.69087
G1 X159.741 Y128.79 E2.74636
G1 X159.489 Y129.589 E2.78841
G1 X159.268 Y130.43 E2.83205
G1 X159.145 Y131.126 E2.86752
G1 X159.048 Y131.846 E2.90398
G1 X158.981 Y132.66 E2.94497
G1 X158.969 Y161.558 E4.39524
G1 X158.922 Y162.719 E4.45355
G1 X158.784 Y163.848 E4.51063
G1 X158.682 Y164.408 E4.5392
G1 X158.406 Y165.52 E4.5967
G1 X158.233 Y166.072 E4.62573
G1 X158.043 Y166.601 E4.65394
G1 X157.582 Y167.676 E4.71264
G1 X149.648 Y184.266 E5.63554
G1 X130.317 Y115.085 E9.24044
G1 X170.969 Y115.085 E11.2806
G1 X170.969 Y120.264 E11.54051
G1 X171.314 Y120.654 F7800
G1 F1800
G1 X170.764 Y120.679 E11.56814
G1 X170.197 Y120.742 E11.59677
G1 X169.174 Y120.923 E11.64891
G1 X168.072 Y121.218 E11.70616
G1 X167.085 Y121.578 E11.75889
G1 X166.101 Y122.034 E11.81332
G1 X165.567 Y122.327 E11.84389
G1 X164.65 Y122.914 E11.89853
G1 X163.816 Y123.553 E11.95126
G1 X163.012 Y124.287 E12.0059
G1 X162.597 Y124.72 E12.036
G1 X161.895 Y125.56 E12.09094
G1 X161.293 Y126.42 E12.14362
G1 X160.983 Y126.932 E12.17366
G1 X160.481 Y127.9 E12.22838
G1 X160.068 Y128.901 E12.28272
G1 X159.823 Y129.678 E12.32361
G1 X159.607 Y130.49 E12.36578
G1 X159.484 Y131.186 E12.40125
G1 X159.392 Y131.876 E12.43618
G1 X159.325 Y132.66 E12.47567
G1 X159.314 Y161.565 E13.92629
G1 X159.266 Y162.747 E13.98566
G1 X159.125 Y163.9 E14.04396
G1 X159.019 Y164.48 E14.07355
G1 X158.738 Y165.613 E14.13213
G1 X158.56 Y166.181 E14.162
G1 X158.364 Y166.727 E14.19111
G1 X157.896 Y167.819 E14.25073
G1 X149.563 Y185.243 E15.22002
G1 X129.862 Y114.74 E18.89382
G1 X171.314 Y114.74 E20.97412
G1 X171.314 Y120.594 E21.26791
G1 X171.659 Y120.984 F7800
;TYPE:External perimeter
G1 F1800
G1 X170.801 Y121.022 E21.31101
G1 X170.257 Y121.082 E21.33848
G1 X169.234 Y121.263 E21.39062
G1 X168.19 Y121.543 E21.44487
G1 X167.203 Y121.902 E21.49758
G1 X166.246 Y122.347 E21.55055
G1 X165.752 Y122.618 E21.57883
G1 X164.859 Y123.188 E21.632
G1 X164.026 Y123.827 E21.68469
G1 X163.245 Y124.541 E21.7378
G1 X162.862 Y124.942 E21.76563
G1 X162.178 Y125.758 E21.81907
G1 X161.575 Y126.618 E21.87178
G1 X161.289 Y127.091 E21.89952
G1 X160.8 Y128.032 E21.95274
G1 X160.394 Y129.012 E22.00598
G1 X160.156 Y129.767 E22.04571
G1 X159.947 Y130.55 E22.08638
G1 X159.824 Y131.246 E22.12185
G1 X159.736 Y131.906 E22.15527
G1 X159.67 Y132.658 E22.19315
G1 X159.659 Y161.572 E23.64422
G1 X159.61 Y162.775 E23.70464
G1 X159.466 Y163.952 E23.76415
G1 X159.356 Y164.553 E23.79481
G1 X159.07 Y165.706 E23.85443
G1 X158.887 Y166.291 E23.88519
G1 X158.685 Y166.854 E23.91521
G1 X158.21 Y167.961 E23.97566
G1 X149.478 Y186.22 E24.9914
G1 X129.408 Y114.395 E28.73408
G1 X171.659 Y114.395 E30.85448
G1 X171.659 Y120.924 E31.18214
G1 X171.259 Y120.975 F7800
G1 E29.18214 F2400
G92 E0
G1 X151.389 Y135.641 F7800
G1 E2 F2400
;TYPE:Perimeter
G1 F1800
G1 X150.858 Y135.362 E2.0301
G1 X150.444 Y135.003 E2.0576
G1 X150.148 Y134.625 E2.08169
G1 X149.889 Y134.11 E2.11062
G1 X149.75 Y133.581 E2.13807
G1 X149.722 Y133.26 E2.15424
G1 X149.761 Y132.714 E2.18171
G1 X149.921 Y132.169 E2.21022
G1 X150.194 Y131.672 E2.23868
G1 X150.551 Y131.26 E2.26604
G1 X150.929 Y130.964 E2.29013
G1 X151.425 Y130.711 E2.31807
G1 X151.888 Y130.583 E2.34218
G1 X152.439 Y130.538 E2.36992
G1 X152.921 Y130.597 E2.39429
G1 X153.468 Y130.777 E2.42319
G1 X153.913 Y131.032 E2.44893
G1 X154.305 Y131.381 E2.47527
G1 X154.639 Y131.822 E2.50303
G1 X154.848 Y132.26 E2.52739
G1 X154.988 Y132.799 E2.55534
G1 X155.016 Y133.26 E2.57852
G1 X154.957 Y133.737 E2.60264
G1 X154.777 Y134.284 E2.63154
G1 X154.494 Y134.764 E2.6595
G1 X154.187 Y135.11 E2.68271
G1 X153.809 Y135.406 E2.7068
G1 X153.294 Y135.664 E2.73571
G1 X152.755 Y135.804 E2.76366
G1 X152.294 Y135.832 E2.78684
G1 X151.817 Y135.773 E2.81096
G1 X151.446 Y135.658 E2.83045
G1 X151.495 Y135.309 F7800
G1 F1800
G1 X151.011 Y135.046 E2.85809
G1 X150.709 Y134.782 E2.87822
G1 X150.451 Y134.459 E2.89897
G1 X150.221 Y134.014 E2.92411
G1 X150.093 Y133.541 E2.9487
G1 X150.066 Y133.23 E2.96437
G1 X150.112 Y132.729 E2.98962
G1 X150.264 Y132.252 E3.01474
G1 X150.508 Y131.827 E3.03933
G1 X150.772 Y131.525 E3.05946
G1 X151.095 Y131.267 E3.08021
G1 X151.529 Y131.04 E3.10479
G1 X151.926 Y130.925 E3.12553
G1 X152.41 Y130.882 E3.14992
G1 X152.824 Y130.928 E3.17082
G1 X153.302 Y131.08 E3.19599
G1 X153.77 Y131.361 E3.22339
G1 X154.053 Y131.618 E3.24258
G1 X154.333 Y131.982 E3.26563
G1 X154.517 Y132.356 E3.28655
G1 X154.648 Y132.863 E3.31283
G1 X154.672 Y133.23 E3.33129
G1 X154.626 Y133.641 E3.35205
G1 X154.474 Y134.118 E3.37717
G1 X154.23 Y134.543 E3.40176
G1 X153.966 Y134.845 E3.42189
G1 X153.643 Y135.103 E3.44264
G1 X153.198 Y135.333 E3.46778
G1 X152.725 Y135.461 E3.49237
G1 X152.324 Y135.488 E3.51254
G1 X151.913 Y135.442 E3.5333
G1 X151.552 Y135.327 E3.55231
G1 X151.583 Y134.977 F7800
;TYPE:External perimeter
G1 F1800
G1 X151.233 Y134.782 E3.57242
G1 X150.973 Y134.56 E3.58958
G1 X150.753 Y134.293 E3.60694
G1 X150.552 Y133.917 E3.62834
G1 X150.437 Y133.511 E3.64952
G1 X150.409 Y133.2 E3.66519
G1 X150.443 Y132.826 E3.68404
G1 X150.566 Y132.418 E3.70543
G1 X150.772 Y132.049 E3.72664
G1 X150.994 Y131.789 E3.7438
G1 X151.261 Y131.569 E3.76116
G1 X151.633 Y131.369 E3.78236
G1 X151.963 Y131.268 E3.79968
G1 X152.38 Y131.226 E3.82071
G1 X152.728 Y131.259 E3.83825
G1 X153.136 Y131.382 E3.85964
G1 X153.549 Y131.625 E3.88369
G1 X153.784 Y131.834 E3.89947
G1 X154.027 Y132.142 E3.91916
G1 X154.186 Y132.453 E3.93669
G1 X154.304 Y132.893 E3.95955
G1 X154.328 Y133.2 E3.975
G1 X154.295 Y133.544 E3.99234
G1 X154.172 Y133.952 E4.01373
G1 X153.966 Y134.321 E4.03494
G1 X153.744 Y134.581 E4.0521
G1 X153.477 Y134.801 E4.06946
G1 X153.101 Y135.002 E4.09086
G1 X152.695 Y135.117 E4.11204
G1 X152.354 Y135.144 E4.12921
G1 X152.01 Y135.111 E4.14655
G1 X151.639 Y134.999 E4.166
G1 X151.261 Y135.215 F7800
G1 E2.166 F2400
G92 E0
G1 X149.925 Y154.629 F7800
G1 E2 F2400
;TYPE:Perimeter
G1 F1800
G1 X149.961 Y154.518 E2.00586
G1 X150.244 Y154.038 E2.03382
G1 X150.565 Y153.68 E2.05795
G1 X151.01 Y153.344 E2.08593
G1 X151.425 Y153.143 E2.10907
G1 X151.888 Y153.014 E2.13319
G1 X152.439 Y152.97 E2.16093
G1 X152.921 Y153.029 E2.1853
G1 X153.468 Y153.209 E2.2142
G1 X153.809 Y153.396 E2.23372
G1 X154.293 Y153.798 E2.2653
G1 X154.589 Y154.177 E2.28943
G1 X154.848 Y154.691 E2.31832
G1 X154.988 Y155.231 E2.34632
G1 X155.016 Y155.692 E2.3695
G1 X154.957 Y156.169 E2.39362
G1 X154.777 Y156.716 E2.42252
G1 X154.494 Y157.196 E2.45048
G1 X154.187 Y157.541 E2.47366
G1 X153.809 Y157.837 E2.49775
G1 X153.294 Y158.096 E2.52668
G1 X152.755 Y158.236 E2.55463
G1 X152.294 Y158.263 E2.57781
G1 X151.817 Y158.205 E2.60192
G1 X151.27 Y158.024 E2.63084
G1 X150.79 Y157.742 E2.65878
G1 X150.444 Y157.435 E2.68199
G1 X150.148 Y157.057 E2.70608
G1 X149.889 Y156.542 E2.73501
G1 X149.749 Y156.003 E2.76296
G1 X149.722 Y155.542 E2.78614
G1 X149.781 Y155.065 E2.81026
G1 X149.906 Y154.686 E2.83029
G1 X150.245 Y154.743 F7800
G1 F1800
G1 X150.508 Y154.259 E2.85793
G1 X150.781 Y153.949 E2.87866
G1 X151.169 Y153.65 E2.90324
G1 X151.529 Y153.472 E2.92339
G1 X151.926 Y153.357 E2.94413
G1 X152.41 Y153.314 E2.96852
G1 X152.824 Y153.36 E2.98942
G1 X153.302 Y153.512 E3.01459
G1 X153.643 Y153.699 E3.03411
G1 X154.029 Y154.02 E3.0593
G1 X154.287 Y154.343 E3.08005
G1 X154.517 Y154.788 E3.10519
G1 X154.645 Y155.261 E3.12978
G1 X154.672 Y155.662 E3.14995
G1 X154.626 Y156.072 E3.17066
G1 X154.474 Y156.55 E3.19583
G1 X154.23 Y156.974 E3.22038
