; generated by PrusaSlicer 2.6.0 on 2023-06-22 at 20:16:24 UTC

; 

; external perimeters extrusion width = 0.45mm
; perimeters extrusion width = 0.45mm
; infill extrusion width = 0.45mm
; solid infill extrusion width = 0.45mm
; top infill extrusion width = 0.40mm
; first layer extrusion width = 0.42mm

M104 S220 ; set temperature
;TYPE:Custom
G28 ;Home
G1 Z15.0 F2000 ;Move the platform
M106 S255
M109 S220 ; set temperature and wait for it to be reached
G21 ; set units to millimeters
G90 ; use absolute coordinates
M82 ; use absolute distances for extrusion
G92 E0
; Filament gcode
M107
;LAYER_CHANGE
;Z:0.35
;HEIGHT:0.35
G1 Z.35 F7800
G1 E-2 F2400
G92 E0
G1 X131.272 Y132.928 F7800
G1 E2 F2400
;TYPE:Skirt/Brim
;WIDTH:0.42
G1 F1800
G1 X131.767 Y132.442 E2.03481
G1 X131.858 Y132.383 E2.04025
G1 X132.323 Y132.234 E2.06476
G1 X170.342 Y132.237 E3.97278
G1 X170.56 Y132.288 E3.98402
G1 X170.853 Y132.426 E4.00027
G1 X171.327 Y132.872 E4.03293
G1 X171.469 Y133.092 E4.04607
G1 X171.598 Y133.509 E4.06798
G1 X171.598 Y154.062 E5.09945
G1 X171.469 Y154.48 E5.1214
G1 X171.372 Y154.644 E5.13096
G1 X170.877 Y155.129 E5.16574
G1 X170.787 Y155.188 E5.17114
G1 X170.322 Y155.338 E5.19566
G1 X132.322 Y155.338 E7.10272
G1 X131.904 Y155.209 E7.12467
G1 X131.74 Y155.112 E7.13423
G1 X131.255 Y154.617 E7.16901
G1 X131.196 Y154.526 E7.17445
G1 X131.046 Y154.061 E7.19897
G1 X131.046 Y133.509 E8.23039
G1 X131.175 Y133.091 E8.25234
G1 X131.241 Y132.979 E8.25886
G1 X131.533 Y133.16 F7800
G1 F1800
G1 X131.991 Y132.705 E8.29126
G1 X132.351 Y132.579 E8.3104
G1 X170.322 Y132.582 E10.21601
G1 X170.429 Y132.607 E10.22152
G1 X170.679 Y132.725 E10.23539
G1 X171.073 Y133.106 E10.2629
G1 X171.15 Y133.223 E10.26993
G1 X171.253 Y133.538 E10.28656
G1 X171.253 Y154.033 E11.31512
G1 X171.149 Y154.35 E11.33186
G1 X171.092 Y154.442 E11.33729
G1 X170.653 Y154.866 E11.36792
G1 X170.294 Y154.993 E11.38703
G1 X132.351 Y154.993 E13.29123
G1 X132.034 Y154.889 E13.30797
G1 X131.942 Y154.832 E13.3134
G1 X131.518 Y154.393 E13.34403
G1 X131.391 Y154.033 E13.36319
G1 X131.391 Y133.538 E14.39175
G1 X131.502 Y133.211 E14.40908
G1 X131.811 Y133.362 F7800
G1 F1800
G1 X132.189 Y132.993 E14.43559
G1 X132.383 Y132.923 E14.44594
G1 X170.275 Y132.923 E16.34758
G1 X170.503 Y133.024 E16.36009
G1 X170.817 Y133.337 E16.38234
G1 X170.908 Y133.57 E16.39489
G1 X170.908 Y154.001 E17.42024
G1 X170.834 Y154.209 E17.43132
G1 X170.455 Y154.579 E17.4579
G1 X170.262 Y154.648 E17.46819
G1 X132.383 Y154.648 E19.36918
G1 X132.175 Y154.573 E19.38028
G1 X131.805 Y154.195 E19.40683
G1 X131.736 Y154.001 E19.41716
G1 X131.736 Y133.57 E20.44251
G1 X131.79 Y133.419 E20.45056
G1 X132.106 Y133.549 F7800
G1 F1800
G1 X132.358 Y133.295 E20.46852
G1 X132.421 Y133.268 E20.47196
G1 X170.223 Y133.268 E22.36909
G1 X170.287 Y133.295 E22.37258
G1 X170.537 Y133.545 E22.39032
G1 X170.563 Y133.608 E22.39374
G1 X170.563 Y153.963 E23.41527
G1 X170.537 Y154.026 E23.41869
G1 X170.287 Y154.277 E23.43647
G1 X170.223 Y154.303 E23.43994
G1 X132.421 Y154.303 E25.33707
G1 X132.358 Y154.277 E25.34049
G1 X132.107 Y154.026 E25.3583
G1 X132.081 Y153.963 E25.36172
G1 X132.083 Y133.605 E26.3834
G1 X132.426 Y133.714 F7800
G1 F1800
G1 X132.527 Y133.613 E26.39057
G1 X170.117 Y133.613 E28.27706
G1 X170.218 Y133.714 E28.28423
G1 X170.218 Y153.857 E29.29512
G1 X170.117 Y153.958 E29.30229
G1 X132.527 Y153.958 E31.18878
G1 X132.426 Y153.857 E31.19595
G1 X132.426 Y133.774 E32.20383
G1 X133.498 Y134.685 F7800
;TYPE:Perimeter
;WIDTH:0.42
G1 F1800
G1 X169.146 Y134.685 E33.99286
G1 X169.146 Y152.886 E34.90629
G1 X133.498 Y152.886 E36.69532
G1 X133.498 Y134.745 E37.60574
G1 X133.153 Y134.341 F7800
G1 F1800
G1 X169.491 Y134.341 E39.42939
G1 X169.491 Y153.231 E40.3774
G1 X133.153 Y153.231 E42.20105
G1 X133.153 Y134.401 E43.14605
G1 X132.808 Y133.996 F7800
;TYPE:External perimeter
G1 F1800
G1 X169.836 Y133.996 E45.00433
G1 X169.836 Y153.576 E45.98697
G1 X132.808 Y153.576 E47.84525
G1 X132.808 Y134.056 E48.82488
G1 X133.203 Y134.06 F7800
G1 E46.82488 F2400
G92 E0
G1 X169.043 Y135.491 F7800
G1 E2 F2400
;TYPE:Solid infill
;WIDTH:0.422201
G1 F1800
G1 X168.496 Y134.944 E2.03907
G1 X168.005 Y134.944 E2.06387
G1 X168.888 Y135.826 E2.1269
G1 X168.888 Y136.317 E2.1517
G1 X167.514 Y134.944 E2.2498
G1 X167.024 Y134.944 E2.27455
G1 X168.888 Y136.808 E2.40769
G1 X168.888 Y137.299 E2.43249
G1 X166.533 Y134.944 E2.6007
G1 X166.042 Y134.944 E2.6255
G1 X168.888 Y137.79 E2.82878
G1 X168.888 Y138.281 E2.85358
G1 X165.551 Y134.944 E3.09193
G1 X165.06 Y134.944 E3.11673
G1 X168.888 Y138.772 E3.39015
G1 X168.888 Y139.262 E3.4149
G1 X164.569 Y134.944 E3.72336
G1 X164.078 Y134.944 E3.74816
G1 X168.888 Y139.753 E4.09169
G1 X168.888 Y140.244 E4.11649
G1 X163.588 Y134.944 E4.49505
G1 X163.097 Y134.944 E4.51985
G1 X168.888 Y140.735 E4.93348
G1 X168.888 Y141.226 E4.95828
G1 X162.606 Y134.944 E5.40698
G1 X162.115 Y134.944 E5.43178
G1 X168.888 Y141.717 E5.91555
G1 X168.888 Y142.208 E5.94035
G1 X161.624 Y134.944 E6.45919
G1 X161.133 Y134.944 E6.48399
G1 X168.888 Y142.698 E7.03787
G1 X168.888 Y143.189 E7.06267
G1 X160.642 Y134.944 E7.65162
G1 X160.152 Y134.944 E7.67637
G1 X168.888 Y143.68 E8.30035
G1 X168.888 Y144.171 E8.32515
G1 X159.661 Y134.944 E8.9842
G1 X159.17 Y134.944 E9.009
G1 X168.888 Y144.662 E9.70312
G1 X168.888 Y145.153 E9.72792
G1 X158.679 Y134.944 E10.45711
G1 X158.188 Y134.944 E10.48191
G1 X168.888 Y145.644 E11.24617
G1 X168.888 Y146.134 E11.27092
G1 X157.697 Y134.944 E12.07022
G1 X157.206 Y134.944 E12.09502
G1 X168.888 Y146.625 E12.92939
G1 X168.888 Y147.116 E12.95419
G1 X156.716 Y134.944 E13.82359
G1 X156.225 Y134.944 E13.84839
G1 X168.888 Y147.607 E14.75286
G1 X168.888 Y148.098 E14.77766
G1 X155.734 Y134.944 E15.7172
G1 X155.243 Y134.944 E15.742
G1 X168.888 Y148.589 E16.71661
G1 X168.888 Y149.08 E16.74141
G1 X154.752 Y134.944 E17.75109
G1 X154.261 Y134.944 E17.77589
G1 X168.888 Y149.57 E18.82061
G1 X168.888 Y150.061 E18.84541
G1 X153.77 Y134.944 E19.9252
G1 X153.279 Y134.944 E19.95
G1 X168.888 Y150.552 E21.06486
G1 X168.888 Y151.043 E21.08966
G1 X152.789 Y134.944 E22.23955
G1 X152.298 Y134.944 E22.26435
G1 X168.888 Y151.534 E23.44932
G1 X168.888 Y152.025 E23.47412
G1 X151.807 Y134.944 E24.69416
G1 X151.316 Y134.944 E24.71896
G1 X168.888 Y152.516 E25.97407
G1 X168.888 Y152.627 E25.97968
G1 X168.508 Y152.627 E25.99887
G1 X150.825 Y134.944 E27.2619
G1 X150.334 Y134.944 E27.2867
G1 X168.017 Y152.627 E28.54973
G1 X167.527 Y152.627 E28.57448
G1 X149.843 Y134.944 E29.83755
G1 X149.353 Y134.944 E29.8623
G1 X167.036 Y152.627 E31.12533
G1 X166.545 Y152.627 E31.15013
G1 X148.862 Y134.944 E32.41316
G1 X148.371 Y134.944 E32.43796
G1 X166.054 Y152.627 E33.70099
G1 X165.563 Y152.627 E33.72579
G1 X147.88 Y134.944 E34.98882
G1 X147.389 Y134.944 E35.01362
G1 X165.072 Y152.627 E36.27665
G1 X164.581 Y152.627 E36.30145
G1 X146.898 Y134.944 E37.56448
G1 X146.407 Y134.944 E37.58928
G1 X164.091 Y152.627 E38.85235
G1 X163.6 Y152.627 E38.87715
G1 X145.917 Y134.944 E40.14018
G1 X145.426 Y134.944 E40.16498
G1 X163.109 Y152.627 E41.42801
G1 X162.618 Y152.627 E41.45281
G1 X144.935 Y134.944 E42.71584
G1 X144.444 Y134.944 E42.74064
G1 X162.127 Y152.627 E44.00367
G1 X161.636 Y152.627 E44.02847
G1 X143.953 Y134.944 E45.2915
G1 X143.462 Y134.944 E45.3163
G1 X161.145 Y152.627 E46.57933
G1 X160.655 Y152.627 E46.60408
G1 X142.971 Y134.944 E47.86715
G1 X142.481 Y134.944 E47.8919
G1 X160.164 Y152.627 E49.15493
G1 X159.673 Y152.627 E49.17973
G1 X141.99 Y134.944 E50.44276
G1 X141.499 Y134.944 E50.46756
G1 X159.182 Y152.627 E51.73059
G1 X158.691 Y152.627 E51.75539
G1 X141.008 Y134.944 E53.01842
G1 X140.517 Y134.944 E53.04322
G1 X158.2 Y152.627 E54.30625
G1 X157.709 Y152.627 E54.33105
G1 X140.026 Y134.944 E55.59408
G1 X139.535 Y134.944 E55.61888
G1 X157.219 Y152.627 E56.88195
G1 X156.728 Y152.627 E56.90675
G1 X139.045 Y134.944 E58.16978
G1 X138.554 Y134.944 E58.19458
G1 X156.237 Y152.627 E59.45761
G1 X155.746 Y152.627 E59.48241
G1 X138.063 Y134.944 E60.74544
G1 X137.572 Y134.944 E60.77024
G1 X155.255 Y152.627 E62.03327
G1 X154.764 Y152.627 E62.05807
G1 X137.081 Y134.944 E63.3211
G1 X136.59 Y134.944 E63.3459
G1 X154.273 Y152.627 E64.60893
G1 X153.783 Y152.627 E64.63368
G1 X136.099 Y134.944 E65.89675
G1 X135.609 Y134.944 E65.9215
G1 X153.292 Y152.627 E67.18453
G1 X152.801 Y152.627 E67.20933
G1 X135.118 Y134.944 E68.47236
G1 X134.627 Y134.944 E68.49716
G1 X152.31 Y152.627 E69.76019
G1 X151.819 Y152.627 E69.78499
G1 X134.136 Y134.944 E71.04802
G1 X133.757 Y134.944 E71.06716
G1 X133.757 Y135.056 E71.07282
G1 X151.328 Y152.627 E72.32785
G1 X150.837 Y152.627 E72.35265
G1 X133.757 Y135.547 E73.57261
G1 X133.757 Y136.037 E73.59736
G1 X150.347 Y152.627 E74.78233
G1 X149.856 Y152.627 E74.80713
G1 X133.757 Y136.528 E75.95702
G1 X133.757 Y137.019 E75.98182
G1 X149.365 Y152.627 E77.09664
G1 X148.874 Y152.627 E77.12144
G1 X133.757 Y137.51 E78.20119
G1 X133.757 Y138.001 E78.22599
G1 X148.383 Y152.627 E79.27067
G1 X147.892 Y152.627 E79.29547
G1 X133.757 Y138.492 E80.30508
G1 X133.757 Y138.983 E80.32988
G1 X147.401 Y152.627 E81.30442
G1 X146.911 Y152.627 E81.32917
G1 X133.757 Y139.474 E82.26868
G1 X133.757 Y139.964 E82.29343
G1 X146.42 Y152.627 E83.1979
G1 X145.929 Y152.627 E83.2227
G1 X133.757 Y140.455 E84.0921
G1 X133.757 Y140.946 E84.1169
G1 X145.438 Y152.627 E84.95123
G1 X144.947 Y152.627 E84.97603
G1 X133.757 Y141.437 E85.77529
G1 X133.757 Y141.928 E85.80009
G1 X144.456 Y152.627 E86.56428
G1 X143.965 Y152.627 E86.58908
G1 X133.757 Y142.419 E87.3182
G1 X133.757 Y142.91 E87.343
G1 X143.474 Y152.627 E88.03705
G1 X142.984 Y152.627 E88.0618
G1 X133.757 Y143.4 E88.72085
G1 X133.757 Y143.891 E88.74565
G1 X142.493 Y152.627 E89.36963
G1 X142.002 Y152.627 E89.39443
G1 X133.757 Y144.382 E89.98334
G1 X133.757 Y144.873 E90.00814
G1 X141.511 Y152.627 E90.56198
G1 X141.02 Y152.627 E90.58678
G1 X133.757 Y145.364 E91.10555
G1 X133.757 Y145.855 E91.13035
G1 X140.529 Y152.627 E91.61405
G1 X140.038 Y152.627 E91.63885
G1 X133.757 Y146.346 E92.08748
G1 X133.757 Y146.836 E92.11223
G1 X139.548 Y152.627 E92.52586
G1 X139.057 Y152.627 E92.55066
G1 X133.757 Y147.327 E92.92922
G1 X133.757 Y147.818 E92.95402
G1 X138.566 Y152.627 E93.29751
G1 X138.075 Y152.627 E93.32231
G1 X133.757 Y148.309 E93.63073
G1 X133.757 Y148.8 E93.65553
G1 X137.584 Y152.627 E93.92888
G1 X137.093 Y152.627 E93.95368
G1 X133.757 Y149.291 E94.19196
G1 X133.757 Y149.782 E94.21676
G1 X136.602 Y152.627 E94.41997
G1 X136.112 Y152.627 E94.44472
G1 X133.757 Y150.272 E94.61293
G1 X133.757 Y150.763 E94.63773
G1 X135.621 Y152.627 E94.77087
G1 X135.13 Y152.627 E94.79567
G1 X133.757 Y151.254 E94.89374
G1 X133.757 Y151.745 E94.91854
G1 X134.639 Y152.627 E94.98154
G1 X134.148 Y152.627 E95.00634
G1 X133.602 Y152.081 E95.04534
;LAYER_CHANGE
;Z:0.47
;HEIGHT:0.12
G1 Z.47 F7800
M140 S90 ; set bed temperature
G1 E93.04534 F2400
G92 E0
G1 X133.672 Y134.859 F7800
G1 E2 F2400
;TYPE:Perimeter
;WIDTH:0.449999
G1 F3600
G1 X168.973 Y134.859 E2.74717
G1 X168.973 Y152.712 E3.12504
G1 X133.672 Y152.712 E3.87221
G1 X133.672 Y134.919 E4.24881
G1 X133.248 Y134.435 F7800
G1 F3600
G1 X169.397 Y134.435 E5.01393
G1 X169.397 Y153.136 E5.40975
G1 X133.248 Y153.136 E6.17487
G1 X133.248 Y134.495 E6.56942
G1 X132.823 Y134.011 F7800
;TYPE:External perimeter
G1 F1800
G1 X169.821 Y134.011 E7.35251
G1 X169.821 Y153.561 E7.7663
G1 X132.823 Y153.561 E8.54939
G1 X132.823 Y134.071 E8.96191
G1 X133.218 Y134.075 F7800
G1 X134.105 Y135.212
;TYPE:Solid infill
;WIDTH:0.552932
G1 F1200
G1 X134.059 Y135.165 E8.96364
G1 X133.995 Y135.182 E8.96538
G1 X133.978 Y135.246 E8.96712
G1 X134.024 Y135.292 E8.96883
G1 X134.088 Y135.275 E8.97057
;WIDTH:0.449999
G1 X133.99 Y135.953 E8.98507
G1 X134.766 Y135.177 E9.0083
G1 X135.366 Y135.177 E9.021
G1 X133.99 Y136.553 E9.06219
G1 X133.99 Y137.153 E9.07489
G1 X135.966 Y135.177 E9.13404
G1 X136.566 Y135.177 E9.14674
G1 X133.99 Y137.753 E9.22385
G1 X133.99 Y138.353 E9.23655
G1 X137.166 Y135.177 E9.33162
G1 X137.766 Y135.177 E9.34432
G1 X133.99 Y138.953 E9.45735
G1 X133.99 Y139.553 E9.47005
G1 X138.366 Y135.177 E9.60104
G1 X138.966 Y135.177 E9.61374
G1 X133.99 Y140.153 E9.76269
G1 X133.99 Y140.753 E9.77539
G1 X139.566 Y135.177 E9.9423
G1 X140.166 Y135.177 E9.955
G1 X133.99 Y141.353 E10.13987
G1 X133.99 Y141.953 E10.15257
G1 X140.766 Y135.177 E10.3554
G1 X141.365 Y135.177 E10.36808
G1 X133.99 Y142.553 E10.58885
G1 X133.99 Y143.153 E10.60155
G1 X141.965 Y135.177 E10.84028
G1 X142.565 Y135.177 E10.85298
G1 X133.99 Y143.753 E11.10967
G1 X133.99 Y144.353 E11.12237
G1 X143.165 Y135.177 E11.39702
G1 X143.765 Y135.177 E11.40972
G1 X133.99 Y144.953 E11.70233
G1 X133.99 Y145.553 E11.71503
G1 X144.365 Y135.177 E12.0256
G1 X144.965 Y135.177 E12.0383
G1 X133.99 Y146.153 E12.36683
G1 X133.99 Y146.753 E12.37953
G1 X145.565 Y135.177 E12.72602
G1 X146.165 Y135.177 E12.73872
G1 X133.99 Y147.353 E13.10317
G1 X133.99 Y147.953 E13.11587
G1 X146.765 Y135.177 E13.49828
G1 X147.365 Y135.177 E13.51098
G1 X133.99 Y148.553 E13.91135
G1 X133.99 Y149.152 E13.92403
G1 X147.965 Y135.177 E14.34234
G1 X148.565 Y135.177 E14.35504
G1 X133.99 Y149.752 E14.79131
G1 X133.99 Y150.352 E14.80401
G1 X149.165 Y135.177 E15.25824
G1 X149.765 Y135.177 E15.27094
G1 X133.99 Y150.952 E15.74313
G1 X133.99 Y151.552 E15.75583
G1 X150.365 Y135.177 E16.24598
G1 X150.965 Y135.177 E16.25868
G1 X133.99 Y152.152 E16.76679
G1 X133.965 Y152.314 E16.77026
;WIDTH:0.407876
G1 X133.939 Y152.475 E16.77337
;WIDTH:0.365752
G1 X133.868 Y152.456 E16.77462
G1 X133.887 Y152.527 E16.77587
G1 X133.928 Y152.516 E16.77659
;WIDTH:0.449999
G1 X134.348 Y152.394 E16.78585
G1 X151.565 Y135.177 E17.30121
G1 X152.165 Y135.177 E17.31391
G1 X134.948 Y152.394 E17.82927
G1 X135.548 Y152.394 E17.84197
G1 X152.765 Y135.177 E18.35733
G1 X153.365 Y135.177 E18.37003
G1 X136.148 Y152.394 E18.88539
G1 X136.748 Y152.394 E18.89809
G1 X153.965 Y135.177 E19.41345
G1 X154.565 Y135.177 E19.42615
G1 X137.348 Y152.394 E19.94151
G1 X137.948 Y152.394 E19.95421
G1 X155.165 Y135.177 E20.46957
G1 X155.765 Y135.177 E20.48227
G1 X138.548 Y152.394 E20.99763
G1 X139.148 Y152.394 E21.01033
G1 X156.365 Y135.177 E21.52569
G1 X156.965 Y135.177 E21.53839
G1 X139.748 Y152.394 E22.05375
G1 X140.348 Y152.394 E22.06645
G1 X157.565 Y135.177 E22.58181
G1 X158.165 Y135.177 E22.59451
G1 X140.948 Y152.394 E23.10987
G1 X141.548 Y152.394 E23.12257
G1 X158.765 Y135.177 E23.63793
G1 X159.365 Y135.177 E23.65063
G1 X142.148 Y152.394 E24.16599
G1 X142.748 Y152.394 E24.17869
G1 X159.965 Y135.177 E24.69405
G1 X160.565 Y135.177 E24.70675
G1 X143.348 Y152.394 E25.22211
G1 X143.948 Y152.394 E25.23481
G1 X161.165 Y135.177 E25.75017
G1 X161.765 Y135.177 E25.76287
G1 X144.548 Y152.394 E26.27823
G1 X145.148 Y152.394 E26.29093
G1 X162.365 Y135.177 E26.80629
G1 X162.965 Y135.177 E26.81899
G1 X145.748 Y152.394 E27.33435
G1 X146.348 Y152.394 E27.34705
G1 X163.565 Y135.177 E27.86241
G1 X164.165 Y135.177 E27.87511
G1 X146.948 Y152.394 E28.39047
G1 X147.548 Y152.394 E28.40317
G1 X164.765 Y135.177 E28.91853
G1 X165.365 Y135.177 E28.93123
G1 X148.148 Y152.394 E29.44659
G1 X148.748 Y152.394 E29.45929
G1 X165.964 Y135.177 E29.97463
G1 X166.564 Y135.177 E29.98733
G1 X149.348 Y152.394 E30.50267
G1 X149.948 Y152.394 E30.51537
G1 X167.164 Y135.177 E31.03071
G1 X167.764 Y135.177 E31.04341
G1 X150.548 Y152.394 E31.55875
G1 X151.148 Y152.394 E31.57145
G1 X168.364 Y135.177 E32.08679
G1 X168.568 Y135.148 E32.09115
;WIDTH:0.407876
G1 X168.772 Y135.119 E32.09508
;WIDTH:0.365752
G1 X168.731 Y135.13 E32.0958
G1 X168.712 Y135.059 E32.09705
G1 X168.783 Y135.078 E32.0983
;WIDTH:0.449999
G1 X168.654 Y135.487 E32.10738
G1 X151.748 Y152.394 E32.61344
G1 X152.348 Y152.394 E32.62614
G1 X168.654 Y136.087 E33.11424
G1 X168.654 Y136.687 E33.12694
G1 X152.948 Y152.394 E33.59708
G1 X153.548 Y152.394 E33.60978
G1 X168.654 Y137.287 E34.06196
G1 X168.654 Y137.887 E34.07466
G1 X154.148 Y152.394 E34.50888
G1 X154.748 Y152.394 E34.52158
G1 X168.654 Y138.487 E34.93784
G1 X168.654 Y139.087 E34.95054
G1 X155.348 Y152.394 E35.34884
G1 X155.948 Y152.394 E35.36154
G1 X168.654 Y139.687 E35.74188
G1 X168.654 Y140.287 E35.75458
G1 X156.548 Y152.394 E36.11696
