; generated by PrusaSlicer 2.6.0 on 2023-07-08 at 22:46:45 UTC

; 

; external perimeters extrusion width = 0.45mm
; perimeters extrusion width = 0.45mm
; infill extrusion width = 0.45mm
; solid infill extrusion width = 0.45mm
; top infill extrusion width = 0.40mm
; first layer extrusion width = 0.42mm

M104 S230 ; set temperature
;TYPE:Custom
G28 ;Home
G1 Z15.0 F2000 ;Move the platform
M106 S255
M109 S230 ; set temperature and wait for it to be reached
G21 ; set units to millimeters
G90 ; use absolute coordinates
M82 ; use absolute distances for extrusion
G92 E0
; Filament gcode
M107
;LAYER_CHANGE
;Z:0.15
;HEIGHT:0.15
G1 Z.15 F7800
G1 E-2 F2400
G92 E0
G1 X114.164 Y104.22 F7800
G1 E2 F2400
;TYPE:Skirt/Brim
;WIDTH:0.42
G1 F1800
G1 X115.19 Y103.333 E2.0328
G1 X115.942 Y102.861 E2.05427
G1 X116.766 Y102.472 E2.07631
G1 X117.578 Y102.2 E2.09702
G1 X118.416 Y102.021 E2.11774
G1 X119.76 Y101.941 E2.1503
G1 X180.601 Y101.941 E3.62173
G1 X181.519 Y102.014 E3.644
G1 X182.435 Y102.204 E3.66662
G1 X183.323 Y102.508 E3.68932
G1 X184.166 Y102.922 E3.71203
G1 X184.946 Y103.434 E3.7346
G1 X185.655 Y104.04 E3.75716
G1 X186.332 Y104.791 E3.78161
G1 X186.853 Y105.546 E3.8038
G1 X187.283 Y106.369 E3.82626
G1 X187.621 Y107.292 E3.85003
G1 X189.702 Y114.865 E4.03997
G1 X189.733 Y164.53 E5.24111
G1 X198.036 Y164.541 E5.44192
G1 X198.999 Y164.614 E5.46528
G1 X199.932 Y164.807 E5.48832
G1 X200.947 Y165.165 E5.51435
G1 X201.772 Y165.589 E5.53678
G1 X202.504 Y166.086 E5.55818
G1 X203.177 Y166.67 E5.57973
G1 X203.892 Y167.48 E5.60586
G1 X204.439 Y168.305 E5.6298
G1 X204.823 Y169.079 E5.6507
G1 X205.125 Y169.926 E5.67245
G1 X210.483 Y189.107 E6.1541
G1 X210.645 Y189.895 E6.17356
G1 X210.724 Y191.126 E6.20339
G1 X210.642 Y192.102 E6.22708
G1 X210.437 Y193.046 E6.25044
G1 X210.144 Y193.879 E6.2718
G1 X209.742 Y194.693 E6.29376
G1 X209.26 Y195.432 E6.3151
G1 X208.677 Y196.126 E6.33702
G1 X207.998 Y196.758 E6.35945
G1 X207.232 Y197.31 E6.38228
G1 X206.171 Y197.862 E6.41121
G1 X205.331 Y198.16 E6.43277
G1 X204.135 Y198.49 E6.46278
G1 X203.276 Y198.657 E6.48394
G1 X202.416 Y198.719 E6.50479
G1 X201.368 Y198.661 E6.53017
G1 X200.461 Y198.489 E6.5525
G1 X199.606 Y198.216 E6.57421
G1 X198.784 Y197.838 E6.59609
G1 X197.917 Y197.295 E6.62083
G1 X197.153 Y196.657 E6.6449
G1 X196.471 Y195.912 E6.66933
G1 X195.903 Y195.093 E6.69343
G1 X195.444 Y194.195 E6.71782
G1 X195.166 Y193.428 E6.73755
G1 X192.792 Y184.983 E6.94971
G1 X107.211 Y184.971 E9.01948
G1 X104.833 Y193.432 E9.23204
G1 X104.54 Y194.231 E9.25262
G1 X104.107 Y195.077 E9.2756
G1 X103.584 Y195.842 E9.29801
G1 X102.949 Y196.558 E9.32116
G1 X102.244 Y197.174 E9.3438
G1 X101.401 Y197.735 E9.36829
G1 X100.354 Y198.232 E9.39632
G1 X99.565 Y198.483 E9.41634
G1 X98.773 Y198.644 E9.43589
G1 X97.449 Y198.717 E9.46796
G1 X96.698 Y198.653 E9.48619
G1 X95.938 Y198.508 E9.5049
G1 X94.671 Y198.161 E9.53667
G1 X93.959 Y197.917 E9.55487
G1 X92.785 Y197.321 E9.58671
G1 X92.132 Y196.862 E9.60601
G1 X91.539 Y196.346 E9.62502
G1 X90.884 Y195.62 E9.64867
G1 X90.331 Y194.818 E9.67223
G1 X89.886 Y193.95 E9.69582
G1 X89.563 Y193.047 E9.71901
G1 X89.316 Y191.782 E9.75018
G1 X89.276 Y190.851 E9.77272
G1 X89.356 Y189.894 E9.79595
G1 X89.524 Y189.08 E9.81605
G1 X94.875 Y169.926 E10.29702
G1 X95.178 Y169.077 E10.31882
G1 X95.574 Y168.283 E10.34028
G1 X96.077 Y167.52 E10.36238
G1 X96.654 Y166.841 E10.38393
G1 X97.474 Y166.103 E10.41061
G1 X98.371 Y165.507 E10.43666
G1 X99.22 Y165.095 E10.45948
G1 X100.105 Y164.797 E10.48206
G1 X101.03 Y164.61 E10.50488
G1 X101.965 Y164.541 E10.52755
G1 X110.303 Y164.53 E10.7292
G1 X110.305 Y115.035 E11.92623
G1 X112.426 Y107.144 E12.12385
G1 X112.725 Y106.353 E12.1443
G1 X113.122 Y105.588 E12.16514
G1 X113.608 Y104.869 E12.18613
G1 X114.125 Y104.265 E12.20536
G1 X114.42 Y104.517 F7800
G1 F1800
G1 X115.409 Y103.654 E12.2371
G1 X116.138 Y103.196 E12.25792
G1 X116.921 Y102.828 E12.27884
G1 X117.689 Y102.572 E12.29842
G1 X118.482 Y102.404 E12.31802
G1 X119.776 Y102.329 E12.34937
G1 X180.593 Y102.329 E13.82022
G1 X181.476 Y102.4 E13.84164
G1 X182.344 Y102.581 E13.86308
G1 X183.185 Y102.871 E13.88459
G1 X183.984 Y103.264 E13.90612
G1 X184.722 Y103.751 E13.9275
G1 X185.394 Y104.327 E13.94891
G1 X186.02 Y105.022 E13.97153
G1 X186.527 Y105.757 E13.99312
G1 X186.933 Y106.537 E14.01439
G1 X187.254 Y107.417 E14.03704
G1 X189.321 Y114.943 E14.2258
G1 X189.345 Y164.918 E15.43444
G1 X198.028 Y164.929 E15.64444
G1 X198.933 Y164.996 E15.66639
G1 X199.84 Y165.184 E15.68879
G1 X200.782 Y165.517 E15.71295
G1 X201.565 Y165.917 E15.73421
G1 X202.26 Y166.387 E15.7545
G1 X202.895 Y166.936 E15.7748
G1 X203.593 Y167.726 E15.8003
G1 X204.108 Y168.508 E15.82295
G1 X204.47 Y169.241 E15.84272
G1 X204.753 Y170.037 E15.86315
G1 X210.107 Y189.205 E16.34447
G1 X210.262 Y189.96 E16.36311
G1 X210.337 Y191.108 E16.39093
G1 X210.26 Y192.033 E16.41338
G1 X210.067 Y192.929 E16.43555
G1 X209.782 Y193.739 E16.45632
G1 X209.4 Y194.51 E16.47713
G1 X208.942 Y195.21 E16.49736
G1 X208.389 Y195.867 E16.51813
G1 X207.743 Y196.466 E16.53944
G1 X207.018 Y196.987 E16.56103
G1 X206.005 Y197.511 E16.58861
G1 X205.222 Y197.788 E16.6087
G1 X204.039 Y198.115 E16.63838
G1 X203.236 Y198.271 E16.65816
G1 X202.424 Y198.331 E16.67785
G1 X201.402 Y198.275 E16.7026
G1 X200.567 Y198.116 E16.72316
G1 X199.757 Y197.859 E16.74371
G1 X198.958 Y197.491 E16.76498
G1 X198.134 Y196.974 E16.78851
G1 X197.412 Y196.368 E16.81131
G1 X196.781 Y195.68 E16.83389
G1 X196.242 Y194.905 E16.85672
G1 X195.805 Y194.051 E16.87992
G1 X195.537 Y193.316 E16.89884
G1 X193.086 Y184.595 E17.11793
G1 X106.917 Y184.583 E19.20192
G1 X104.461 Y193.32 E19.42141
G1 X104.18 Y194.086 E19.44114
G1 X103.779 Y194.869 E19.46242
G1 X103.285 Y195.595 E19.48366
G1 X102.684 Y196.275 E19.50561
G1 X102.018 Y196.859 E19.52703
G1 X101.222 Y197.391 E19.55018
G1 X100.223 Y197.867 E19.57694
G1 X99.477 Y198.105 E19.59588
G1 X98.709 Y198.261 E19.61483
G1 X97.468 Y198.33 E19.64489
G1 X96.742 Y198.268 E19.66251
G1 X96.019 Y198.128 E19.68032
G1 X94.779 Y197.788 E19.71142
G1 X94.098 Y197.555 E19.72883
G1 X92.996 Y196.996 E19.75871
G1 X92.379 Y196.563 E19.77694
G1 X91.803 Y196.061 E19.79542
G1 X91.181 Y195.37 E19.8179
G1 X90.658 Y194.609 E19.84023
G1 X90.237 Y193.785 E19.86261
G1 X89.933 Y192.931 E19.88453
G1 X89.703 Y191.751 E19.91361
G1 X89.664 Y190.847 E19.93549
G1 X89.741 Y189.939 E19.95753
G1 X89.899 Y189.178 E19.97633
G1 X95.247 Y170.036 E20.45701
G1 X95.531 Y169.239 E20.47747
G1 X95.904 Y168.486 E20.49779
G1 X96.38 Y167.762 E20.51875
G1 X96.941 Y167.102 E20.5397
G1 X97.701 Y166.418 E20.56443
G1 X98.552 Y165.849 E20.58919
G1 X99.357 Y165.458 E20.61083
G1 X100.195 Y165.174 E20.63223
G1 X101.071 Y164.996 E20.65385
G1 X101.972 Y164.929 E20.6757
G1 X110.69 Y164.918 E20.88654
G1 X110.692 Y115.06 E22.09235
G1 X112.792 Y107.271 E22.28745
G1 X113.074 Y106.521 E22.30683
G1 X113.45 Y105.795 E22.3266
G1 X113.909 Y105.113 E22.34648
G1 X114.381 Y104.563 E22.36401
G1 X114.675 Y104.816 F7800
G1 F1800
G1 X115.628 Y103.975 E22.39475
G1 X116.334 Y103.531 E22.41492
G1 X117.075 Y103.184 E22.43471
G1 X117.801 Y102.944 E22.4532
G1 X118.547 Y102.786 E22.47164
G1 X119.793 Y102.716 E22.50182
G1 X180.57 Y102.716 E23.9717
G1 X181.409 Y102.782 E23.99205
G1 X182.252 Y102.958 E24.01288
G1 X183.046 Y103.233 E24.0332
G1 X183.8 Y103.606 E24.05354
G1 X184.497 Y104.068 E24.07376
G1 X185.131 Y104.612 E24.09396
G1 X185.709 Y105.253 E24.11483
G1 X186.189 Y105.946 E24.13522
G1 X186.582 Y106.704 E24.15587
G1 X186.887 Y107.542 E24.17744
G1 X188.94 Y115.02 E24.36499
G1 X188.957 Y165.305 E25.58113
G1 X198.02 Y165.316 E25.80032
G1 X198.891 Y165.382 E25.82145
G1 X199.748 Y165.561 E25.84262
G1 X200.617 Y165.868 E25.86491
G1 X201.358 Y166.246 E25.88503
G1 X202.016 Y166.688 E25.9042
G1 X202.613 Y167.203 E25.92327
G1 X203.293 Y167.972 E25.9481
G1 X203.777 Y168.711 E25.96946
G1 X204.117 Y169.401 E25.98806
G1 X204.381 Y170.147 E26.0072
G1 X209.732 Y189.303 E26.48822
G1 X209.88 Y190.024 E26.50602
G1 X209.949 Y191.091 E26.53188
G1 X209.878 Y191.964 E26.55306
G1 X209.697 Y192.813 E26.57405
G1 X209.429 Y193.578 E26.59365
G1 X209.069 Y194.307 E26.61331
G1 X208.624 Y194.987 E26.63296
G1 X208.1 Y195.607 E26.65259
G1 X207.489 Y196.172 E26.67272
G1 X206.803 Y196.663 E26.69312
G1 X205.839 Y197.16 E26.71935
G1 X205.112 Y197.416 E26.73799
G1 X203.943 Y197.739 E26.76732
G1 X203.195 Y197.885 E26.78575
G1 X202.433 Y197.943 E26.80423
G1 X201.437 Y197.888 E26.82835
G1 X200.652 Y197.738 E26.84768
G1 X199.887 Y197.493 E26.86711
G1 X199.132 Y197.145 E26.88722
G1 X198.353 Y196.653 E26.9095
G1 X197.672 Y196.08 E26.93102
G1 X197.077 Y195.428 E26.95237
G1 X196.568 Y194.694 E26.97397
G1 X196.165 Y193.907 E26.99535
G1 X195.909 Y193.204 E27.01344
G1 X193.38 Y184.207 E27.23946
G1 X106.624 Y184.195 E29.33764
G1 X104.09 Y193.208 E29.56407
G1 X103.82 Y193.941 E29.58296
G1 X103.44 Y194.681 E29.60308
G1 X102.972 Y195.366 E29.62314
G1 X102.402 Y196.009 E29.64392
G1 X101.791 Y196.544 E29.66356
G1 X101.041 Y197.048 E29.68541
G1 X100.092 Y197.502 E29.71085
G1 X99.37 Y197.732 E29.72918
G1 X98.647 Y197.878 E29.74702
G1 X97.487 Y197.942 E29.77512
G1 X96.785 Y197.882 E29.79216
G1 X96.101 Y197.749 E29.80901
G1 X94.888 Y197.416 E29.83943
G1 X94.236 Y197.192 E29.8561
G1 X93.207 Y196.67 E29.88401
G1 X92.61 Y196.252 E29.90164
G1 X92.067 Y195.777 E29.91909
G1 X91.478 Y195.12 E29.94043
G1 X90.985 Y194.401 E29.96151
G1 X90.589 Y193.621 E29.98267
G1 X90.304 Y192.815 E30.00335
G1 X90.09 Y191.72 E30.03033
G1 X90.052 Y190.843 E30.05156
G1 X90.126 Y189.984 E30.07241
G1 X90.274 Y189.276 E30.0899
G1 X95.619 Y170.147 E30.57025
G1 X95.884 Y169.4 E30.58942
G1 X96.235 Y168.689 E30.6086
G1 X96.698 Y167.985 E30.62898
G1 X97.228 Y167.363 E30.64874
G1 X97.929 Y166.732 E30.67155
G1 X98.735 Y166.192 E30.69501
G1 X99.494 Y165.821 E30.71544
G1 X100.284 Y165.552 E30.73562
G1 X101.136 Y165.378 E30.75665
G1 X101.98 Y165.316 E30.77712
G1 X111.078 Y165.305 E30.99715
G1 X111.08 Y115.086 E32.21169
G1 X113.158 Y107.399 E32.40427
G1 X113.433 Y106.669 E32.42314
G1 X113.788 Y105.984 E32.4418
G1 X114.224 Y105.34 E32.46061
G1 X114.635 Y104.861 E32.47587
G1 X114.929 Y105.114 F7800
G1 F1800
G1 X115.018 Y105.011 E32.47916
G1 X115.847 Y104.295 E32.50565
G1 X116.51 Y103.877 E32.52461
G1 X117.229 Y103.54 E32.54381
G1 X117.911 Y103.315 E32.56118
G1 X118.612 Y103.169 E32.5785
G1 X119.808 Y103.104 E32.60747
G1 X180.563 Y103.104 E34.07682
G1 X181.343 Y103.164 E34.09574
G1 X182.138 Y103.329 E34.11538
G1 X182.886 Y103.586 E34.13451
G1 X183.597 Y103.936 E34.15368
G1 X184.273 Y104.384 E34.17329
G1 X184.868 Y104.898 E34.19231
G1 X185.412 Y105.503 E34.21199
G1 X185.863 Y106.156 E34.23118
G1 X186.232 Y106.871 E34.25064
G1 X186.515 Y107.652 E34.27073
G1 X188.559 Y115.098 E34.45747
G1 X188.569 Y165.692 E35.68108
G1 X198.013 Y165.704 E35.90948
G1 X198.848 Y165.768 E35.92973
G1 X199.656 Y165.937 E35.94969
G1 X200.453 Y166.219 E35.97014
G1 X201.152 Y166.574 E35.9891
G1 X201.772 Y166.991 E36.00717
G1 X202.331 Y167.47 E36.02497
G1 X202.993 Y168.219 E36.04915
G1 X203.446 Y168.912 E36.06917
G1 X203.763 Y169.562 E36.08666
G1 X204.01 Y170.258 E36.10452
G1 X209.357 Y189.401 E36.58521
G1 X209.497 Y190.089 E36.60219
G1 X209.561 Y191.075 E36.62609
G1 X209.496 Y191.897 E36.64603
G1 X209.327 Y192.697 E36.6658
G1 X209.075 Y193.418 E36.68427
G1 X208.738 Y194.106 E36.7028
G1 X208.32 Y194.746 E36.72129
G1 X207.812 Y195.347 E36.74032
G1 X207.235 Y195.879 E36.7593
G1 X206.59 Y196.339 E36.77846
G1 X205.674 Y196.809 E36.80336
G1 X205.003 Y197.044 E36.82055
G1 X203.847 Y197.363 E36.84955
G1 X203.153 Y197.499 E36.86665
G1 X202.441 Y197.556 E36.88392
G1 X201.472 Y197.502 E36.90739
G1 X200.738 Y197.359 E36.92548
G1 X200.017 Y197.128 E36.94379
G1 X199.306 Y196.798 E36.96275
G1 X198.592 Y196.348 E36.98316
G1 X197.931 Y195.792 E37.00405
G1 X197.373 Y195.177 E37.02413
G1 X196.907 Y194.505 E37.04391
G1 X196.525 Y193.763 E37.06409
G1 X196.28 Y193.092 E37.08137
G1 X193.674 Y183.819 E37.31432
G1 X106.33 Y183.807 E39.42672
G1 X103.719 Y193.095 E39.66006
G1 X103.461 Y193.796 E39.67813
G1 X103.101 Y194.492 E39.69708
G1 X102.66 Y195.136 E39.71596
G1 X102.121 Y195.741 E39.73556
G1 X101.545 Y196.244 E39.75405
G1 X100.861 Y196.704 E39.77399
G1 X99.961 Y197.137 E39.79814
G1 X99.282 Y197.354 E39.81538
G1 X98.584 Y197.495 E39.8326
G1 X97.506 Y197.555 E39.85871
G1 X96.849 Y197.5 E39.87466
G1 X96.182 Y197.37 E39.89109
G1 X94.997 Y197.044 E39.92081
G1 X94.375 Y196.83 E39.93672
G1 X93.418 Y196.345 E39.96267
G1 X92.857 Y195.953 E39.97922
G1 X92.331 Y195.493 E39.99612
G1 X91.79 Y194.89 E40.01571
G1 X91.325 Y194.213 E40.03557
G1 X90.95 Y193.479 E40.0555
G1 X90.674 Y192.699 E40.07551
G1 X90.477 Y191.688 E40.10042
G1 X90.439 Y190.863 E40.12039
G1 X90.508 Y190.051 E40.1401
G1 X90.649 Y189.375 E40.1568
G1 X95.991 Y170.258 E40.63685
G1 X96.237 Y169.561 E40.65473
G1 X96.566 Y168.891 E40.67278
G1 X97.001 Y168.227 E40.69198
G1 X97.515 Y167.624 E40.71114
G1 X98.157 Y167.046 E40.73203
G1 X98.918 Y166.534 E40.75421
G1 X99.631 Y166.184 E40.77342
G1 X100.375 Y165.929 E40.79244
G1 X101.177 Y165.764 E40.81224
G1 X101.987 Y165.704 E40.83188
G1 X111.466 Y165.692 E41.06113
G1 X111.468 Y115.112 E42.2844
G1 X113.525 Y107.526 E42.47449
G1 X113.783 Y106.836 E42.49231
G1 X114.116 Y106.192 E42.50984
G1 X114.539 Y105.566 E42.52811
G1 X114.89 Y105.16 E42.54109
G1 X115.183 Y105.413 F7800
G1 F1800
G1 X115.302 Y105.275 E42.5455
G1 X116.066 Y104.615 E42.56992
G1 X116.706 Y104.212 E42.58821
G1 X117.382 Y103.896 E42.60626
G1 X118.021 Y103.688 E42.62251
G1 X118.676 Y103.552 E42.63869
G1 X119.823 Y103.491 E42.66647
G1 X180.541 Y103.491 E44.13493
G1 X181.277 Y103.547 E44.15278
G1 X182.024 Y103.7 E44.17122
G1 X182.748 Y103.949 E44.18974
G1 X183.413 Y104.278 E44.20768
G1 X184.047 Y104.7 E44.2261
G1 X184.605 Y105.183 E44.24395
G1 X185.114 Y105.752 E44.26241
G1 X185.536 Y106.365 E44.28041
G1 X185.881 Y107.037 E44.29868
G1 X186.143 Y107.762 E44.31732
G1 X188.172 Y115.124 E44.50201
G1 X188.182 Y166.08 E45.73437
G1 X198.005 Y166.092 E45.97194
G1 X198.781 Y166.15 E45.99076
G1 X199.564 Y166.314 E46.01011
G1 X200.289 Y166.571 E46.02871
G1 X200.966 Y166.915 E46.04708
G1 X201.529 Y167.293 E46.06348
G1 X202.05 Y167.737 E46.08004
G1 X202.692 Y168.464 E46.1035
G1 X203.114 Y169.113 E46.12222
G1 X203.41 Y169.721 E46.13857
G1 X203.638 Y170.368 E46.15516
G1 X208.981 Y189.498 E46.63552
G1 X209.115 Y190.153 E46.65169
G1 X209.174 Y191.059 E46.67365
G1 X209.114 Y191.83 E46.69235
G1 X208.956 Y192.581 E46.71091
G1 X208.713 Y193.279 E46.72878
G1 X208.395 Y193.923 E46.74615
G1 X208.002 Y194.523 E46.7635
G1 X207.524 Y195.087 E46.78138
G1 X206.982 Y195.585 E46.79918
G1 X206.377 Y196.015 E46.81713
G1 X205.51 Y196.457 E46.84067
G1 X204.894 Y196.672 E46.85645
G1 X203.751 Y196.987 E46.88512
G1 X203.11 Y197.114 E46.90092
G1 X202.449 Y197.168 E46.91696
G1 X201.507 Y197.115 E46.93978
G1 X200.824 Y196.981 E46.95661
G1 X200.149 Y196.762 E46.97377
G1 X199.481 Y196.452 E46.99158
G1 X198.832 Y196.042 E47.01015
G1 X198.191 Y195.504 E47.03039
G1 X197.669 Y194.926 E47.04923
G1 X197.233 Y194.296 E47.06776
G1 X196.885 Y193.618 E47.08619
G1 X196.651 Y192.98 E47.10263
G1 X193.967 Y183.432 E47.3425
G1 X106.211 Y183.419 E49.46487
G1 X106.03 Y183.44 E49.46928
G1 X103.348 Y192.983 E49.70902
G1 X103.101 Y193.65 E49.72622
G1 X102.763 Y194.302 E49.74398
G1 X102.347 Y194.906 E49.76172
G1 X101.84 Y195.474 E49.78013
G1 X101.3 Y195.944 E49.79744
G1 X100.68 Y196.361 E49.81551
G1 X99.829 Y196.771 E49.83836
G1 X99.174 Y196.982 E49.855
G1 X98.521 Y197.112 E49.8711
G1 X97.525 Y197.167 E49.89522
G1 X96.892 Y197.114 E49.91058
G1 X96.264 Y196.991 E49.92606
G1 X95.106 Y196.672 E49.95511
G1 X94.514 Y196.468 E49.97025
G1 X93.629 Y196.019 E49.99425
G1 X93.088 Y195.641 E50.01021
G1 X92.596 Y195.209 E50.02604
G1 X92.088 Y194.641 E50.04447
G1 X91.652 Y194.005 E50.06312
G1 X91.302 Y193.315 E50.08183
G1 X91.044 Y192.584 E50.10058
G1 X90.863 Y191.656 E50.12345
G1 X90.827 Y190.882 E50.14219
G1 X90.891 Y190.118 E50.16073
G1 X91.025 Y189.473 E50.17666
G1 X96.362 Y170.368 E50.6564
G1 X96.59 Y169.721 E50.67299
G1 X96.898 Y169.093 E50.68991
G1 X97.304 Y168.469 E50.70791
