; generated by PrusaSlicer 2.6.0 on 2023-07-08 at 22:45:45 UTC

; 

; external perimeters extrusion width = 0.45mm
; perimeters extrusion width = 0.45mm
; infill extrusion width = 0.45mm
; solid infill extrusion width = 0.45mm
; top infill extrusion width = 0.40mm
; first layer extrusion width = 0.42mm

M104 S230 ; set temperature
;TYPE:Custom
G28 ;Home
G1 Z15.0 F2000 ;Move the platform
M106 S255
M109 S230 ; set temperature and wait for it to be reached
G21 ; set units to millimeters
G90 ; use absolute coordinates
M82 ; use absolute distances for extrusion
G92 E0
; Filament gcode
M107
;LAYER_CHANGE
;Z:0.15
;HEIGHT:0.15
G1 Z.15 F7800
G1 E-2 F2400
G92 E0
G1 X127.811 Y124.71 F7800
G1 E2 F2400
;TYPE:Skirt/Brim
;WIDTH:0.42
G1 F1800
G1 X128.416 Y124.093 E2.0209
G1 X129.043 Y123.506 E2.04167
G1 X129.698 Y122.945 E2.06253
G1 X130.361 Y122.426 E2.08289
G1 X131 Y121.968 E2.1019
G1 X131.658 Y121.534 E2.12096
G1 X132.398 Y121.092 E2.14181
G1 X133.166 Y120.677 E2.16292
G1 X133.93 Y120.308 E2.18344
G1 X134.729 Y119.964 E2.20448
G1 X135.46 Y119.685 E2.2234
G1 X136.198 Y119.437 E2.24223
G1 X137.054 Y119.19 E2.26378
G1 X137.861 Y118.995 E2.28386
G1 X138.684 Y118.834 E2.30414
G1 X139.537 Y118.705 E2.325
G1 X140.336 Y118.619 E2.34444
G1 X141.147 Y118.565 E2.3641
G1 X141.953 Y118.546 E2.3836
G1 X163.741 Y118.546 E2.91054
G1 X164.558 Y118.565 E2.9303
G1 X165.383 Y118.62 E2.9503
G1 X166.197 Y118.709 E2.9701
G1 X167.014 Y118.834 E2.99009
G1 X167.817 Y118.991 E3.00988
G1 X168.613 Y119.182 E3.02968
G1 X169.4 Y119.406 E3.04947
G1 X170.184 Y119.666 E3.06945
G1 X170.966 Y119.963 E3.08968
G1 X171.736 Y120.293 E3.10994
G1 X172.59 Y120.707 E3.13289
G1 X173.299 Y121.091 E3.15239
G1 X173.994 Y121.506 E3.17197
G1 X174.67 Y121.948 E3.1915
G1 X175.327 Y122.418 E3.21104
G1 X175.986 Y122.934 E3.23128
G1 X176.621 Y123.476 E3.25147
G1 X177.314 Y124.124 E3.27442
G1 X177.88 Y124.703 E3.294
G1 X178.42 Y125.304 E3.31354
G1 X178.935 Y125.928 E3.33311
G1 X179.425 Y126.574 E3.35272
G1 X179.961 Y127.352 E3.37557
G1 X180.404 Y128.062 E3.39581
G1 X180.815 Y128.789 E3.41601
G1 X181.184 Y129.51 E3.4356
G1 X181.523 Y130.247 E3.45522
G1 X181.829 Y130.993 E3.47472
G1 X182.105 Y131.755 E3.49432
G1 X182.386 Y132.655 E3.51712
G1 X182.591 Y133.43 E3.53651
G1 X182.762 Y134.207 E3.55575
G1 X196.096 Y201.624 E5.21781
G1 X196.218 Y202.916 E5.2492
G1 X196.116 Y204.21 E5.28059
G1 X195.967 Y204.89 E5.29743
G1 X195.764 Y205.541 E5.31392
G1 X195.241 Y206.66 E5.34379
G1 X194.761 Y207.4 E5.36512
G1 X194.2 Y208.074 E5.38633
G1 X193.609 Y208.638 E5.40609
G1 X192.946 Y209.145 E5.42628
G1 X192.207 Y209.585 E5.44708
G1 X191.419 Y209.941 E5.46799
G1 X190.649 Y210.187 E5.48754
G1 X189.779 Y210.361 E5.509
G1 X189.018 Y210.427 E5.52747
G1 X181.075 Y210.619 E5.71963
G1 X179.252 Y210.033 E5.76594
G1 X178.46 Y209.436 E5.78993
G1 X177.82 Y208.704 E5.81345
G1 X177.351 Y207.801 E5.83806
G1 X167.893 Y173.992 E6.68712
G1 X167.65 Y171.625 E6.74467
G1 X138.048 Y171.625 E7.46059
G1 X137.805 Y173.992 E7.51814
G1 X128.353 Y207.778 E8.36662
G1 X128.002 Y208.516 E8.38638
G1 X127.319 Y209.36 E8.41264
G1 X126.469 Y210.019 E8.43865
G1 X124.557 Y210.628 E8.48718
G1 X116.32 Y210.405 E8.68646
G1 X115.549 Y210.3 E8.70528
G1 X114.69 Y210.084 E8.7267
G1 X113.932 Y209.798 E8.74629
G1 X113.196 Y209.426 E8.76623
G1 X112.236 Y208.76 E8.79449
G1 X111.445 Y208.017 E8.82074
G1 X110.739 Y207.119 E8.84837
G1 X110.178 Y206.122 E8.87604
G1 X109.78 Y205.066 E8.90333
G1 X109.543 Y203.939 E8.93118
G1 X109.483 Y202.776 E8.95934
G1 X109.595 Y201.675 E8.9861
G1 X122.942 Y134.177 E10.65014
G1 X123.118 Y133.385 E10.66976
G1 X123.332 Y132.586 E10.68976
G1 X123.576 Y131.805 E10.70955
G1 X123.853 Y131.034 E10.72936
G1 X124.166 Y130.269 E10.74935
G1 X124.51 Y129.517 E10.76935
G1 X124.911 Y128.736 E10.79058
G1 X125.321 Y128.016 E10.81062
G1 X125.782 Y127.283 E10.83156
G1 X126.274 Y126.573 E10.85245
G1 X126.746 Y125.95 E10.87135
G1 X127.243 Y125.345 E10.89029
G1 X127.771 Y124.755 E10.90944
G1 X128.06 Y125.014 F7800
G1 F1800
G1 X128.69 Y124.367 E10.93128
G1 X129.304 Y123.792 E10.95162
G1 X129.94 Y123.248 E10.97186
G1 X130.59 Y122.739 E10.99183
G1 X131.216 Y122.289 E11.01048
G1 X131.868 Y121.861 E11.02934
G1 X132.593 Y121.427 E11.04978
G1 X133.338 Y121.025 E11.07025
G1 X134.087 Y120.662 E11.09038
G1 X134.871 Y120.324 E11.11103
G1 X135.587 Y120.051 E11.12956
G1 X136.317 Y119.806 E11.14818
G1 X137.149 Y119.566 E11.16912
G1 X137.94 Y119.375 E11.1888
G1 X138.746 Y119.217 E11.20866
G1 X139.583 Y119.09 E11.22913
G1 X140.366 Y119.005 E11.24818
G1 X141.16 Y118.953 E11.26742
G1 X141.956 Y118.934 E11.28668
G1 X163.738 Y118.934 E11.81348
G1 X164.536 Y118.953 E11.83279
G1 X165.345 Y119.006 E11.8524
G1 X166.143 Y119.093 E11.87181
G1 X166.944 Y119.215 E11.89141
G1 X167.731 Y119.369 E11.9108
G1 X168.511 Y119.556 E11.9302
G1 X169.289 Y119.778 E11.94977
G1 X170.058 Y120.033 E11.96936
G1 X170.825 Y120.324 E11.9892
G1 X171.579 Y120.647 E12.00904
G1 X172.409 Y121.05 E12.03135
G1 X173.111 Y121.43 E12.05066
G1 X173.791 Y121.836 E12.06981
G1 X174.454 Y122.271 E12.08899
G1 X175.098 Y122.731 E12.10813
G1 X175.744 Y123.237 E12.12798
G1 X176.366 Y123.768 E12.14776
G1 X177.04 Y124.398 E12.17007
G1 X177.594 Y124.965 E12.18924
G1 X178.129 Y125.561 E12.20861
G1 X178.633 Y126.172 E12.22777
G1 X179.113 Y126.805 E12.24698
G1 X179.634 Y127.561 E12.26919
G1 X180.069 Y128.257 E12.28904
G1 X180.472 Y128.969 E12.30883
G1 X180.833 Y129.675 E12.32801
G1 X181.165 Y130.398 E12.34725
G1 X181.466 Y131.129 E12.36637
G1 X181.739 Y131.883 E12.38576
G1 X182.012 Y132.758 E12.40793
G1 X182.213 Y133.517 E12.42692
G1 X182.382 Y134.284 E12.44591
G1 X195.714 Y201.69 E14.1077
G1 X195.83 Y202.935 E14.13794
G1 X195.735 Y204.14 E14.16717
G1 X195.594 Y204.783 E14.18309
G1 X195.397 Y205.413 E14.19905
G1 X194.895 Y206.483 E14.22763
G1 X194.442 Y207.178 E14.24769
G1 X193.909 Y207.817 E14.26781
G1 X193.35 Y208.35 E14.28649
G1 X192.737 Y208.818 E14.30514
G1 X192.037 Y209.237 E14.32487
G1 X191.289 Y209.575 E14.34472
G1 X190.561 Y209.809 E14.36321
G1 X189.734 Y209.976 E14.38361
G1 X189.002 Y210.04 E14.40138
G1 X181.16 Y210.24 E14.5911
G1 X179.457 Y209.702 E14.63429
G1 X178.738 Y209.165 E14.65599
G1 X178.128 Y208.467 E14.67841
G1 X177.719 Y207.678 E14.6999
G1 X168.271 Y173.904 E15.54808
G1 X168 Y171.237 E15.61291
G1 X137.698 Y171.237 E16.34576
G1 X137.427 Y173.904 E16.41059
G1 X127.984 Y207.658 E17.25827
G1 X127.685 Y208.292 E17.27522
G1 X127.063 Y209.068 E17.29927
G1 X126.258 Y209.692 E17.3239
G1 X124.535 Y210.24 E17.36763
G1 X116.362 Y210.02 E17.56536
G1 X115.632 Y209.921 E17.58318
G1 X114.795 Y209.711 E17.60405
G1 X114.079 Y209.439 E17.62257
G1 X113.384 Y209.086 E17.64142
G1 X112.469 Y208.45 E17.66837
G1 X111.722 Y207.745 E17.69321
G1 X111.054 Y206.892 E17.71941
G1 X110.524 Y205.945 E17.74566
G1 X110.149 Y204.945 E17.77149
G1 X109.926 Y203.875 E17.79792
G1 X109.871 Y202.772 E17.82463
G1 X109.979 Y201.724 E17.85011
G1 X123.321 Y134.258 E19.51337
G1 X123.494 Y133.481 E19.53262
G1 X123.703 Y132.698 E19.55222
G1 X123.942 Y131.932 E19.57163
G1 X124.217 Y131.17 E19.59122
G1 X124.523 Y130.419 E19.61083
G1 X124.861 Y129.683 E19.63042
G1 X125.25 Y128.924 E19.65105
G1 X125.652 Y128.219 E19.67068
G1 X126.103 Y127.5 E19.69121
G1 X126.586 Y126.803 E19.71172
G1 X127.048 Y126.193 E19.73023
G1 X127.54 Y125.595 E19.74896
G1 X128.02 Y125.059 E19.76636
G1 X128.309 Y125.317 F7800
G1 F1800
G1 X128.958 Y124.647 E19.78892
G1 X129.56 Y124.084 E19.80885
G1 X130.183 Y123.55 E19.82869
G1 X130.82 Y123.051 E19.84826
G1 X131.439 Y122.607 E19.86668
G1 X132.078 Y122.187 E19.88517
G1 X132.781 Y121.766 E19.90499
G1 X133.511 Y121.372 E19.92505
G1 X134.244 Y121.017 E19.94475
G1 X135.013 Y120.685 E19.96501
G1 X135.714 Y120.418 E19.98315
G1 X136.437 Y120.175 E20.0016
G1 X137.244 Y119.942 E20.02191
G1 X138.019 Y119.755 E20.04119
G1 X138.809 Y119.599 E20.06067
G1 X139.629 Y119.475 E20.08073
G1 X140.396 Y119.392 E20.09939
G1 X141.174 Y119.34 E20.11825
G1 X141.958 Y119.322 E20.13722
G1 X163.732 Y119.322 E20.66382
G1 X164.515 Y119.34 E20.68276
G1 X165.308 Y119.392 E20.70198
G1 X166.088 Y119.477 E20.72096
G1 X166.873 Y119.597 E20.74017
G1 X167.652 Y119.749 E20.75937
G1 X168.416 Y119.932 E20.77837
G1 X169.179 Y120.15 E20.79756
G1 X169.932 Y120.399 E20.81674
G1 X170.683 Y120.685 E20.83618
G1 X171.421 Y121.002 E20.85561
G1 X172.229 Y121.393 E20.87732
G1 X172.915 Y121.765 E20.89619
G1 X173.582 Y122.163 E20.91497
G1 X174.232 Y122.588 E20.93375
G1 X174.869 Y123.044 E20.9527
G1 X175.502 Y123.54 E20.97215
G1 X176.111 Y124.06 E20.99152
G1 X176.766 Y124.672 E21.0132
G1 X177.308 Y125.227 E21.03196
G1 X177.832 Y125.811 E21.05094
G1 X178.327 Y126.409 E21.06971
G1 X178.801 Y127.036 E21.08872
G1 X179.308 Y127.77 E21.11029
G1 X179.733 Y128.452 E21.12972
G1 X180.129 Y129.15 E21.14913
G1 X180.482 Y129.841 E21.1679
G1 X180.811 Y130.556 E21.18693
G1 X181.105 Y131.273 E21.20567
G1 X181.373 Y132.011 E21.22466
G1 X181.639 Y132.862 E21.24622
G1 X181.835 Y133.605 E21.2648
G1 X182.002 Y134.362 E21.28355
G1 X195.332 Y201.756 E22.94504
G1 X195.442 Y202.922 E22.97336
G1 X195.353 Y204.071 E23.00123
G1 X195.221 Y204.675 E23.01618
G1 X195.031 Y205.285 E23.03163
G1 X194.55 Y206.305 E23.0589
G1 X194.124 Y206.956 E23.07772
G1 X193.619 Y207.559 E23.09674
G1 X193.091 Y208.061 E23.11436
G1 X192.511 Y208.503 E23.132
G1 X191.848 Y208.898 E23.15066
G1 X191.14 Y209.217 E23.16944
G1 X190.473 Y209.431 E23.18638
G1 X189.689 Y209.591 E23.20573
G1 X188.986 Y209.652 E23.2228
G1 X181.183 Y209.851 E23.41158
G1 X179.663 Y209.372 E23.45012
G1 X178.987 Y208.867 E23.47053
G1 X178.437 Y208.231 E23.49087
G1 X178.088 Y207.554 E23.50929
G1 X168.649 Y173.816 E24.35657
G1 X168.351 Y170.849 E24.42869
G1 X137.347 Y170.849 E25.17852
G1 X137.049 Y173.816 E25.25064
G1 X127.615 Y207.538 E26.09752
G1 X127.368 Y208.068 E26.11166
G1 X126.775 Y208.807 E26.13458
G1 X126.05 Y209.363 E26.15668
G1 X124.513 Y209.851 E26.19568
G1 X116.403 Y209.634 E26.39189
G1 X115.715 Y209.542 E26.40868
G1 X114.922 Y209.344 E26.42845
G1 X114.227 Y209.08 E26.44643
G1 X113.572 Y208.747 E26.4642
G1 X112.703 Y208.14 E26.48984
G1 X111.999 Y207.474 E26.51328
G1 X111.369 Y206.666 E26.53806
G1 X110.87 Y205.77 E26.56286
G1 X110.518 Y204.824 E26.58727
G1 X110.309 Y203.811 E26.61229
G1 X110.259 Y202.769 E26.63752
G1 X110.364 Y201.774 E26.66172
G1 X123.701 Y134.336 E28.32429
G1 X123.872 Y133.569 E28.3433
G1 X124.076 Y132.802 E28.36249
G1 X124.311 Y132.052 E28.3815
G1 X124.58 Y131.305 E28.4007
G1 X124.88 Y130.57 E28.4199
G1 X125.212 Y129.849 E28.4391
G1 X125.589 Y129.112 E28.45912
G1 X125.982 Y128.422 E28.47832
G1 X126.425 Y127.717 E28.49846
G1 X126.898 Y127.034 E28.51855
G1 X127.355 Y126.43 E28.53687
G1 X127.837 Y125.844 E28.55522
G1 X128.269 Y125.362 E28.57087
G1 X128.558 Y125.621 F7800
G1 F1800
G1 X129.232 Y124.922 E28.59435
G1 X129.815 Y124.376 E28.61367
G1 X130.425 Y123.853 E28.6331
G1 X131.049 Y123.364 E28.65227
G1 X131.656 Y122.929 E28.67033
G1 X132.287 Y122.513 E28.68861
G1 X132.977 Y122.101 E28.70805
G1 X133.684 Y121.719 E28.72748
G1 X134.402 Y121.371 E28.74678
G1 X135.155 Y121.046 E28.76662
G1 X135.849 Y120.782 E28.78458
G1 X136.556 Y120.544 E28.80262
G1 X137.34 Y120.318 E28.82235
G1 X138.098 Y120.135 E28.84121
G1 X138.879 Y119.981 E28.86046
G1 X139.683 Y119.859 E28.88013
G1 X140.433 Y119.778 E28.89837
G1 X141.195 Y119.728 E28.91684
G1 X141.965 Y119.709 E28.93547
G1 X163.725 Y119.709 E29.46173
G1 X164.494 Y119.727 E29.48033
G1 X165.278 Y119.779 E29.49933
G1 X166.042 Y119.863 E29.51792
G1 X166.811 Y119.979 E29.53673
G1 X167.574 Y120.129 E29.55554
G1 X168.321 Y120.308 E29.57412
G1 X169.069 Y120.522 E29.59294
G1 X169.806 Y120.766 E29.61172
G1 X170.542 Y121.046 E29.63076
G1 X171.264 Y121.356 E29.64976
G1 X172.048 Y121.736 E29.67083
G1 X172.72 Y122.1 E29.68931
G1 X173.38 Y122.494 E29.7079
G1 X174.016 Y122.91 E29.72628
G1 X174.639 Y123.357 E29.74482
G1 X175.259 Y123.842 E29.76386
G1 X175.856 Y124.352 E29.78285
G1 X176.492 Y124.947 E29.80391
G1 X177.022 Y125.49 E29.82226
G1 X177.536 Y126.061 E29.84084
G1 X178.025 Y126.653 E29.85941
G1 X178.49 Y127.266 E29.87802
G1 X178.981 Y127.979 E29.89896
G1 X179.398 Y128.647 E29.918
G1 X179.785 Y129.33 E29.93699
G1 X180.132 Y130.007 E29.95539
G1 X180.454 Y130.707 E29.97402
G1 X180.745 Y131.416 E29.99256
G1 X181.007 Y132.139 E30.01116
G1 X181.265 Y132.965 E30.03209
G1 X181.459 Y133.7 E30.05047
G1 X181.622 Y134.439 E30.06877
G1 X194.949 Y201.821 E31.72996
G1 X195.054 Y202.91 E31.75642
G1 X194.971 Y204.002 E31.78291
G1 X194.844 Y204.584 E31.79732
G1 X194.665 Y205.155 E31.81179
G1 X194.206 Y206.127 E31.83779
G1 X193.807 Y206.733 E31.85534
G1 X193.33 Y207.301 E31.87328
G1 X192.832 Y207.772 E31.88986
G1 X192.285 Y208.187 E31.90647
G1 X191.678 Y208.549 E31.92356
G1 X191.01 Y208.852 E31.9413
G1 X190.385 Y209.053 E31.95718
G1 X189.644 Y209.205 E31.97547
G1 X188.97 Y209.265 E31.99184
G1 X181.205 Y209.463 E32.1797
G1 X179.867 Y209.041 E32.21363
G1 X179.266 Y208.597 E32.2317
G1 X178.745 Y207.995 E32.25095
G1 X178.456 Y207.431 E32.26628
G1 X169.027 Y173.727 E33.1127
G1 X168.703 Y170.461 E33.19208
G1 X136.995 Y170.461 E33.95893
G1 X136.671 Y173.727 E34.03831
G1 X127.245 Y207.42 E34.88446
G1 X127.049 Y207.846 E34.8958
G1 X126.52 Y208.514 E34.91641
G1 X125.84 Y209.035 E34.93713
G1 X124.491 Y209.463 E34.97136
G1 X116.443 Y209.248 E35.16607
G1 X115.798 Y209.163 E35.1818
G1 X115.027 Y208.971 E35.20102
G1 X114.375 Y208.722 E35.2179
G1 X113.761 Y208.408 E35.23458
G1 X112.938 Y207.831 E35.25889
G1 X112.277 Y207.203 E35.28094
G1 X111.685 Y206.44 E35.3043
G1 X111.216 Y205.595 E35.32767
G1 X110.887 Y204.704 E35.35064
G1 X110.692 Y203.749 E35.37421
G1 X110.647 Y202.767 E35.39798
G1 X110.749 Y201.824 E35.42092
G1 X124.081 Y134.413 E37.08283
G1 X124.247 Y133.665 E37.10136
G1 X124.448 Y132.914 E37.12016
G1 X124.68 Y132.172 E37.13896
G1 X124.944 Y131.44 E37.15778
G1 X125.238 Y130.721 E37.17657
G1 X125.562 Y130.014 E37.19538
G1 X125.928 Y129.301 E37.21476
G1 X126.313 Y128.624 E37.2336
G1 X126.746 Y127.934 E37.2533
G1 X127.209 Y127.265 E37.27298
G1 X127.662 Y126.667 E37.29112
G1 X128.134 Y126.094 E37.30907
G1 X128.518 Y125.666 E37.32298
G1 X128.806 Y125.924 F7800
G1 F1800
G1 X129.5 Y125.202 E37.3472
G1 X130.071 Y124.667 E37.36612
G1 X130.668 Y124.156 E37.38513
G1 X131.279 Y123.677 E37.40391
G1 X131.879 Y123.246 E37.42178
G1 X132.497 Y122.84 E37.43966
G1 X133.172 Y122.436 E37.45869
G1 X133.857 Y122.066 E37.47752
G1 X134.56 Y121.725 E37.49642
G1 X135.297 Y121.407 E37.51583
G1 X135.983 Y121.145 E37.53359
G1 X136.676 Y120.913 E37.55126
G1 X137.435 Y120.694 E37.57037
G1 X138.185 Y120.512 E37.58904
G1 X138.95 Y120.362 E37.60789
G1 X139.737 Y120.243 E37.62714
G1 X140.471 Y120.164 E37.64499
G1 X141.217 Y120.115 E37.66307
G1 X141.972 Y120.097 E37.68133
G1 X163.718 Y120.097 E38.20725
G1 X164.472 Y120.114 E38.22549
G1 X165.24 Y120.165 E38.2441
G1 X165.988 Y120.247 E38.2623
G1 X166.74 Y120.361 E38.28069
G1 X167.487 Y120.507 E38.2991
G1 X168.227 Y120.684 E38.3175
G1 X168.958 Y120.893 E38.33589
G1 X169.68 Y121.133 E38.35429
G1 X170.4 Y121.407 E38.37292
G1 X171.107 Y121.711 E38.39153
G1 X171.867 Y122.08 E38.41196
G1 X172.525 Y122.436 E38.43005
G1 X173.171 Y122.821 E38.44824
G1 X173.8 Y123.233 E38.46643
G1 X174.41 Y123.67 E38.48458
G1 X175.017 Y124.145 E38.50322
G1 X175.6 Y124.644 E38.52178
G1 X176.217 Y125.221 E38.54221
G1 X176.742 Y125.758 E38.56037
G1 X177.245 Y126.317 E38.57856
G1 X177.723 Y126.897 E38.59674
G1 X178.178 Y127.497 E38.61495
G1 X178.655 Y128.188 E38.63526
G1 X179.063 Y128.842 E38.6539
G1 X179.442 Y129.511 E38.6725
G1 X179.781 Y130.173 E38.69049
G1 X180.097 Y130.858 E38.70873
G1 X180.385 Y131.559 E38.72706
G1 X180.641 Y132.267 E38.74527
G1 X180.891 Y133.068 E38.76556
G1 X181.081 Y133.787 E38.78355
G1 X181.242 Y134.516 E38.80161
G1 X194.567 Y201.887 E40.46253
G1 X194.666 Y202.93 E40.48787
G1 X194.589 Y203.932 E40.51217
G1 X194.467 Y204.493 E40.52605
G1 X194.299 Y205.026 E40.53957
G1 X193.874 Y205.925 E40.56362
G1 X193.489 Y206.511 E40.58058
G1 X193.041 Y207.042 E40.59738
G1 X192.574 Y207.482 E40.6129
G1 X192.06 Y207.872 E40.6285
G1 X191.49 Y208.21 E40.64453
G1 X190.861 Y208.494 E40.66122
G1 X190.296 Y208.676 E40.67558
