; generated by PrusaSlicer 2.6.0 on 2023-06-22 at 22:52:57 UTC

; 

; external perimeters extrusion width = 0.45mm
; perimeters extrusion width = 0.45mm
; infill extrusion width = 0.45mm
; solid infill extrusion width = 0.45mm
; top infill extrusion width = 0.40mm
; first layer extrusion width = 0.42mm

M104 S220 ; set temperature
;TYPE:Custom
G28 ;Home
G1 Z15.0 F2000 ;Move the platform
M106 S255
M109 S220 ; set temperature and wait for it to be reached
G21 ; set units to millimeters
G90 ; use absolute coordinates
M82 ; use absolute distances for extrusion
G92 E0
; Filament gcode
M107
;LAYER_CHANGE
;Z:0.35
;HEIGHT:0.35
G1 Z.35 F7800
G1 E-2 F2400
G92 E0
G1 X118.841 Y121.737 F7800
G1 E2 F2400
;TYPE:Skirt/Brim
;WIDTH:0.42
G1 F1800
G1 X135.408 Y112.172 E2.96005
G1 X135.804 Y112.061 E2.98069
G1 X136.264 Y112.062 E3.00378
G1 X136.645 Y112.174 E3.02371
G1 X153.209 Y121.737 E3.98358
G1 X153.527 Y122.054 E4.00611
G1 X153.727 Y122.412 E4.02669
G1 X153.827 Y122.806 E4.04709
G1 X153.827 Y135.521 E4.6852
G1 X153.851 Y135.894 E4.70396
G1 X153.974 Y136.403 E4.73024
G1 X154.051 Y136.59 E4.74039
G1 X154.224 Y136.905 E4.75843
G1 X154.559 Y137.315 E4.785
G1 X154.958 Y137.632 E4.81057
G1 X155.242 Y137.787 E4.82681
G1 X155.54 Y137.903 E4.84286
G1 X155.85 Y137.979 E4.85888
G1 X156.187 Y138.016 E4.87589
G1 X176.248 Y138.02 E5.88267
G1 X176.946 Y138.067 E5.91778
G1 X177.406 Y138.147 E5.94121
G1 X177.902 Y138.279 E5.96697
G1 X178.584 Y138.546 E6.00373
G1 X179.206 Y138.888 E6.03935
G1 X179.638 Y139.193 E6.06589
G1 X179.984 Y139.486 E6.08864
G1 X180.314 Y139.816 E6.11206
G1 X180.633 Y140.196 E6.13696
G1 X181.03 Y140.79 E6.17282
G1 X181.254 Y141.219 E6.19711
G1 X181.449 Y141.693 E6.22283
G1 X181.585 Y142.125 E6.24556
G1 X181.685 Y142.565 E6.2682
G1 X181.752 Y143.046 E6.29257
G1 X181.777 Y143.556 E6.3182
G1 X181.757 Y146.963 E6.48919
G1 X181.648 Y147.268 E6.50544
G1 X181.507 Y147.484 E6.51839
G1 X181.081 Y147.899 E6.54824
G1 X180.922 Y147.994 E6.55754
G1 X180.617 Y148.103 E6.57379
G1 X151.777 Y148.124 E8.02115
G1 X151.777 Y171.741 E9.20639
G1 X155.558 Y185.274 E9.91157
G1 X155.577 Y185.441 E9.92001
G1 X155.48 Y185.959 E9.94646
G1 X155.21 Y186.439 E9.9741
G1 X154.817 Y186.791 E10.00058
G1 X154.664 Y186.861 E10.00902
G1 X151.507 Y187.744 E10.17354
G1 X151.087 Y187.842 E10.19518
G1 X150.56 Y187.919 E10.22191
G1 X150.039 Y187.944 E10.24809
G1 X149.427 Y187.911 E10.27885
G1 X148.926 Y187.834 E10.30429
G1 X148.454 Y187.717 E10.32869
G1 X147.996 Y187.56 E10.35299
G1 X147.554 Y187.363 E10.37728
G1 X147.13 Y187.128 E10.40161
G1 X146.701 Y186.838 E10.4276
G1 X146.313 Y186.519 E10.45281
G1 X145.955 Y186.166 E10.47804
G1 X145.629 Y185.78 E10.5034
G1 X145.274 Y185.261 E10.53496
G1 X145.033 Y184.818 E10.56027
G1 X144.84 Y184.372 E10.58466
G1 X144.691 Y183.925 E10.60831
G1 X141.705 Y173.241 E11.16504
G1 X141.673 Y159.946 E11.83226
G1 X141.646 Y159.336 E11.8629
G1 X141.516 Y158.502 E11.90526
G1 X141.278 Y157.693 E11.94758
G1 X140.937 Y156.921 E11.98993
G1 X140.505 Y156.212 E12.0316
G1 X140.163 Y155.767 E12.05977
G1 X139.775 Y155.343 E12.08861
G1 X139.148 Y154.796 E12.13037
G1 X138.688 Y154.474 E12.15855
G1 X118.84 Y143.006 E13.30896
G1 X118.522 Y142.688 E13.33153
G1 X118.34 Y142.372 E13.34983
G1 X118.245 Y142.086 E13.36495
G1 X118.223 Y122.806 E14.33254
G1 X118.323 Y122.412 E14.35294
G1 X118.523 Y122.054 E14.37352
G1 X118.798 Y121.779 E14.39304
G1 X119.033 Y122.024 F7800
G1 F1800
G1 X135.56 Y112.482 E15.35078
G1 X135.867 Y112.401 E15.36671
G1 X136.234 Y112.407 E15.38513
G1 X136.49 Y112.482 E15.39852
G1 X153.017 Y122.024 E16.35626
G1 X153.24 Y122.247 E16.37209
G1 X153.401 Y122.525 E16.38821
G1 X153.482 Y122.829 E16.404
G1 X153.482 Y135.532 E17.04151
G1 X153.509 Y135.936 E17.06183
G1 X153.582 Y136.307 E17.08081
G1 X153.652 Y136.527 E17.0924
G1 X153.74 Y136.74 E17.10397
G1 X153.928 Y137.082 E17.12356
G1 X154.054 Y137.262 E17.13459
G1 X154.311 Y137.554 E17.15411
G1 X154.473 Y137.703 E17.16516
G1 X154.776 Y137.925 E17.18401
G1 X155.096 Y138.101 E17.20234
G1 X155.436 Y138.233 E17.22064
G1 X155.79 Y138.319 E17.23892
G1 X156.168 Y138.361 E17.25801
G1 X176.242 Y138.364 E18.26544
G1 X176.913 Y138.41 E18.29919
G1 X177.338 Y138.485 E18.32085
G1 X177.785 Y138.604 E18.34406
G1 X178.448 Y138.863 E18.37978
G1 X179.031 Y139.185 E18.4132
G1 X179.421 Y139.461 E18.43718
G1 X179.756 Y139.744 E18.45919
G1 X180.064 Y140.054 E18.48112
G1 X180.351 Y140.396 E18.50353
G1 X180.737 Y140.973 E18.53837
G1 X180.944 Y141.371 E18.56088
G1 X181.123 Y141.804 E18.58439
G1 X181.25 Y142.208 E18.60564
G1 X181.347 Y142.634 E18.62757
G1 X181.409 Y143.085 E18.65042
G1 X181.432 Y143.56 E18.67429
G1 X181.422 Y146.875 E18.84066
G1 X181.33 Y147.132 E18.85436
G1 X181.252 Y147.252 E18.86154
G1 X180.881 Y147.618 E18.88769
G1 X180.788 Y147.676 E18.89319
G1 X180.529 Y147.769 E18.907
G1 X151.432 Y147.779 E20.36726
G1 X151.432 Y171.789 E21.57222
G1 X155.222 Y185.351 E22.27892
G1 X155.232 Y185.451 E22.28396
G1 X155.165 Y185.815 E22.30253
G1 X154.924 Y186.244 E22.32722
G1 X154.647 Y186.49 E22.34581
G1 X154.556 Y186.534 E22.35088
G1 X151.418 Y187.411 E22.5144
G1 X151.016 Y187.505 E22.53512
G1 X150.519 Y187.576 E22.56032
G1 X150.031 Y187.599 E22.58484
G1 X149.455 Y187.568 E22.61379
G1 X148.987 Y187.495 E22.63756
G1 X148.545 Y187.384 E22.66043
G1 X148.116 Y187.236 E22.6832
G1 X147.701 Y187.051 E22.706
G1 X147.304 Y186.831 E22.72878
G1 X146.902 Y186.557 E22.7532
G1 X146.538 Y186.258 E22.77684
G1 X146.203 Y185.927 E22.80047
G1 X145.898 Y185.565 E22.82423
G1 X145.572 Y185.088 E22.85323
G1 X145.346 Y184.673 E22.87695
G1 X145.165 Y184.256 E22.89976
G1 X145.022 Y183.828 E22.92241
G1 X142.043 Y173.171 E23.47774
G1 X142.018 Y159.938 E24.14185
G1 X141.99 Y159.302 E24.1738
G1 X141.853 Y158.426 E24.2183
G1 X141.603 Y157.574 E24.26286
G1 X141.243 Y156.761 E24.30748
G1 X140.79 Y156.017 E24.35119
G1 X140.428 Y155.546 E24.381
G1 X140.016 Y155.096 E24.41162
G1 X139.361 Y154.524 E24.45526
G1 X138.874 Y154.183 E24.4851
G1 X119.032 Y142.719 E25.63514
G1 X118.81 Y142.496 E25.65093
G1 X118.649 Y142.217 E25.6671
G1 X118.581 Y142.007 E25.67818
G1 X118.568 Y122.829 E26.64065
G1 X118.649 Y122.525 E26.65644
G1 X118.81 Y122.247 E26.67256
G1 X118.99 Y122.067 E26.68534
G1 X119.225 Y122.312 F7800
G1 F1800
G1 X135.713 Y112.792 E27.64083
G1 X135.886 Y112.746 E27.64981
G1 X136.203 Y112.751 E27.66572
G1 X136.334 Y112.791 E27.67259
G1 X152.825 Y122.312 E28.62824
G1 X152.953 Y122.439 E28.63729
G1 X153.091 Y122.678 E28.65114
G1 X153.137 Y122.852 E28.66017
G1 X153.137 Y135.543 E29.29708
G1 X153.166 Y135.981 E29.31911
G1 X153.248 Y136.392 E29.34014
G1 X153.327 Y136.645 E29.35344
G1 X153.429 Y136.889 E29.36671
G1 X153.635 Y137.265 E29.38823
G1 X153.782 Y137.475 E29.40109
G1 X154.064 Y137.796 E29.42253
G1 X154.254 Y137.97 E29.43546
G1 X154.59 Y138.216 E29.45636
G1 X154.95 Y138.414 E29.47698
G1 X155.332 Y138.562 E29.49754
G1 X155.73 Y138.66 E29.51811
G1 X156.15 Y138.706 E29.53931
G1 X176.236 Y138.709 E30.54734
G1 X176.88 Y138.754 E30.57974
G1 X177.271 Y138.823 E30.59967
G1 X177.669 Y138.929 E30.62034
G1 X178.311 Y139.18 E30.65493
G1 X178.855 Y139.482 E30.68616
G1 X179.203 Y139.729 E30.70758
G1 X179.527 Y140.003 E30.72888
G1 X179.815 Y140.292 E30.74936
G1 X180.07 Y140.595 E30.76923
G1 X180.445 Y141.157 E30.80314
G1 X180.634 Y141.523 E30.82381
G1 X180.796 Y141.915 E30.8451
G1 X180.919 Y142.305 E30.86562
G1 X181.009 Y142.702 E30.88605
G1 X181.066 Y143.124 E30.90742
G1 X181.087 Y143.564 E30.92953
G1 X181.087 Y146.787 E31.09128
G1 X180.996 Y147.02 E31.10383
G1 X180.673 Y147.343 E31.12675
G1 X180.44 Y147.434 E31.1393
G1 X151.087 Y147.434 E32.61241
G1 X151.087 Y171.836 E33.83705
G1 X154.885 Y185.426 E34.54521
G1 X154.85 Y185.673 E34.55773
G1 X154.638 Y186.048 E34.57935
G1 X154.471 Y186.193 E34.59045
G1 X151.328 Y187.077 E34.7543
G1 X150.945 Y187.167 E34.77404
G1 X150.494 Y187.232 E34.79691
G1 X150.041 Y187.254 E34.81967
G1 X149.483 Y187.224 E34.84771
G1 X149.049 Y187.155 E34.86976
G1 X148.637 Y187.052 E34.89107
G1 X148.236 Y186.913 E34.91237
G1 X147.849 Y186.74 E34.93364
G1 X147.478 Y186.533 E34.95496
G1 X147.115 Y186.286 E34.97699
G1 X146.774 Y186.007 E34.9991
G1 X146.461 Y185.698 E35.02117
G1 X146.178 Y185.363 E35.04318
G1 X145.862 Y184.901 E35.07127
G1 X145.653 Y184.516 E35.09325
G1 X145.484 Y184.126 E35.11458
G1 X145.351 Y183.723 E35.13588
G1 X142.382 Y173.101 E35.68939
G1 X142.363 Y159.93 E36.35039
G1 X142.334 Y159.28 E36.38304
G1 X142.302 Y158.987 E36.39783
G1 X142.191 Y158.357 E36.42993
G1 X142.121 Y158.071 E36.44471
G1 X141.929 Y157.461 E36.4768
G1 X141.822 Y157.186 E36.49161
G1 X141.552 Y156.607 E36.52367
G1 X141.41 Y156.349 E36.53845
G1 X141.071 Y155.818 E36.57007
G1 X140.692 Y155.324 E36.60132
G1 X140.265 Y154.858 E36.63304
G1 X140.054 Y154.655 E36.64773
G1 X139.57 Y154.249 E36.67943
G1 X139.06 Y153.892 E36.71067
G1 X119.224 Y142.431 E37.86038
G1 X119.097 Y142.304 E37.86939
G1 X118.958 Y142.063 E37.88335
G1 X118.919 Y141.933 E37.89016
G1 X118.913 Y122.852 E38.84776
G1 X118.959 Y122.678 E38.85679
G1 X119.097 Y122.439 E38.87064
G1 X119.182 Y122.354 E38.87667
G1 X119.417 Y122.599 F7800
G1 F1800
G1 X135.866 Y113.102 E39.82989
G1 X136.184 Y113.102 E39.84585
G1 X152.665 Y122.631 E40.80126
G1 X152.792 Y122.875 E40.81506
G1 X152.792 Y135.555 E41.45142
G1 X152.823 Y136.026 E41.47511
G1 X152.913 Y136.478 E41.49824
G1 X153.003 Y136.763 E41.51324
G1 X153.117 Y137.038 E41.52818
G1 X153.342 Y137.447 E41.55161
G1 X153.511 Y137.689 E41.56642
G1 X153.817 Y138.038 E41.58971
G1 X154.035 Y138.237 E41.60452
G1 X154.404 Y138.508 E41.6275
G1 X154.804 Y138.727 E41.65039
G1 X155.228 Y138.892 E41.67322
G1 X155.67 Y139 E41.69605
G1 X156.131 Y139.051 E41.71933
G1 X176.231 Y139.054 E42.72807
G1 X176.829 Y139.095 E42.75815
G1 X177.203 Y139.162 E42.77722
G1 X177.571 Y139.259 E42.79632
G1 X178.155 Y139.487 E42.82778
G1 X178.664 Y139.769 E42.85698
G1 X178.987 Y139.997 E42.87682
G1 X179.288 Y140.251 E42.89659
G1 X179.556 Y140.52 E42.91565
G1 X179.8 Y140.81 E42.93467
G1 X180.144 Y141.324 E42.96571
G1 X180.319 Y141.662 E42.98481
G1 X180.47 Y142.026 E43.00459
G1 X180.584 Y142.388 E43.02364
G1 X180.671 Y142.771 E43.04335
G1 X180.724 Y143.163 E43.0632
G1 X180.742 Y143.568 E43.08355
G1 X180.742 Y146.749 E43.24319
G1 X180.716 Y146.812 E43.24661
G1 X180.466 Y147.063 E43.26439
G1 X180.402 Y147.089 E43.26786
G1 X150.742 Y147.089 E44.75637
G1 X150.742 Y171.883 E46.00068
G1 X154.539 Y185.469 E46.70863
G1 X154.53 Y185.537 E46.71207
G1 X154.357 Y185.846 E46.72984
G1 X154.303 Y185.888 E46.73327
G1 X151.239 Y186.744 E46.89293
G1 X150.874 Y186.83 E46.91175
G1 X150.453 Y186.89 E46.93309
G1 X150.051 Y186.909 E46.95329
G1 X149.511 Y186.88 E46.98043
G1 X149.111 Y186.816 E47.00076
G1 X148.729 Y186.719 E47.02054
G1 X148.357 Y186.59 E47.0403
G1 X147.998 Y186.428 E47.06007
G1 X147.654 Y186.236 E47.07984
G1 X147.316 Y186.005 E47.10039
G1 X147 Y185.745 E47.12093
G1 X146.719 Y185.469 E47.1407
G1 X146.458 Y185.161 E47.16096
G1 X146.152 Y184.713 E47.18819
G1 X145.96 Y184.359 E47.2084
G1 X145.804 Y183.997 E47.22818
G1 X145.68 Y183.619 E47.24814
G1 X142.72 Y173.03 E47.79993
G1 X142.708 Y159.922 E48.45777
G1 X142.678 Y159.253 E48.49138
G1 X142.644 Y158.938 E48.50728
G1 X142.529 Y158.286 E48.54051
G1 X142.453 Y157.978 E48.55643
G1 X142.254 Y157.347 E48.58963
G1 X142.139 Y157.051 E48.60557
G1 X141.859 Y156.451 E48.6388
G1 X141.707 Y156.173 E48.6547
G1 X141.354 Y155.62 E48.68763
G1 X140.957 Y155.102 E48.72038
G1 X140.512 Y154.616 E48.75345
G1 X140.284 Y154.398 E48.76928
G1 X139.78 Y153.975 E48.8023
G1 X139.245 Y153.601 E48.83506
G1 X119.417 Y142.144 E49.98432
G1 X119.269 Y141.912 E49.99813
G1 X119.258 Y122.875 E50.95352
G1 X119.377 Y122.644 E50.96656
G1 X119.649 Y122.863 F7800
G1 F1800
G1 X135.979 Y113.435 E51.91288
G1 X136.071 Y113.435 E51.9175
G1 X152.401 Y122.863 E52.86382
G1 X152.447 Y122.943 E52.86845
G1 X152.447 Y135.566 E53.50195
G1 X152.481 Y136.071 E53.52735
G1 X152.579 Y136.564 E53.55258
G1 X152.679 Y136.881 E53.56926
G1 X152.806 Y137.188 E53.58593
G1 X153.048 Y137.63 E53.61122
G1 X153.239 Y137.902 E53.6279
G1 X153.57 Y138.279 E53.65308
G1 X153.816 Y138.504 E53.66981
G1 X154.219 Y138.799 E53.69487
G1 X154.658 Y139.04 E53.72
G1 X155.124 Y139.222 E53.74511
G1 X155.61 Y139.341 E53.77022
G1 X156.112 Y139.395 E53.79556
G1 X176.225 Y139.399 E54.80495
G1 X176.778 Y139.436 E54.83276
G1 X177.135 Y139.5 E54.85096
G1 X177.472 Y139.59 E54.86847
G1 X177.998 Y139.795 E54.8968
G1 X178.473 Y140.057 E54.92402
G1 X178.771 Y140.266 E54.94229
G1 X179.049 Y140.5 E54.96053
G1 X179.306 Y140.758 E54.97881
G1 X179.53 Y141.024 E54.99626
G1 X179.842 Y141.492 E55.02449
G1 X180.003 Y141.802 E55.04202
G1 X180.143 Y142.138 E55.06029
G1 X180.253 Y142.485 E55.07856
G1 X180.332 Y142.838 E55.09671
G1 X180.381 Y143.201 E55.11509
G1 X180.397 Y143.572 E55.13373
G1 X180.397 Y146.643 E55.28785
G1 X180.296 Y146.744 E55.29502
G1 X150.397 Y146.744 E56.79553
G1 X150.397 Y171.93 E58.05951
G1 X154.178 Y185.46 E58.76454
G1 X154.108 Y185.584 E58.77169
G1 X151.15 Y186.411 E58.92583
G1 X150.803 Y186.492 E58.94371
G1 X150.428 Y186.546 E58.96272
G1 X150.06 Y186.565 E58.98121
G1 X149.539 Y186.536 E59.0074
G1 X149.175 Y186.477 E59.02591
G1 X148.822 Y186.387 E59.04419
G1 X148.478 Y186.267 E59.06247
G1 X148.147 Y186.117 E59.08071
G1 X147.829 Y185.939 E59.099
G1 X147.528 Y185.734 E59.11728
G1 X147.236 Y185.494 E59.13625
G1 X146.976 Y185.239 E59.15453
G1 X146.737 Y184.958 E59.17304
G1 X146.442 Y184.527 E59.19925
G1 X146.268 Y184.203 E59.21771
G1 X146.124 Y183.868 E59.23601
G1 X146.008 Y183.515 E59.25466
G1 X143.059 Y172.96 E59.80466
G1 X143.053 Y159.915 E60.45934
G1 X143.023 Y159.227 E60.4939
G1 X142.985 Y158.889 E60.51097
G1 X142.867 Y158.215 E60.54531
G1 X142.786 Y157.885 E60.56236
G1 X142.58 Y157.232 E60.59672
G1 X142.456 Y156.915 E60.6138
G1 X142.167 Y156.295 E60.64813
G1 X142.003 Y155.997 E60.6652
G1 X141.637 Y155.422 E60.69941
G1 X141.221 Y154.88 E60.7337
G1 X140.759 Y154.375 E60.76805
G1 X140.515 Y154.141 E60.78502
G1 X139.99 Y153.701 E60.8194
G1 X139.431 Y153.31 E60.85364
G1 X119.649 Y141.88 E62.00022
G1 X119.603 Y141.8 E62.00485
G1 X119.603 Y122.943 E62.95121
G1 X119.619 Y122.915 E62.95283
G1 E60.95283 F2400
G92 E0
G1 X149.648 Y145.874 F7800
G1 E2 F2400
;TYPE:Perimeter
;WIDTH:0.42
G1 F1800
G1 X149.589 Y145.913 E2.00355
G1 X149.39 Y146.206 E2.02133
G1 X149.325 Y146.534 E2.03811
G1 X149.325 Y171.959 E3.31409
G1 X149.357 Y172.191 E3.32584
G1 X152.884 Y184.813 E3.98355
G1 X150.898 Y185.368 E4.08704
G1 X150.339 Y185.473 E4.11558
G1 X149.646 Y185.465 E4.15036
G1 X149.127 Y185.356 E4.17697
G1 X148.626 Y185.155 E4.20406
G1 X148.168 Y184.869 E4.23116
G1 X147.773 Y184.515 E4.25778
G1 X147.51 Y184.165 E4.27975
G1 X147.247 Y183.731 E4.30522
G1 X147.036 Y183.208 E4.33352
G1 X144.125 Y172.79 E4.87638
G1 X144.125 Y159.91 E5.52277
G1 X144.084 Y159.08 E5.56448
G1 X143.9 Y157.931 E5.62288
G1 X143.567 Y156.815 E5.68133
G1 X143.092 Y155.753 E5.73972
G1 X142.546 Y154.854 E5.79251
G1 X142.018 Y154.162 E5.83619
G1 X141.477 Y153.58 E5.87607
G1 X140.687 Y152.886 E5.92884
G1 X139.975 Y152.386 E5.9725
G1 X120.675 Y141.234 E7.09116
G1 X120.675 Y123.509 E7.9807
G1 X136.025 Y114.647 E8.87022
G1 X151.375 Y123.509 E9.75974
G1 X151.377 Y135.629 E10.36799
G1 X151.426 Y136.267 E10.4001
G1 X151.565 Y136.911 E10.43316
G1 X151.86 Y137.694 E10.47515
G1 X152.197 Y138.281 E10.50912
G1 X152.88 Y139.099 E10.5626
G1 X153.691 Y139.733 E10.61426
G1 X154.257 Y140.035 E10.64646
G1 X154.856 Y140.26 E10.67857
G1 X155.48 Y140.405 E10.71072
G1 X156.1 Y140.468 E10.742
G1 X176.11 Y140.471 E11.74622
G1 X176.621 Y140.499 E11.7719
G1 X177.165 Y140.62 E11.79987
G1 X177.71 Y140.86 E11.82976
G1 X178.143 Y141.154 E11.85603
G1 X178.56 Y141.553 E11.88499
G1 X178.903 Y142.015 E11.91387
G1 X179.135 Y142.512 E11.9414
G1 X179.275 Y143.032 E11.96843
G1 X179.325 Y143.697 E12.0019
G1 X179.325 Y145.672 E12.10102
G1 X150.187 Y145.672 E13.56334
G1 X149.855 Y145.738 E13.58033
G1 X149.698 Y145.842 E13.58978
G1 X149.857 Y146.154 F7800
G1 F1800
G1 X149.74 Y146.274 E13.59819
G1 X149.67 Y146.534 E13.6117
G1 X149.67 Y171.959 E14.88768
G1 X149.689 Y172.098 E14.89472
G1 X153.309 Y185.052 E15.56973
