; generated by PrusaSlicer 2.6.0 on 2023-06-22 at 20:30:08 UTC

; 

; external perimeters extrusion width = 0.45mm
; perimeters extrusion width = 0.45mm
; infill extrusion width = 0.45mm
; solid infill extrusion width = 0.45mm
; top infill extrusion width = 0.40mm
; first layer extrusion width = 0.42mm

M104 S220 ; set temperature
;TYPE:Custom
G28 ;Home
G1 Z15.0 F2000 ;Move the platform
M106 S255
M109 S220 ; set temperature and wait for it to be reached
G21 ; set units to millimeters
G90 ; use absolute coordinates
M82 ; use absolute distances for extrusion
G92 E0
; Filament gcode
M107
;LAYER_CHANGE
;Z:0.35
;HEIGHT:0.35
G1 Z.35 F7800
G1 E-2 F2400
G92 E0
G1 X119.98 Y139.52 F7800
G1 E2 F2400
;TYPE:Skirt/Brim
;WIDTH:0.42
G1 F1800
G1 X120.601 Y139.016 E2.04014
G1 X121.005 Y138.76 E2.06414
G1 X121.417 Y138.545 E2.08746
G1 X122.119 Y138.272 E2.12526
G1 X122.58 Y138.15 E2.14919
G1 X123.036 Y138.069 E2.17243
G1 X123.752 Y138.02 E2.20845
G1 X143.813 Y138.016 E3.21523
G1 X144.15 Y137.979 E3.23224
G1 X144.46 Y137.903 E3.24826
G1 X144.758 Y137.787 E3.26431
G1 X145.04 Y137.632 E3.28046
G1 X145.308 Y137.436 E3.29712
G1 X145.455 Y137.301 E3.30714
G1 X145.588 Y137.156 E3.31701
G1 X145.8 Y136.867 E3.335
G1 X146.031 Y136.39 E3.3616
G1 X146.149 Y135.894 E3.38719
G1 X146.173 Y135.521 E3.40595
G1 X146.173 Y122.806 E4.04406
G1 X146.273 Y122.412 E4.06446
G1 X146.473 Y122.054 E4.08504
G1 X146.791 Y121.737 E4.10757
G1 X163.358 Y112.172 E5.06762
G1 X163.754 Y112.061 E5.08826
G1 X164.214 Y112.062 E5.11135
G1 X164.595 Y112.174 E5.13128
G1 X181.159 Y121.737 E6.09115
G1 X181.477 Y122.054 E6.11368
G1 X181.677 Y122.412 E6.13426
G1 X181.777 Y122.806 E6.15466
G1 X181.755 Y142.086 E7.12225
G1 X181.66 Y142.372 E7.13737
G1 X181.478 Y142.688 E7.15567
G1 X181.16 Y143.006 E7.17824
G1 X161.312 Y154.474 E8.32865
G1 X160.852 Y154.796 E8.35683
G1 X160.225 Y155.344 E8.39862
G1 X159.837 Y155.767 E8.42743
G1 X159.487 Y156.224 E8.45632
G1 X159.05 Y156.947 E8.49872
G1 X158.712 Y157.72 E8.54106
G1 X158.478 Y158.53 E8.58337
G1 X158.353 Y159.351 E8.62505
G1 X158.327 Y159.946 E8.65494
G1 X158.295 Y173.241 E9.32216
G1 X155.309 Y183.925 E9.87889
G1 X155.16 Y184.372 E9.90254
G1 X154.961 Y184.83 E9.9276
G1 X154.729 Y185.257 E9.95199
G1 X154.447 Y185.679 E9.97746
G1 X154.07 Y186.139 E10.00731
G1 X153.712 Y186.497 E10.03272
G1 X153.312 Y186.828 E10.05878
G1 X152.871 Y187.128 E10.08555
G1 X152.446 Y187.363 E10.10992
G1 X152.004 Y187.56 E10.13421
G1 X151.546 Y187.717 E10.15851
G1 X151.074 Y187.834 E10.18291
G1 X150.574 Y187.911 E10.2083
G1 X149.979 Y187.944 E10.23821
G1 X149.44 Y187.919 E10.26529
G1 X148.913 Y187.842 E10.29202
G1 X148.493 Y187.744 E10.31366
G1 X145.336 Y186.861 E10.47818
G1 X145.183 Y186.791 E10.48662
G1 X144.79 Y186.439 E10.5131
G1 X144.52 Y185.959 E10.54074
G1 X144.423 Y185.441 E10.56719
G1 X144.442 Y185.274 E10.57563
G1 X148.223 Y171.741 E11.28081
G1 X148.223 Y148.124 E12.46605
G1 X119.441 Y148.116 E13.9105
G1 X119.26 Y148.069 E13.91988
G1 X118.872 Y147.864 E13.9419
G1 X118.446 Y147.427 E13.97253
G1 X118.352 Y147.268 E13.9818
G1 X118.243 Y146.962 E13.9981
G1 X118.227 Y143.367 E14.17852
G1 X118.265 Y142.888 E14.20263
G1 X118.347 Y142.403 E14.22732
G1 X118.568 Y141.643 E14.26704
G1 X118.74 Y141.232 E14.2894
G1 X118.947 Y140.831 E14.31205
G1 X119.203 Y140.422 E14.33627
G1 X119.499 Y140.03 E14.36092
G1 X119.939 Y139.563 E14.39312
G1 X120.189 Y139.8 F7800
G1 F1800
G1 X120.81 Y139.291 E14.43342
G1 X121.172 Y139.062 E14.45492
G1 X121.551 Y138.863 E14.4764
G1 X122.234 Y138.597 E14.51318
G1 X122.648 Y138.488 E14.53467
G1 X123.07 Y138.412 E14.55619
G1 X123.758 Y138.364 E14.5908
G1 X143.832 Y138.361 E15.59823
G1 X144.21 Y138.319 E15.61732
G1 X144.564 Y138.233 E15.6356
G1 X144.904 Y138.101 E15.6539
G1 X145.226 Y137.924 E15.67234
G1 X145.527 Y137.703 E15.69108
G1 X145.699 Y137.545 E15.7028
G1 X145.855 Y137.375 E15.71438
G1 X146.086 Y137.061 E15.73394
G1 X146.195 Y136.871 E15.74493
G1 X146.352 Y136.514 E15.7645
G1 X146.418 Y136.307 E15.7754
G1 X146.491 Y135.936 E15.79438
G1 X146.518 Y135.532 E15.8147
G1 X146.518 Y122.829 E16.45221
G1 X146.599 Y122.525 E16.468
G1 X146.76 Y122.247 E16.48412
G1 X146.983 Y122.024 E16.49995
G1 X163.51 Y112.482 E17.45769
G1 X163.817 Y112.401 E17.47362
G1 X164.184 Y112.407 E17.49204
G1 X164.44 Y112.482 E17.50543
G1 X180.967 Y122.024 E18.46317
G1 X181.19 Y122.247 E18.479
G1 X181.351 Y122.525 E18.49512
G1 X181.432 Y122.829 E18.51091
G1 X181.419 Y142.007 E19.47338
G1 X181.351 Y142.217 E19.48446
G1 X181.19 Y142.496 E19.50063
G1 X180.968 Y142.719 E19.51642
G1 X161.126 Y154.183 E20.66646
G1 X160.639 Y154.524 E20.6963
G1 X159.984 Y155.096 E20.73994
G1 X159.572 Y155.546 E20.77056
G1 X159.201 Y156.029 E20.80113
G1 X158.743 Y156.788 E20.84562
G1 X158.387 Y157.602 E20.89021
G1 X158.14 Y158.456 E20.93483
G1 X158.009 Y159.317 E20.97854
G1 X157.982 Y159.938 E21.00973
G1 X157.957 Y173.171 E21.67384
G1 X154.978 Y183.828 E22.22917
G1 X154.835 Y184.256 E22.25182
G1 X154.654 Y184.673 E22.27463
G1 X154.437 Y185.073 E22.29747
G1 X154.175 Y185.467 E22.32122
G1 X153.809 Y185.913 E22.35017
G1 X153.474 Y186.246 E22.37388
G1 X153.099 Y186.557 E22.39833
G1 X152.696 Y186.831 E22.42279
G1 X152.299 Y187.051 E22.44557
G1 X151.884 Y187.236 E22.46837
G1 X151.455 Y187.384 E22.49114
G1 X151.013 Y187.495 E22.51401
G1 X150.547 Y187.567 E22.53767
G1 X149.969 Y187.599 E22.56672
G1 X149.481 Y187.576 E22.59124
G1 X148.984 Y187.505 E22.61644
G1 X148.582 Y187.411 E22.63716
G1 X145.444 Y186.534 E22.80068
G1 X145.353 Y186.49 E22.80575
G1 X145.076 Y186.244 E22.82434
G1 X144.835 Y185.815 E22.84903
G1 X144.768 Y185.451 E22.8676
G1 X144.778 Y185.351 E22.87264
G1 X148.568 Y171.789 E23.57934
G1 X148.568 Y147.779 E24.7843
G1 X119.499 Y147.775 E26.24315
G1 X119.394 Y147.751 E26.24856
G1 X119.096 Y147.6 E26.26533
G1 X118.728 Y147.227 E26.29163
G1 X118.67 Y147.133 E26.29717
G1 X118.578 Y146.874 E26.31096
G1 X118.572 Y143.373 E26.48666
G1 X118.608 Y142.924 E26.50927
G1 X118.686 Y142.47 E26.53239
G1 X118.89 Y141.767 E26.56913
G1 X119.056 Y141.372 E26.59063
G1 X119.25 Y140.996 E26.61186
G1 X119.491 Y140.612 E26.63461
G1 X119.768 Y140.246 E26.65765
G1 X120.148 Y139.844 E26.68541
G1 X120.398 Y140.081 F7800
G1 F1800
G1 X121.003 Y139.577 E26.72493
G1 X121.338 Y139.364 E26.74485
G1 X121.703 Y139.173 E26.76552
G1 X122.332 Y138.928 E26.7994
G1 X122.716 Y138.826 E26.81934
G1 X123.122 Y138.753 E26.84004
G1 X123.764 Y138.709 E26.87233
G1 X143.85 Y138.706 E27.88036
G1 X144.27 Y138.66 E27.90156
G1 X144.668 Y138.562 E27.92213
G1 X145.05 Y138.414 E27.94269
G1 X145.411 Y138.215 E27.96338
G1 X145.746 Y137.97 E27.98421
G1 X145.943 Y137.79 E27.9976
G1 X146.122 Y137.594 E28.01092
G1 X146.375 Y137.25 E28.03235
G1 X146.503 Y137.027 E28.04525
G1 X146.675 Y136.636 E28.06669
G1 X146.752 Y136.392 E28.07953
G1 X146.834 Y135.981 E28.10056
G1 X146.863 Y135.543 E28.12259
G1 X146.863 Y122.852 E28.7595
G1 X146.909 Y122.678 E28.76853
G1 X147.047 Y122.439 E28.78238
G1 X147.175 Y122.312 E28.79143
G1 X163.663 Y112.792 E29.74692
G1 X163.836 Y112.746 E29.7559
G1 X164.153 Y112.751 E29.77181
G1 X164.284 Y112.791 E29.77868
G1 X180.775 Y122.312 E30.73433
G1 X180.903 Y122.439 E30.74338
G1 X181.041 Y122.678 E30.75723
G1 X181.087 Y122.852 E30.76626
G1 X181.081 Y141.933 E31.72386
G1 X181.042 Y142.063 E31.73067
G1 X180.903 Y142.304 E31.74463
G1 X180.776 Y142.431 E31.75364
G1 X160.94 Y153.892 E32.90335
G1 X160.43 Y154.249 E32.93459
G1 X159.95 Y154.652 E32.96604
G1 X159.735 Y154.858 E32.98098
G1 X159.308 Y155.324 E33.0127
G1 X158.923 Y155.825 E33.04441
G1 X158.759 Y156.07 E33.05921
G1 X158.44 Y156.624 E33.09129
G1 X158.309 Y156.888 E33.10608
G1 X158.065 Y157.479 E33.13817
G1 X157.97 Y157.758 E33.15296
G1 X157.805 Y158.375 E33.18501
G1 X157.747 Y158.665 E33.19985
G1 X157.665 Y159.289 E33.23144
G1 X157.637 Y159.93 E33.26364
G1 X157.618 Y173.101 E33.92464
G1 X154.649 Y183.723 E34.47815
G1 X154.516 Y184.126 E34.49945
G1 X154.347 Y184.515 E34.52074
G1 X154.145 Y184.889 E34.54207
G1 X153.903 Y185.255 E34.56409
G1 X153.548 Y185.688 E34.59219
G1 X153.237 Y185.996 E34.61416
G1 X152.898 Y186.277 E34.63626
G1 X152.522 Y186.533 E34.65909
G1 X152.151 Y186.74 E34.68041
G1 X151.764 Y186.913 E34.70168
G1 X151.363 Y187.052 E34.72298
G1 X150.951 Y187.155 E34.74429
G1 X150.519 Y187.224 E34.76625
G1 X149.959 Y187.254 E34.79439
G1 X149.506 Y187.232 E34.81715
G1 X149.055 Y187.167 E34.84002
G1 X148.672 Y187.077 E34.85976
G1 X145.555 Y186.206 E35.02218
G1 X145.362 Y186.048 E35.0347
G1 X145.15 Y185.673 E35.05632
G1 X145.113 Y185.455 E35.06742
G1 X148.913 Y171.836 E35.77701
G1 X148.913 Y147.434 E37.00165
G1 X119.517 Y147.428 E38.47692
G1 X119.317 Y147.333 E38.48803
G1 X119.003 Y147.019 E38.51032
G1 X118.913 Y146.786 E38.52286
G1 X118.917 Y143.381 E38.69374
G1 X118.952 Y142.96 E38.71494
G1 X119.024 Y142.538 E38.73642
G1 X119.213 Y141.891 E38.77025
G1 X119.365 Y141.524 E38.79019
G1 X119.553 Y141.161 E38.81071
G1 X119.779 Y140.802 E38.832
G1 X120.037 Y140.463 E38.85338
G1 X120.357 Y140.124 E38.87678
G1 X120.607 Y140.362 F7800
G1 F1800
G1 X120.707 Y140.257 E38.88406
G1 X121.196 Y139.863 E38.91558
G1 X121.517 Y139.659 E38.93467
G1 X121.854 Y139.483 E38.95375
G1 X122.43 Y139.259 E38.98477
G1 X122.798 Y139.161 E39.00388
G1 X123.173 Y139.095 E39.02299
G1 X123.769 Y139.054 E39.05297
G1 X143.869 Y139.051 E40.06171
G1 X144.33 Y139 E40.08499
G1 X144.772 Y138.892 E40.10782
G1 X145.196 Y138.727 E40.13065
G1 X145.597 Y138.507 E40.1536
G1 X145.965 Y138.237 E40.17651
G1 X146.187 Y138.034 E40.19161
G1 X146.389 Y137.813 E40.20664
G1 X146.664 Y137.438 E40.22998
G1 X146.812 Y137.183 E40.24478
G1 X146.999 Y136.757 E40.26813
G1 X147.087 Y136.478 E40.28281
G1 X147.177 Y136.026 E40.30594
G1 X147.208 Y135.555 E40.32963
G1 X147.208 Y122.875 E40.96599
G1 X147.335 Y122.631 E40.97979
G1 X163.816 Y113.102 E41.9352
G1 X164.134 Y113.102 E41.95116
G1 X180.583 Y122.599 E42.90438
G1 X180.731 Y122.831 E42.91819
G1 X180.731 Y141.912 E43.87579
G1 X180.583 Y142.144 E43.8896
G1 X160.755 Y153.601 E45.03886
G1 X160.22 Y153.975 E45.07162
G1 X159.72 Y154.395 E45.10439
G1 X159.488 Y154.616 E45.12047
G1 X159.043 Y155.102 E45.15354
G1 X158.643 Y155.624 E45.18654
G1 X158.466 Y155.888 E45.20249
G1 X158.135 Y156.461 E45.2357
G1 X157.995 Y156.746 E45.25164
G1 X157.742 Y157.357 E45.28483
G1 X157.64 Y157.658 E45.30078
G1 X157.469 Y158.297 E45.33398
G1 X157.407 Y158.609 E45.34994
G1 X157.321 Y159.259 E45.38285
G1 X157.292 Y159.922 E45.41616
G1 X157.28 Y173.03 E46.074
G1 X154.321 Y183.619 E46.62578
G1 X154.196 Y183.997 E46.64576
G1 X154.04 Y184.359 E46.66554
G1 X153.853 Y184.706 E46.68532
G1 X153.631 Y185.043 E46.70557
G1 X153.287 Y185.462 E46.73278
G1 X153 Y185.745 E46.75301
G1 X152.685 Y186.005 E46.77351
G1 X152.346 Y186.236 E46.7941
G1 X152.002 Y186.428 E46.81387
G1 X151.643 Y186.59 E46.83364
G1 X151.271 Y186.719 E46.8534
G1 X150.889 Y186.816 E46.87318
G1 X150.491 Y186.88 E46.89341
G1 X149.949 Y186.909 E46.92065
G1 X149.547 Y186.89 E46.94085
G1 X149.126 Y186.83 E46.96219
G1 X148.761 Y186.744 E46.98101
G1 X145.697 Y185.888 E47.14067
G1 X145.643 Y185.846 E47.1441
G1 X145.47 Y185.537 E47.16187
G1 X145.461 Y185.469 E47.16531
G1 X149.258 Y171.883 E47.87326
G1 X149.258 Y147.089 E49.11757
G1 X119.598 Y147.089 E50.60608
G1 X119.534 Y147.063 E50.60955
G1 X119.284 Y146.812 E50.62733
G1 X119.257 Y146.748 E50.63082
G1 X119.261 Y143.389 E50.79939
G1 X119.295 Y142.997 E50.81914
G1 X119.362 Y142.607 E50.839
G1 X119.535 Y142.014 E50.87
G1 X119.681 Y141.663 E50.88908
G1 X119.855 Y141.326 E50.90811
G1 X120.066 Y140.993 E50.92789
G1 X120.305 Y140.679 E50.94769
G1 X120.566 Y140.405 E50.96668
G1 X120.815 Y140.643 F7800
G1 F1800
G1 X120.948 Y140.503 E50.97637
G1 X121.389 Y140.149 E51.00475
G1 X121.695 Y139.955 E51.02293
G1 X122.005 Y139.793 E51.04048
G1 X122.528 Y139.59 E51.06864
G1 X122.879 Y139.497 E51.08686
G1 X123.223 Y139.436 E51.10439
G1 X123.775 Y139.399 E51.13215
G1 X143.888 Y139.395 E52.14154
G1 X144.39 Y139.341 E52.16688
G1 X144.876 Y139.222 E52.19199
G1 X145.342 Y139.04 E52.2171
G1 X145.783 Y138.798 E52.24235
G1 X146.184 Y138.504 E52.2673
G1 X146.431 Y138.278 E52.2841
G1 X146.656 Y138.032 E52.30083
G1 X146.954 Y137.627 E52.32606
G1 X147.12 Y137.339 E52.34274
G1 X147.322 Y136.879 E52.36795
G1 X147.421 Y136.564 E52.38452
G1 X147.519 Y136.071 E52.40975
G1 X147.553 Y135.566 E52.43515
G1 X147.553 Y122.943 E53.06865
G1 X147.599 Y122.863 E53.07328
G1 X163.929 Y113.435 E54.0196
G1 X164.021 Y113.435 E54.02422
G1 X164.377 Y113.641 E54.04486
G1 X180.351 Y122.863 E54.97053
G1 X180.397 Y122.943 E54.97516
G1 X180.397 Y141.8 E55.92152
G1 X180.351 Y141.88 E55.92615
G1 X160.569 Y153.31 E57.07273
G1 X160.01 Y153.701 E57.10697
G1 X159.49 Y154.138 E57.14106
G1 X159.241 Y154.375 E57.15831
G1 X158.779 Y154.88 E57.19266
G1 X158.362 Y155.423 E57.22702
G1 X158.173 Y155.706 E57.2441
G1 X157.831 Y156.299 E57.27845
G1 X157.681 Y156.604 E57.29551
G1 X157.419 Y157.236 E57.32984
G1 X157.31 Y157.558 E57.3469
G1 X157.133 Y158.219 E57.38124
G1 X157.066 Y158.552 E57.39829
G1 X156.977 Y159.229 E57.43256
G1 X156.947 Y159.915 E57.46702
G1 X156.941 Y172.96 E58.1217
G1 X153.992 Y183.515 E58.6717
G1 X153.876 Y183.868 E58.69035
G1 X153.732 Y184.203 E58.70865
G1 X153.56 Y184.523 E58.72688
G1 X153.358 Y184.832 E58.74541
G1 X153.026 Y185.236 E58.77165
G1 X152.764 Y185.494 E58.7901
G1 X152.483 Y185.725 E58.80836
G1 X152.171 Y185.939 E58.82735
G1 X151.853 Y186.117 E58.84564
G1 X151.522 Y186.267 E58.86388
G1 X151.178 Y186.387 E58.88216
G1 X150.826 Y186.477 E58.90039
G1 X150.462 Y186.536 E58.9189
G1 X149.94 Y186.565 E58.94514
G1 X149.572 Y186.546 E58.96363
G1 X149.197 Y186.492 E58.98264
G1 X148.85 Y186.411 E59.00052
G1 X145.892 Y185.584 E59.15466
G1 X145.822 Y185.46 E59.16181
G1 X149.603 Y171.93 E59.86684
G1 X149.603 Y146.744 E61.13082
G1 X119.704 Y146.744 E62.63133
G1 X119.602 Y146.643 E62.63853
G1 X119.606 Y143.397 E62.80143
G1 X119.637 Y143.034 E62.81971
G1 X119.7 Y142.676 E62.83795
G1 X119.857 Y142.138 E62.86608
G1 X119.991 Y141.815 E62.88363
G1 X120.158 Y141.492 E62.90188
G1 X120.353 Y141.184 E62.92017
G1 X120.573 Y140.896 E62.93836
G1 X120.774 Y140.686 E62.95295
G1 E60.95295 F2400
G92 E0
G1 X150.65 Y146.376 F7800
G1 E2 F2400
;TYPE:Perimeter
;WIDTH:0.42
G1 F1800
G1 X150.594 Y146.169 E2.01076
G1 X150.402 Y145.905 E2.02714
G1 X150.168 Y145.748 E2.04128
G1 X149.813 Y145.672 E2.0595
G1 X120.676 Y145.672 E3.52177
G1 X120.678 Y143.591 E3.62621
G1 X120.696 Y143.322 E3.63974
G1 X120.811 Y142.692 E3.67188
G1 X121.003 Y142.215 E3.69769
G1 X121.297 Y141.731 E3.72611
G1 X121.682 Y141.287 E3.7556
G1 X122.159 Y140.942 E3.78514
G1 X122.655 Y140.69 E3.81306
G1 X123.186 Y140.542 E3.84072
G1 X123.805 Y140.471 E3.87199
G1 X143.9 Y140.468 E4.88047
G1 X144.631 Y140.385 E4.91739
G1 X145.252 Y140.226 E4.94956
G1 X145.846 Y139.987 E4.98169
G1 X146.406 Y139.671 E5.01396
G1 X146.827 Y139.362 E5.04017
G1 X147.514 Y138.675 E5.08893
G1 X147.903 Y138.123 E5.12282
G1 X148.292 Y137.335 E5.16692
G1 X148.377 Y137.074 E5.1807
G1 X148.588 Y136.155 E5.22802
G1 X148.625 Y135.573 E5.25729
G1 X148.625 Y123.509 E5.86273
G1 X163.975 Y114.647 E6.75225
G1 X179.325 Y123.509 E7.64177
G1 X179.325 Y141.234 E8.53131
G1 X159.962 Y152.426 E9.65371
G1 X159.314 Y152.886 E9.69359
G1 X158.527 Y153.575 E9.74608
G1 X157.934 Y154.22 E9.79005
G1 X157.454 Y154.853 E9.82992
G1 X156.857 Y155.852 E9.88833
G1 X156.395 Y156.92 E9.94673
G1 X156.076 Y158.04 E10.00517
G1 X155.907 Y159.173 E10.06266
G1 X155.875 Y159.91 E10.09968
G1 X155.875 Y172.79 E10.74607
G1 X153 Y183.081 E11.28231
G1 X152.845 Y183.519 E11.30563
G1 X152.584 Y184.038 E11.33478
G1 X152.241 Y184.503 E11.36378
G1 X151.832 Y184.869 E11.39132
G1 X151.374 Y185.155 E11.41842
G1 X150.873 Y185.356 E11.44551
G1 X150.336 Y185.469 E11.47305
G1 X149.772 Y185.473 E11.50136
G1 X149.12 Y185.373 E11.53446
G1 X147.116 Y184.813 E11.63889
G1 X150.643 Y172.191 E12.2966
G1 X150.675 Y171.959 E12.30835
G1 X150.666 Y146.434 E13.58934
G1 X150.309 Y146.458 F7800
G1 F1800
G1 X150.26 Y146.274 E13.5989
G1 X150.074 Y146.087 E13.61214
G1 X149.813 Y146.017 E13.6257
G1 X120.331 Y146.017 E15.10528
G1 X120.333 Y143.59 E15.22708
G1 X120.388 Y143.022 E15.25572
G1 X120.537 Y142.399 E15.28787
