; generated by PrusaSlicer 2.6.0 on 2023-06-25 at 07:48:18 UTC

; 

; external perimeters extrusion width = 0.45mm
; perimeters extrusion width = 0.45mm
; infill extrusion width = 0.45mm
; solid infill extrusion width = 0.45mm
; top infill extrusion width = 0.40mm
; first layer extrusion width = 0.42mm

M104 S220 ; set temperature
;TYPE:Custom
G28 ;Home
G1 Z15.0 F2000 ;Move the platform
M106 S255
M109 S220 ; set temperature and wait for it to be reached
G21 ; set units to millimeters
G90 ; use absolute coordinates
M82 ; use absolute distances for extrusion
G92 E0
; Filament gcode
M107
;LAYER_CHANGE
;Z:0.35
;HEIGHT:0.35
G1 Z.35 F7800
G1 E-2 F2400
G92 E0
G1 X141.208 Y102.422 F7800
G1 E2 F2400
;TYPE:Skirt/Brim
;WIDTH:0.42
G1 F1800
G1 X141.588 Y102.043 E2.02693
G1 X141.807 Y101.902 E2.04
G1 X142.223 Y101.773 E2.06186
G1 X157.796 Y101.776 E2.84341
G1 X158.014 Y101.827 E2.85465
G1 X158.307 Y101.965 E2.8709
G1 X158.781 Y102.412 E2.9036
G1 X158.923 Y102.632 E2.91674
G1 X159.052 Y103.048 E2.9386
G1 X159.052 Y188.465 E7.22533
G1 X159.106 Y189.329 E7.26878
G1 X159.209 Y189.908 E7.29829
G1 X159.444 Y190.708 E7.34014
G1 X159.781 Y191.477 E7.38228
G1 X160.227 Y192.21 E7.42534
G1 X160.757 Y192.866 E7.46766
G1 X161.357 Y193.439 E7.5093
G1 X161.806 Y193.783 E7.53769
G1 X162.512 Y194.213 E7.57918
G1 X163.033 Y194.456 E7.60803
G1 X163.561 Y194.648 E7.63623
G1 X164.102 Y194.793 E7.66434
G1 X164.938 Y194.922 E7.70679
G1 X165.524 Y194.948 E7.73623
G1 X170.03 Y194.948 E7.96237
G1 X170.725 Y195.014 E7.99741
G1 X171.256 Y195.148 E8.02489
G1 X171.79 Y195.365 E8.05382
G1 X172.323 Y195.681 E8.08492
G1 X172.805 Y196.077 E8.11623
G1 X173.247 Y196.577 E8.14972
G1 X173.602 Y197.146 E8.18338
G1 X173.859 Y197.767 E8.21711
G1 X174.008 Y198.413 E8.25038
G1 X174.052 Y198.977 E8.27877
G1 X174.052 Y203.763 E8.51896
G1 X174.025 Y203.93 E8.52745
G1 X173.792 Y204.403 E8.55391
G1 X173.412 Y204.782 E8.58084
G1 X173.193 Y204.923 E8.59391
G1 X172.777 Y205.052 E8.61577
G1 X127.237 Y205.052 E10.90124
G1 X127.07 Y205.025 E10.90973
G1 X126.597 Y204.792 E10.93619
G1 X126.218 Y204.412 E10.96312
G1 X126.077 Y204.193 E10.97619
G1 X125.948 Y203.777 E10.99805
G1 X125.948 Y198.966 E11.23949
G1 X125.983 Y198.471 E11.26439
G1 X126.12 Y197.835 E11.29704
G1 X126.366 Y197.208 E11.33084
G1 X126.75 Y196.58 E11.36778
G1 X127.194 Y196.078 E11.40141
G1 X127.674 Y195.683 E11.43261
G1 X128.227 Y195.357 E11.46483
G1 X128.74 Y195.149 E11.49261
G1 X129.271 Y195.014 E11.52011
G1 X129.97 Y194.948 E11.55535
G1 X134.488 Y194.948 E11.78209
G1 X135.33 Y194.893 E11.82444
G1 X135.896 Y194.793 E11.85329
G1 X136.439 Y194.648 E11.8815
G1 X136.967 Y194.456 E11.9097
G1 X137.477 Y194.218 E11.93794
G1 X138.198 Y193.781 E11.98025
G1 X138.866 Y193.243 E12.0233
G1 X139.439 Y192.642 E12.06497
G1 X139.78 Y192.199 E12.09303
G1 X140.213 Y191.488 E12.13481
G1 X140.455 Y190.969 E12.16355
G1 X140.723 Y190.183 E12.20523
G1 X140.892 Y189.342 E12.24828
G1 X140.948 Y188.464 E12.29243
G1 X140.948 Y103.062 E16.57841
G1 X140.975 Y102.895 E16.5869
G1 X141.181 Y102.476 E16.61033
G1 X141.472 Y102.646 F7800
G1 F1800
G1 X141.819 Y102.299 E16.63496
G1 X141.938 Y102.221 E16.6421
G1 X142.252 Y102.118 E16.65868
G1 X157.776 Y102.121 E17.43777
G1 X157.883 Y102.146 E17.44328
G1 X158.133 Y102.264 E17.45715
G1 X158.527 Y102.646 E17.48469
G1 X158.604 Y102.763 E17.49172
G1 X158.707 Y103.077 E17.5083
G1 X158.707 Y188.475 E21.79408
G1 X158.763 Y189.37 E21.83908
G1 X158.872 Y189.987 E21.87052
G1 X159.119 Y190.827 E21.91446
G1 X159.474 Y191.636 E21.9588
G1 X159.945 Y192.409 E22.00423
G1 X160.502 Y193.1 E22.04877
G1 X161.133 Y193.702 E22.09254
G1 X161.61 Y194.068 E22.12271
G1 X162.349 Y194.517 E22.16611
G1 X162.901 Y194.775 E22.19669
G1 X163.458 Y194.977 E22.22643
G1 X164.031 Y195.131 E22.25621
G1 X164.904 Y195.266 E22.30054
G1 X165.517 Y195.293 E22.33133
G1 X170.022 Y195.293 E22.55742
G1 X170.655 Y195.351 E22.58932
G1 X171.138 Y195.472 E22.61431
G1 X171.626 Y195.669 E22.64072
G1 X172.115 Y195.956 E22.66918
G1 X172.557 Y196.317 E22.69782
G1 X172.963 Y196.773 E22.72846
G1 X173.29 Y197.293 E22.75929
G1 X173.527 Y197.859 E22.79008
G1 X173.669 Y198.478 E22.82195
G1 X173.707 Y198.983 E22.84737
G1 X173.707 Y203.747 E23.08646
G1 X173.69 Y203.846 E23.0915
G1 X173.528 Y204.179 E23.11008
G1 X173.181 Y204.526 E23.13471
G1 X173.062 Y204.604 E23.14185
G1 X172.748 Y204.707 E23.15843
G1 X127.253 Y204.707 E25.44164
G1 X127.154 Y204.69 E25.44668
G1 X126.821 Y204.528 E25.46526
G1 X126.474 Y204.181 E25.48989
G1 X126.396 Y204.062 E25.49703
G1 X126.293 Y203.748 E25.51361
G1 X126.293 Y198.973 E25.75325
G1 X126.326 Y198.507 E25.7767
G1 X126.446 Y197.948 E25.80539
G1 X126.682 Y197.348 E25.83775
G1 X127.019 Y196.797 E25.87016
G1 X127.443 Y196.317 E25.9023
G1 X127.861 Y195.973 E25.92947
G1 X128.37 Y195.671 E25.95917
G1 X128.837 Y195.48 E25.98449
G1 X129.343 Y195.352 E26.01068
G1 X129.978 Y195.293 E26.04269
G1 X134.499 Y195.293 E26.26958
G1 X135.372 Y195.236 E26.31349
G1 X135.971 Y195.131 E26.34401
G1 X136.542 Y194.977 E26.37369
G1 X137.099 Y194.775 E26.40343
G1 X137.64 Y194.522 E26.4334
G1 X138.397 Y194.064 E26.4778
G1 X139.1 Y193.498 E26.52309
G1 X139.702 Y192.867 E26.56686
G1 X140.065 Y192.394 E26.59678
G1 X140.517 Y191.652 E26.64038
G1 X140.775 Y191.098 E26.67105
G1 X141.057 Y190.273 E26.71481
G1 X141.235 Y189.387 E26.76016
G1 X141.293 Y188.475 E26.80602
G1 X141.293 Y103.078 E31.09175
G1 X141.31 Y102.979 E31.09679
G1 X141.446 Y102.7 E31.11237
G1 X141.738 Y102.868 F7800
G1 F1800
G1 X142.052 Y102.554 E31.13466
G1 X142.285 Y102.463 E31.14721
G1 X157.728 Y102.463 E31.92223
G1 X157.957 Y102.563 E31.93477
G1 X158.271 Y102.877 E31.95706
G1 X158.362 Y103.11 E31.96961
G1 X158.362 Y188.481 E36.25403
G1 X158.391 Y189.131 E36.28668
G1 X158.422 Y189.422 E36.30137
G1 X158.534 Y190.054 E36.33358
G1 X158.603 Y190.338 E36.34825
G1 X158.795 Y190.945 E36.3802
G1 X159.035 Y191.525 E36.4117
G1 X159.169 Y191.796 E36.42687
G1 X159.316 Y192.064 E36.44221
G1 X159.659 Y192.601 E36.47419
G1 X159.832 Y192.837 E36.48888
G1 X160.244 Y193.329 E36.52109
G1 X160.446 Y193.54 E36.53575
G1 X160.912 Y193.967 E36.56747
G1 X161.411 Y194.35 E36.59904
G1 X161.939 Y194.686 E36.63045
G1 X162.196 Y194.827 E36.64516
G1 X162.769 Y195.094 E36.67689
G1 X163.354 Y195.307 E36.70813
G1 X163.955 Y195.468 E36.73936
G1 X164.589 Y195.579 E36.77166
G1 X164.882 Y195.61 E36.78645
G1 X165.509 Y195.638 E36.81795
G1 X170.015 Y195.638 E37.04409
G1 X170.585 Y195.69 E37.07281
G1 X171.022 Y195.797 E37.09539
G1 X171.464 Y195.974 E37.11928
G1 X171.909 Y196.233 E37.14512
G1 X172.309 Y196.557 E37.17095
G1 X172.696 Y196.991 E37.20013
G1 X172.99 Y197.462 E37.22799
G1 X173.202 Y197.977 E37.25594
G1 X173.33 Y198.541 E37.28496
G1 X173.362 Y198.989 E37.3075
G1 X173.362 Y203.728 E37.54533
G1 X173.262 Y203.957 E37.55787
G1 X172.948 Y204.271 E37.58016
G1 X172.715 Y204.362 E37.59271
G1 X127.272 Y204.362 E39.87331
G1 X127.043 Y204.262 E39.88585
G1 X126.729 Y203.948 E39.90814
G1 X126.638 Y203.715 E39.92069
G1 X126.638 Y198.978 E40.15842
G1 X126.666 Y198.567 E40.17909
G1 X126.78 Y198.035 E40.2064
G1 X126.996 Y197.49 E40.23582
G1 X127.304 Y196.992 E40.26521
G1 X127.691 Y196.557 E40.29443
G1 X128.069 Y196.248 E40.31893
G1 X128.533 Y195.975 E40.34595
G1 X128.954 Y195.805 E40.36874
G1 X129.413 Y195.69 E40.39249
G1 X129.985 Y195.638 E40.42131
G1 X134.499 Y195.638 E40.64785
G1 X134.816 Y195.63 E40.66376
G1 X135.418 Y195.578 E40.69408
G1 X136.045 Y195.468 E40.72603
G1 X136.646 Y195.307 E40.75726
G1 X137.231 Y195.094 E40.7885
G1 X137.798 Y194.829 E40.81991
G1 X138.337 Y194.518 E40.85114
G1 X138.594 Y194.347 E40.86663
G1 X138.837 Y194.168 E40.88178
G1 X139.329 Y193.756 E40.91399
G1 X139.54 Y193.554 E40.92865
G1 X139.967 Y193.088 E40.96037
G1 X140.346 Y192.594 E40.99162
G1 X140.686 Y192.061 E41.02335
G1 X140.827 Y191.804 E41.03806
G1 X141.094 Y191.231 E41.06979
G1 X141.31 Y190.637 E41.10151
G1 X141.392 Y190.356 E41.1162
G1 X141.531 Y189.73 E41.14838
G1 X141.577 Y189.432 E41.16351
G1 X141.609 Y189.131 E41.1787
G1 X141.638 Y188.481 E41.21135
G1 X141.638 Y103.097 E45.49642
G1 X141.712 Y102.922 E45.50596
G1 X142.009 Y103.084 F7800
G1 F1800
G1 X142.259 Y102.834 E45.5237
G1 X142.323 Y102.808 E45.52717
G1 X157.677 Y102.808 E46.29772
G1 X157.741 Y102.834 E46.30119
G1 X157.991 Y103.084 E46.31893
G1 X158.017 Y103.148 E46.3224
G1 X158.017 Y188.489 E50.60532
G1 X158.047 Y189.158 E50.63893
G1 X158.081 Y189.471 E50.65473
G1 X158.196 Y190.125 E50.68806
G1 X158.271 Y190.431 E50.70387
G1 X158.47 Y191.063 E50.73712
G1 X158.721 Y191.667 E50.76995
G1 X158.863 Y191.955 E50.78606
G1 X159.019 Y192.24 E50.80237
G1 X159.374 Y192.796 E50.83548
G1 X159.56 Y193.051 E50.85132
G1 X159.987 Y193.559 E50.88462
G1 X160.205 Y193.787 E50.90045
G1 X160.69 Y194.232 E50.93348
G1 X161.213 Y194.632 E50.96652
G1 X161.764 Y194.983 E50.99931
G1 X162.04 Y195.134 E51.0151
G1 X162.637 Y195.413 E51.04817
G1 X163.25 Y195.636 E51.08091
G1 X163.88 Y195.805 E51.11364
G1 X164.541 Y195.921 E51.14732
G1 X164.856 Y195.955 E51.16322
G1 X165.502 Y195.983 E51.19567
G1 X170.007 Y195.983 E51.42176
G1 X170.517 Y196.028 E51.44745
G1 X170.907 Y196.123 E51.46759
G1 X171.303 Y196.279 E51.48895
G1 X171.704 Y196.511 E51.5122
G1 X172.062 Y196.798 E51.53523
G1 X172.412 Y197.188 E51.56153
G1 X172.677 Y197.608 E51.58645
G1 X172.878 Y198.094 E51.61284
G1 X172.991 Y198.602 E51.63896
G1 X173.017 Y198.995 E51.65873
G1 X173.017 Y203.677 E51.8937
G1 X172.991 Y203.741 E51.89717
G1 X172.741 Y203.991 E51.91491
G1 X172.677 Y204.017 E51.91838
G1 X127.323 Y204.017 E54.19451
G1 X127.259 Y203.991 E54.19798
G1 X127.009 Y203.741 E54.21572
G1 X126.983 Y203.677 E54.21919
G1 X126.983 Y198.994 E54.45421
G1 X127.006 Y198.627 E54.47266
G1 X127.114 Y198.122 E54.49858
G1 X127.31 Y197.634 E54.52497
G1 X127.588 Y197.188 E54.55135
G1 X127.938 Y196.798 E54.57765
G1 X128.275 Y196.525 E54.59942
G1 X128.696 Y196.28 E54.62387
G1 X129.071 Y196.13 E54.64414
G1 X129.482 Y196.028 E54.66539
G1 X129.993 Y195.983 E54.69113
G1 X134.504 Y195.983 E54.91752
G1 X134.835 Y195.975 E54.93414
G1 X135.463 Y195.92 E54.96578
G1 X136.12 Y195.805 E54.99925
G1 X136.75 Y195.636 E55.03198
G1 X137.363 Y195.413 E55.06472
G1 X137.957 Y195.135 E55.09763
G1 X138.519 Y194.811 E55.13019
G1 X138.792 Y194.629 E55.14666
G1 X139.051 Y194.44 E55.16275
G1 X139.559 Y194.013 E55.19605
G1 X139.787 Y193.795 E55.21188
G1 X140.232 Y193.309 E55.24495
G1 X140.629 Y192.792 E55.27766
G1 X140.983 Y192.236 E55.31074
G1 X141.134 Y191.96 E55.32653
G1 X141.413 Y191.363 E55.3596
G1 X141.638 Y190.745 E55.39261
G1 X141.726 Y190.442 E55.40844
G1 X141.87 Y189.794 E55.44175
G1 X141.919 Y189.477 E55.45785
G1 X141.953 Y189.158 E55.47395
G1 X141.983 Y188.489 E55.50756
G1 X141.986 Y103.14 E59.79088
G1 X142.328 Y103.254 F7800
G1 F1800
G1 X142.429 Y103.153 E59.79805
G1 X157.571 Y103.153 E60.55797
G1 X157.672 Y103.254 E60.56514
G1 X157.672 Y188.496 E64.84309
G1 X157.702 Y189.184 E64.87765
G1 X157.739 Y189.52 E64.89461
G1 X157.858 Y190.196 E64.92906
G1 X157.939 Y190.524 E64.94602
G1 X158.146 Y191.181 E64.98059
G1 X158.407 Y191.81 E65.01477
G1 X158.557 Y192.114 E65.03178
G1 X158.722 Y192.416 E65.04905
G1 X159.089 Y192.991 E65.08328
G1 X159.289 Y193.264 E65.10026
G1 X159.73 Y193.79 E65.13471
G1 X159.964 Y194.034 E65.15168
G1 X160.469 Y194.496 E65.18603
G1 X161.015 Y194.915 E65.22057
G1 X161.588 Y195.28 E65.25467
G1 X161.884 Y195.442 E65.2716
G1 X162.505 Y195.732 E65.306
G1 X163.146 Y195.965 E65.34023
G1 X163.806 Y196.142 E65.37452
G1 X164.492 Y196.262 E65.40947
G1 X164.83 Y196.299 E65.42653
G1 X165.494 Y196.327 E65.45988
G1 X170 Y196.328 E65.68602
G1 X170.45 Y196.366 E65.70868
G1 X170.793 Y196.448 E65.72638
G1 X171.143 Y196.585 E65.74524
G1 X171.52 Y196.803 E65.7671
G1 X171.816 Y197.04 E65.78613
G1 X172.128 Y197.385 E65.80947
G1 X172.376 Y197.779 E65.83283
G1 X172.552 Y198.21 E65.85619
G1 X172.651 Y198.662 E65.87941
G1 X172.672 Y199 E65.89641
G1 X172.672 Y203.571 E66.12581
G1 X172.571 Y203.672 E66.13298
G1 X127.429 Y203.672 E68.39847
G1 X127.328 Y203.571 E68.40564
G1 X127.328 Y199 E68.63504
G1 X127.349 Y198.662 E68.65204
G1 X127.448 Y198.21 E68.67526
G1 X127.624 Y197.779 E68.69862
G1 X127.872 Y197.385 E68.72198
G1 X128.184 Y197.04 E68.74532
G1 X128.48 Y196.803 E68.76435
G1 X128.856 Y196.585 E68.78616
G1 X129.186 Y196.455 E68.80396
G1 X129.551 Y196.366 E68.82281
G1 X130 Y196.328 E68.84542
G1 X134.508 Y196.327 E69.07166
G1 X134.854 Y196.319 E69.08903
G1 X135.508 Y196.262 E69.12198
G1 X136.194 Y196.142 E69.15693
G1 X136.854 Y195.965 E69.19122
G1 X137.495 Y195.732 E69.22545
G1 X138.117 Y195.442 E69.25989
G1 X138.701 Y195.104 E69.29375
G1 X138.99 Y194.912 E69.31116
G1 X139.264 Y194.711 E69.32821
G1 X139.79 Y194.27 E69.36266
G1 X140.034 Y194.036 E69.37963
G1 X140.496 Y193.531 E69.41398
G1 X140.912 Y192.99 E69.44823
G1 X141.28 Y192.412 E69.48262
G1 X141.442 Y192.116 E69.49955
G1 X141.732 Y191.495 E69.53395
G1 X141.966 Y190.852 E69.56829
G1 X142.06 Y190.528 E69.58522
G1 X142.209 Y189.857 E69.61971
G1 X142.261 Y189.522 E69.63672
G1 X142.298 Y189.184 E69.65378
G1 X142.328 Y188.496 E69.68834
G1 X142.328 Y103.314 E73.96328
G1 E71.96328 F2400
G92 E0
G1 X133.686 Y197.4 F7800
G1 E2 F2400
;TYPE:Perimeter
;WIDTH:0.42
G1 F1800
G1 X134.566 Y197.398 E2.04416
G1 X135.684 Y197.32 E2.1004
G1 X136.463 Y197.18 E2.14012
G1 X137.212 Y196.976 E2.17908
G1 X137.94 Y196.707 E2.21803
G1 X138.645 Y196.375 E2.25714
G1 X139.306 Y195.989 E2.29555
G1 X139.948 Y195.537 E2.33495
G1 X140.553 Y195.022 E2.37482
G1 X141.28 Y194.263 E2.42757
G1 X141.811 Y193.573 E2.47127
G1 X142.234 Y192.901 E2.51112
G1 X142.699 Y191.957 E2.56393
G1 X143.003 Y191.122 E2.60853
G1 X143.27 Y190.009 E2.66597
G1 X143.368 Y189.238 E2.70497
G1 X143.4 Y188.501 E2.74199
G1 X143.4 Y104.225 E6.97145
G1 X156.6 Y104.225 E7.6339
G1 X156.6 Y188.5 E11.86331
G1 X156.685 Y189.717 E11.92453
G1 X156.914 Y190.84 E11.98205
G1 X157.234 Y191.78 E12.03188
G1 X157.451 Y192.295 E12.05993
G1 X157.814 Y192.986 E12.0991
G1 X158.243 Y193.649 E12.13873
G1 X158.978 Y194.553 E12.1972
G1 X159.737 Y195.28 E12.24995
G1 X160.432 Y195.815 E12.29397
G1 X161.099 Y196.234 E12.3335
G1 X162.043 Y196.699 E12.38631
G1 X162.86 Y196.998 E12.42997
G1 X163.611 Y197.196 E12.46895
G1 X164.407 Y197.331 E12.50947
G1 X165.49 Y197.4 E12.56393
G1 X169 Y197.4 E12.74008
G1 X170.259 Y197.426 E12.80328
G1 X170.691 Y197.562 E12.82601
G1 X171.072 Y197.815 E12.84896
G1 X171.416 Y198.263 E12.87731
G1 X171.552 Y198.653 E12.89804
G1 X171.6 Y199.085 E12.91985
G1 X171.6 Y202.6 E13.09625
G1 X128.4 Y202.6 E15.26428
G1 X128.415 Y198.801 E15.45494
G1 X128.584 Y198.263 E15.48324
G1 X128.849 Y197.902 E15.50571
G1 X129.158 Y197.65 E15.52572
G1 X129.567 Y197.481 E15.54793
G1 X130.039 Y197.4 E15.57196
G1 X133.626 Y197.4 E15.75198
G1 X133.686 Y197.055 F7800
G1 F1800
G1 X134.544 Y197.054 E15.79504
G1 X135.569 Y196.987 E15.84659
G1 X136.374 Y196.847 E15.8876
G1 X137.094 Y196.652 E15.92504
G1 X137.795 Y196.395 E15.96251
G1 X138.472 Y196.076 E16.00007
G1 X139.109 Y195.707 E16.03701
G1 X139.726 Y195.273 E16.07487
G1 X140.303 Y194.784 E16.11283
G1 X141.031 Y194.024 E16.16565
G1 X141.52 Y193.388 E16.20591
G1 X141.925 Y192.748 E16.24392
G1 X142.39 Y191.805 E16.29669
G1 X142.668 Y191.04 E16.33754
G1 X142.928 Y189.964 E16.39309
G1 X143.024 Y189.223 E16.43059
G1 X143.055 Y188.501 E16.46686
G1 X143.055 Y103.88 E20.71364
G1 X156.945 Y103.88 E21.41072
G1 X156.945 Y188.5 E25.65745
G1 X157.024 Y189.65 E25.7153
G1 X157.243 Y190.736 E25.7709
G1 X157.552 Y191.648 E25.81923
G1 X157.757 Y192.135 E25.84575
G1 X158.105 Y192.801 E25.88346
G1 X158.512 Y193.434 E25.92123
G1 X159.216 Y194.303 E25.97736
G1 X159.976 Y195.031 E26.03018
G1 X160.617 Y195.524 E26.07076
G1 X161.252 Y195.925 E26.10845
G1 X162.195 Y196.39 E26.16122
G1 X162.949 Y196.665 E26.2015
G1 X163.671 Y196.857 E26.23899
G1 X164.429 Y196.986 E26.27758
G1 X165.49 Y197.055 E26.33094
G1 X169 Y197.055 E26.50709
G1 X170.326 Y197.086 E26.57365
G1 X170.831 Y197.245 E26.60022
G1 X171.12 Y197.411 E26.61695
G1 X171.431 Y197.697 E26.63815
G1 X171.723 Y198.103 E26.66325
G1 X171.889 Y198.579 E26.68855
G1 X171.945 Y199.085 E26.7141
G1 X171.945 Y202.945 E26.90782
G1 X128.055 Y202.945 E29.11048
