; generated by PrusaSlicer 2.6.0 on 2023-06-25 at 11:07:57 UTC

; 

; external perimeters extrusion width = 0.45mm
; perimeters extrusion width = 0.45mm
; infill extrusion width = 0.45mm
; solid infill extrusion width = 0.45mm
; top infill extrusion width = 0.40mm
; first layer extrusion width = 0.42mm

M104 S220 ; set temperature
;TYPE:Custom
G28 ;Home
G1 Z15.0 F2000 ;Move the platform
M106 S255
M109 S220 ; set temperature and wait for it to be reached
G21 ; set units to millimeters
G90 ; use absolute coordinates
M82 ; use absolute distances for extrusion
G92 E0
; Filament gcode
M107
;LAYER_CHANGE
;Z:0.35
;HEIGHT:0.35
G1 Z.35 F7800
G1 E-2 F2400
G92 E0
G1 X141.208 Y102.422 F7800
G1 E2 F2400
;TYPE:Skirt/Brim
;WIDTH:0.42
G1 F1800
G1 X141.588 Y102.043 E2.02693
G1 X141.807 Y101.902 E2.04
G1 X142.223 Y101.773 E2.06186
G1 X157.796 Y101.776 E2.84341
G1 X158.014 Y101.827 E2.85465
G1 X158.307 Y101.965 E2.8709
G1 X158.781 Y102.412 E2.9036
G1 X158.923 Y102.632 E2.91674
G1 X159.052 Y103.048 E2.9386
G1 X159.052 Y188.466 E7.22538
G1 X159.078 Y189.073 E7.25587
G1 X159.149 Y189.608 E7.28295
G1 X159.273 Y190.168 E7.31173
G1 X159.443 Y190.707 E7.34009
G1 X159.781 Y191.477 E7.38229
G1 X160.219 Y192.197 E7.42458
G1 X160.747 Y192.856 E7.46696
G1 X161.357 Y193.439 E7.50931
G1 X161.805 Y193.782 E7.53763
G1 X162.512 Y194.213 E7.57918
G1 X163.033 Y194.456 E7.60803
G1 X163.561 Y194.648 E7.63623
G1 X164.104 Y194.793 E7.66444
G1 X164.669 Y194.893 E7.69324
G1 X165.512 Y194.948 E7.73564
G1 X170.03 Y194.948 E7.96238
G1 X170.725 Y195.014 E7.99742
G1 X171.256 Y195.148 E8.0249
G1 X171.79 Y195.365 E8.05383
G1 X172.323 Y195.681 E8.08493
G1 X172.805 Y196.077 E8.11624
G1 X173.247 Y196.577 E8.14973
G1 X173.602 Y197.146 E8.18339
G1 X173.859 Y197.767 E8.21712
G1 X174.008 Y198.413 E8.25039
G1 X174.052 Y198.977 E8.27878
G1 X174.052 Y203.763 E8.51897
G1 X174.025 Y203.93 E8.52746
G1 X173.792 Y204.403 E8.55392
G1 X173.412 Y204.782 E8.58085
G1 X173.193 Y204.923 E8.59392
G1 X172.777 Y205.052 E8.61578
G1 X127.237 Y205.052 E10.90125
G1 X127.07 Y205.025 E10.90974
G1 X126.597 Y204.792 E10.9362
G1 X126.218 Y204.412 E10.96313
G1 X126.077 Y204.193 E10.9762
G1 X125.948 Y203.777 E10.99806
G1 X125.948 Y198.966 E11.2395
G1 X125.983 Y198.471 E11.2644
G1 X126.12 Y197.835 E11.29705
G1 X126.366 Y197.208 E11.33085
G1 X126.75 Y196.58 E11.36779
G1 X127.194 Y196.078 E11.40142
G1 X127.674 Y195.683 E11.43262
G1 X128.227 Y195.357 E11.46484
G1 X128.74 Y195.149 E11.49262
G1 X129.271 Y195.014 E11.52012
G1 X129.97 Y194.948 E11.55536
G1 X134.488 Y194.948 E11.7821
G1 X135.332 Y194.892 E11.82455
G1 X135.896 Y194.794 E11.85328
G1 X136.439 Y194.648 E11.8815
G1 X136.966 Y194.456 E11.90965
G1 X137.479 Y194.217 E11.93805
G1 X138.198 Y193.781 E11.98025
G1 X138.866 Y193.243 E12.0233
G1 X139.439 Y192.642 E12.06497
G1 X139.78 Y192.199 E12.09303
G1 X140.219 Y191.477 E12.13544
G1 X140.558 Y190.703 E12.17785
G1 X140.726 Y190.17 E12.2059
G1 X140.892 Y189.342 E12.24828
G1 X140.948 Y188.464 E12.29243
G1 X140.948 Y103.062 E16.57841
G1 X140.975 Y102.895 E16.5869
G1 X141.181 Y102.476 E16.61033
G1 X141.472 Y102.646 F7800
G1 F1800
G1 X141.819 Y102.299 E16.63496
G1 X141.938 Y102.221 E16.6421
G1 X142.252 Y102.118 E16.65868
G1 X157.776 Y102.121 E17.43777
G1 X157.883 Y102.146 E17.44328
G1 X158.133 Y102.264 E17.45715
G1 X158.527 Y102.646 E17.48469
G1 X158.604 Y102.763 E17.49172
G1 X158.707 Y103.077 E17.5083
G1 X158.707 Y188.474 E21.79403
G1 X158.735 Y189.103 E21.82563
G1 X158.809 Y189.668 E21.85423
G1 X158.94 Y190.258 E21.88456
G1 X159.12 Y190.828 E21.91456
G1 X159.475 Y191.637 E21.9589
G1 X159.936 Y192.396 E22.00347
G1 X160.492 Y193.089 E22.04806
G1 X161.133 Y193.702 E22.09257
G1 X161.609 Y194.067 E22.12267
G1 X162.349 Y194.517 E22.16614
G1 X162.901 Y194.775 E22.19672
G1 X163.458 Y194.977 E22.22646
G1 X164.029 Y195.131 E22.25614
G1 X164.628 Y195.236 E22.28666
G1 X165.5 Y195.293 E22.33052
G1 X170.022 Y195.293 E22.55746
G1 X170.655 Y195.351 E22.58936
G1 X171.138 Y195.472 E22.61435
G1 X171.626 Y195.669 E22.64076
G1 X172.115 Y195.956 E22.66922
G1 X172.557 Y196.317 E22.69786
G1 X172.963 Y196.773 E22.7285
G1 X173.29 Y197.293 E22.75933
G1 X173.527 Y197.859 E22.79012
G1 X173.669 Y198.478 E22.82199
G1 X173.707 Y198.983 E22.84741
G1 X173.707 Y203.747 E23.0865
G1 X173.69 Y203.846 E23.09154
G1 X173.528 Y204.179 E23.11012
G1 X173.181 Y204.526 E23.13475
G1 X173.062 Y204.604 E23.14189
G1 X172.748 Y204.707 E23.15847
G1 X127.253 Y204.707 E25.44168
G1 X127.154 Y204.69 E25.44672
G1 X126.821 Y204.528 E25.4653
G1 X126.474 Y204.181 E25.48993
G1 X126.396 Y204.062 E25.49707
G1 X126.293 Y203.748 E25.51365
G1 X126.293 Y198.973 E25.75329
G1 X126.326 Y198.507 E25.77674
G1 X126.446 Y197.948 E25.80543
G1 X126.682 Y197.348 E25.83779
G1 X127.019 Y196.797 E25.8702
G1 X127.443 Y196.317 E25.90234
G1 X127.861 Y195.973 E25.92951
G1 X128.37 Y195.671 E25.95921
G1 X128.837 Y195.48 E25.98453
G1 X129.343 Y195.352 E26.01072
G1 X129.978 Y195.293 E26.04273
G1 X134.499 Y195.293 E26.26962
G1 X135.373 Y195.235 E26.31358
G1 X135.971 Y195.131 E26.34404
G1 X136.542 Y194.977 E26.37372
G1 X137.099 Y194.775 E26.40346
G1 X137.642 Y194.521 E26.43354
G1 X138.396 Y194.064 E26.47779
G1 X139.1 Y193.498 E26.52312
G1 X139.702 Y192.867 E26.56689
G1 X140.065 Y192.394 E26.59681
G1 X140.525 Y191.637 E26.64126
G1 X140.882 Y190.825 E26.68578
G1 X141.061 Y190.256 E26.71572
G1 X141.235 Y189.387 E26.7602
G1 X141.293 Y188.475 E26.80606
G1 X141.293 Y103.078 E31.09179
G1 X141.31 Y102.979 E31.09683
G1 X141.446 Y102.7 E31.11241
G1 X141.738 Y102.868 F7800
G1 F1800
G1 X142.052 Y102.554 E31.1347
G1 X142.285 Y102.463 E31.14725
G1 X157.728 Y102.463 E31.92227
G1 X157.957 Y102.563 E31.93481
G1 X158.271 Y102.877 E31.9571
G1 X158.362 Y103.11 E31.96965
G1 X158.362 Y188.481 E36.25407
G1 X158.391 Y189.133 E36.28682
G1 X158.469 Y189.728 E36.31694
G1 X158.606 Y190.347 E36.34876
G1 X158.795 Y190.945 E36.38023
G1 X159.035 Y191.525 E36.41173
G1 X159.169 Y191.796 E36.4269
G1 X159.314 Y192.061 E36.44206
G1 X159.654 Y192.594 E36.47379
G1 X160.038 Y193.095 E36.50547
G1 X160.238 Y193.322 E36.52065
G1 X160.446 Y193.54 E36.53577
G1 X160.912 Y193.967 E36.56749
G1 X161.41 Y194.349 E36.59899
G1 X161.939 Y194.686 E36.63047
G1 X162.196 Y194.827 E36.64518
G1 X162.769 Y195.094 E36.67691
G1 X163.354 Y195.307 E36.70815
G1 X163.955 Y195.468 E36.73938
G1 X164.582 Y195.577 E36.77132
G1 X165.19 Y195.631 E36.80195
G1 X165.5 Y195.638 E36.81751
G1 X170.015 Y195.638 E37.0441
G1 X170.585 Y195.69 E37.07282
G1 X171.022 Y195.797 E37.0954
G1 X171.464 Y195.974 E37.11929
G1 X171.909 Y196.233 E37.14513
G1 X172.309 Y196.557 E37.17096
G1 X172.696 Y196.991 E37.20014
G1 X172.99 Y197.462 E37.228
G1 X173.202 Y197.977 E37.25595
G1 X173.33 Y198.541 E37.28497
G1 X173.362 Y198.989 E37.30751
G1 X173.362 Y203.728 E37.54534
G1 X173.262 Y203.957 E37.55788
G1 X172.948 Y204.271 E37.58017
G1 X172.715 Y204.362 E37.59272
G1 X127.272 Y204.362 E39.87332
G1 X127.043 Y204.262 E39.88586
G1 X126.729 Y203.948 E39.90815
G1 X126.638 Y203.715 E39.9207
G1 X126.638 Y198.978 E40.15843
G1 X126.666 Y198.567 E40.1791
G1 X126.78 Y198.035 E40.20641
G1 X126.996 Y197.49 E40.23583
G1 X127.304 Y196.992 E40.26522
G1 X127.691 Y196.557 E40.29444
G1 X128.069 Y196.248 E40.31894
G1 X128.533 Y195.975 E40.34596
G1 X128.954 Y195.805 E40.36875
G1 X129.413 Y195.69 E40.3925
G1 X129.985 Y195.638 E40.42132
G1 X134.5 Y195.638 E40.64791
G1 X134.812 Y195.63 E40.66357
G1 X135.419 Y195.577 E40.69415
G1 X136.045 Y195.468 E40.72604
G1 X136.646 Y195.307 E40.75727
G1 X137.231 Y195.094 E40.78851
G1 X137.8 Y194.828 E40.82003
G1 X138.337 Y194.518 E40.85115
G1 X138.594 Y194.347 E40.86664
G1 X138.837 Y194.168 E40.88179
G1 X139.329 Y193.756 E40.914
G1 X139.54 Y193.554 E40.92866
G1 X139.967 Y193.088 E40.96038
G1 X140.346 Y192.594 E40.99163
G1 X140.686 Y192.061 E41.02336
G1 X140.831 Y191.796 E41.03852
G1 X140.965 Y191.525 E41.05369
G1 X141.207 Y190.941 E41.08542
G1 X141.394 Y190.347 E41.11667
G1 X141.531 Y189.73 E41.14839
G1 X141.577 Y189.432 E41.16352
G1 X141.609 Y189.131 E41.17871
G1 X141.638 Y188.481 E41.21136
G1 X141.638 Y103.097 E45.49643
G1 X141.712 Y102.922 E45.50597
G1 X142.009 Y103.084 F7800
G1 F1800
G1 X142.259 Y102.834 E45.52371
G1 X142.323 Y102.808 E45.52718
G1 X157.677 Y102.808 E46.29773
G1 X157.741 Y102.834 E46.3012
G1 X157.991 Y103.084 E46.31894
G1 X158.017 Y103.148 E46.32241
G1 X158.017 Y188.489 E50.60533
G1 X158.047 Y189.158 E50.63894
G1 X158.081 Y189.477 E50.65504
G1 X158.13 Y189.794 E50.67114
G1 X158.273 Y190.436 E50.70415
G1 X158.47 Y191.063 E50.73713
G1 X158.721 Y191.667 E50.76996
G1 X158.863 Y191.955 E50.78607
G1 X159.017 Y192.236 E50.80215
G1 X159.371 Y192.792 E50.83523
G1 X159.772 Y193.314 E50.86826
G1 X159.983 Y193.555 E50.88434
G1 X160.205 Y193.787 E50.90045
G1 X160.69 Y194.232 E50.93348
G1 X161.212 Y194.632 E50.96648
G1 X161.764 Y194.983 E50.99931
G1 X162.04 Y195.134 E51.0151
G1 X162.637 Y195.413 E51.04817
G1 X163.25 Y195.636 E51.08091
G1 X163.88 Y195.805 E51.11364
G1 X164.537 Y195.92 E51.14711
G1 X165.171 Y195.975 E51.17905
G1 X165.496 Y195.983 E51.19537
G1 X170.007 Y195.983 E51.42176
G1 X170.517 Y196.028 E51.44745
G1 X170.907 Y196.123 E51.46759
G1 X171.303 Y196.279 E51.48895
G1 X171.704 Y196.511 E51.5122
G1 X172.062 Y196.798 E51.53523
G1 X172.412 Y197.188 E51.56153
G1 X172.677 Y197.608 E51.58645
G1 X172.878 Y198.094 E51.61284
G1 X172.991 Y198.602 E51.63896
G1 X173.017 Y198.995 E51.65873
G1 X173.017 Y203.677 E51.8937
G1 X172.991 Y203.741 E51.89717
G1 X172.741 Y203.991 E51.91491
G1 X172.677 Y204.017 E51.91838
G1 X127.323 Y204.017 E54.19451
G1 X127.259 Y203.991 E54.19798
G1 X127.009 Y203.741 E54.21572
G1 X126.983 Y203.677 E54.21919
G1 X126.983 Y198.994 E54.45421
G1 X127.006 Y198.627 E54.47266
G1 X127.114 Y198.122 E54.49858
G1 X127.31 Y197.634 E54.52497
G1 X127.588 Y197.188 E54.55135
G1 X127.938 Y196.798 E54.57765
G1 X128.275 Y196.525 E54.59942
G1 X128.696 Y196.28 E54.62387
G1 X129.071 Y196.13 E54.64414
G1 X129.482 Y196.028 E54.66539
G1 X129.993 Y195.983 E54.69113
G1 X134.504 Y195.983 E54.91752
G1 X134.831 Y195.975 E54.93394
G1 X135.464 Y195.92 E54.96583
G1 X136.12 Y195.805 E54.99925
G1 X136.75 Y195.636 E55.03198
G1 X137.363 Y195.413 E55.06472
G1 X137.959 Y195.135 E55.09772
G1 X138.519 Y194.811 E55.13019
G1 X138.792 Y194.629 E55.14666
G1 X139.051 Y194.44 E55.16275
G1 X139.559 Y194.013 E55.19605
G1 X139.787 Y193.795 E55.21188
G1 X140.232 Y193.309 E55.24495
G1 X140.629 Y192.792 E55.27766
G1 X140.983 Y192.236 E55.31074
G1 X141.137 Y191.955 E55.32682
G1 X141.279 Y191.667 E55.34293
G1 X141.531 Y191.059 E55.37596
G1 X141.727 Y190.437 E55.40869
G1 X141.87 Y189.794 E55.44175
G1 X141.919 Y189.477 E55.45785
G1 X141.953 Y189.158 E55.47395
G1 X141.983 Y188.489 E55.50756
G1 X141.986 Y103.14 E59.79088
G1 X142.328 Y103.254 F7800
G1 F1800
G1 X142.429 Y103.153 E59.79805
G1 X157.571 Y103.153 E60.55797
G1 X157.672 Y103.254 E60.56514
G1 X157.672 Y188.496 E64.84309
G1 X157.702 Y189.184 E64.87765
G1 X157.739 Y189.522 E64.89471
G1 X157.791 Y189.857 E64.91172
G1 X157.939 Y190.526 E64.94611
G1 X158.146 Y191.181 E64.98058
G1 X158.407 Y191.81 E65.01476
G1 X158.557 Y192.114 E65.03177
G1 X158.72 Y192.412 E65.04882
G1 X159.088 Y192.99 E65.08321
G1 X159.505 Y193.533 E65.11757
G1 X159.729 Y193.788 E65.1346
G1 X159.964 Y194.034 E65.15167
G1 X160.469 Y194.496 E65.18602
G1 X161.014 Y194.914 E65.22049
G1 X161.588 Y195.28 E65.25465
G1 X161.884 Y195.442 E65.27158
G1 X162.505 Y195.732 E65.30598
G1 X163.146 Y195.965 E65.34021
G1 X163.806 Y196.142 E65.3745
G1 X164.492 Y196.262 E65.40945
G1 X165.152 Y196.32 E65.4427
G1 X165.492 Y196.327 E65.45977
G1 X170 Y196.328 E65.68601
G1 X170.45 Y196.366 E65.70867
G1 X170.793 Y196.448 E65.72637
G1 X171.143 Y196.585 E65.74523
G1 X171.52 Y196.803 E65.76709
G1 X171.816 Y197.04 E65.78612
G1 X172.128 Y197.385 E65.80946
G1 X172.376 Y197.779 E65.83282
G1 X172.552 Y198.21 E65.85618
G1 X172.651 Y198.662 E65.8794
G1 X172.672 Y199 E65.8964
G1 X172.672 Y203.571 E66.1258
G1 X172.571 Y203.672 E66.13297
G1 X127.429 Y203.672 E68.39846
G1 X127.328 Y203.571 E68.40563
G1 X127.328 Y199 E68.63503
G1 X127.349 Y198.662 E68.65203
G1 X127.448 Y198.21 E68.67525
G1 X127.624 Y197.779 E68.69861
G1 X127.872 Y197.385 E68.72197
G1 X128.184 Y197.04 E68.74531
G1 X128.48 Y196.803 E68.76434
G1 X128.856 Y196.585 E68.78615
G1 X129.186 Y196.455 E68.80395
G1 X129.551 Y196.366 E68.8228
G1 X130 Y196.328 E68.84541
G1 X134.508 Y196.327 E69.07165
G1 X134.851 Y196.32 E69.08887
G1 X135.509 Y196.262 E69.12202
G1 X136.194 Y196.142 E69.15692
G1 X136.854 Y195.965 E69.19121
G1 X137.495 Y195.732 E69.22544
G1 X138.118 Y195.441 E69.25995
G1 X138.701 Y195.104 E69.29374
G1 X138.989 Y194.912 E69.31111
G1 X139.264 Y194.711 E69.3282
G1 X139.79 Y194.27 E69.36265
G1 X140.034 Y194.036 E69.37962
G1 X140.496 Y193.531 E69.41397
G1 X140.912 Y192.99 E69.44822
G1 X141.28 Y192.412 E69.48261
G1 X141.443 Y192.114 E69.49966
G1 X141.593 Y191.81 E69.51667
G1 X141.855 Y191.177 E69.55105
G1 X142.061 Y190.526 E69.58532
G1 X142.209 Y189.857 E69.61971
G1 X142.261 Y189.522 E69.63672
G1 X142.298 Y189.184 E69.65378
G1 X142.328 Y188.496 E69.68834
G1 X142.328 Y103.314 E73.96328
G1 E71.96328 F2400
G92 E0
G1 X165.447 Y197.397 F7800
G1 E2 F2400
;TYPE:Perimeter
;WIDTH:0.42
G1 F1800
G1 X169 Y197.4 E2.17831
G1 X170.259 Y197.426 E2.24151
G1 X170.691 Y197.562 E2.26424
G1 X171.072 Y197.815 E2.28719
G1 X171.416 Y198.263 E2.31554
G1 X171.552 Y198.653 E2.33627
G1 X171.6 Y199.085 E2.35808
G1 X171.6 Y202.6 E2.53448
G1 X128.4 Y202.6 E4.70251
G1 X128.415 Y198.801 E4.89317
G1 X128.584 Y198.263 E4.92147
G1 X128.849 Y197.902 E4.94394
G1 X129.158 Y197.649 E4.96398
G1 X129.567 Y197.481 E4.98617
G1 X130.039 Y197.4 E5.0102
G1 X134.51 Y197.4 E5.23458
G1 X135.686 Y197.32 E5.29373
G1 X136.463 Y197.18 E5.33335
G1 X137.212 Y196.976 E5.37231
G1 X137.94 Y196.707 E5.41126
G1 X138.647 Y196.374 E5.45048
G1 X139.322 Y195.978 E5.48975
G1 X140.249 Y195.293 E5.5476
G1 X140.819 Y194.766 E5.58656
G1 X141.341 Y194.191 E5.62553
G1 X141.811 Y193.573 E5.6645
G1 X142.225 Y192.917 E5.70343
G1 X142.581 Y192.226 E5.74244
G1 X142.875 Y191.508 E5.78138
G1 X143.106 Y190.767 E5.82033
G1 X143.27 Y190.009 E5.85925
G1 X143.368 Y189.238 E5.89825
G1 X143.4 Y188.501 E5.93527
G1 X143.4 Y104.225 E10.16473
G1 X156.6 Y104.225 E10.82718
G1 X156.6 Y188.501 E15.05664
G1 X156.638 Y189.313 E15.09744
G1 X156.743 Y190.083 E15.13644
G1 X156.914 Y190.84 E15.17539
G1 X157.232 Y191.776 E15.225
G1 X157.451 Y192.295 E15.25327
G1 X157.812 Y192.982 E15.29222
G1 X158.232 Y193.635 E15.33118
G1 X158.707 Y194.249 E15.37014
G1 X159.234 Y194.819 E15.4091
G1 X159.809 Y195.341 E15.44807
G1 X160.431 Y195.814 E15.48729
G1 X161.099 Y196.234 E15.52689
G1 X162.129 Y196.736 E15.58439
G1 X162.86 Y196.998 E15.62336
G1 X163.612 Y197.196 E15.66239
G1 X164.39 Y197.329 E15.702
G1 X165.387 Y197.393 E15.75214
G1 X165.468 Y197.053 F7800
G1 F1800
G1 X169 Y197.055 E15.9294
G1 X170.326 Y197.086 E15.99596
G1 X170.831 Y197.245 E16.02253
G1 X171.12 Y197.411 E16.03926
G1 X171.431 Y197.697 E16.06046
G1 X171.723 Y198.103 E16.08556
G1 X171.889 Y198.579 E16.11086
G1 X171.945 Y199.085 E16.13641
G1 X171.945 Y202.945 E16.33013
G1 X128.055 Y202.945 E18.53279
G1 X128.06 Y198.94 E18.73378
G1 X128.147 Y198.416 E18.76044
G1 X128.371 Y197.955 E18.78616
G1 X128.691 Y197.563 E18.81156
G1 X129.168 Y197.245 E18.84033
G1 X129.674 Y197.086 E18.86695
G1 X130.024 Y197.055 E18.88458
G1 X134.51 Y197.055 E19.10971
G1 X135.626 Y196.98 E19.16584
G1 X136.373 Y196.847 E19.20392
G1 X137.094 Y196.652 E19.2414
G1 X137.794 Y196.395 E19.27882
G1 X138.474 Y196.075 E19.31654
G1 X139.118 Y195.7 E19.35394
G1 X140.016 Y195.039 E19.4099
G1 X140.565 Y194.533 E19.44737
G1 X141.068 Y193.981 E19.48485
G1 X141.52 Y193.388 E19.52227
G1 X141.919 Y192.758 E19.55969
G1 X142.263 Y192.094 E19.59722
G1 X142.546 Y191.405 E19.6346
G1 X142.769 Y190.692 E19.67209
G1 X142.928 Y189.964 E19.70949
G1 X143.024 Y189.223 E19.74699
G1 X143.055 Y188.501 E19.78326
G1 X143.055 Y103.88 E24.03004
G1 X156.945 Y103.88 E24.72712
G1 X156.945 Y188.501 E28.9739
G1 X156.98 Y189.268 E29.01243
G1 X157.08 Y190.008 E29.04991
G1 X157.243 Y190.736 E29.08735
G1 X157.551 Y191.644 E29.13547
G1 X157.756 Y192.135 E29.16217
