; generated by PrusaSlicer 2.6.0 on 2023-06-25 at 14:07:27 UTC

; 

; external perimeters extrusion width = 0.45mm
; perimeters extrusion width = 0.45mm
; infill extrusion width = 0.45mm
; solid infill extrusion width = 0.45mm
; top infill extrusion width = 0.40mm
; first layer extrusion width = 0.42mm

M104 S220 ; set temperature
;TYPE:Custom
G28 ;Home
G1 Z15.0 F2000 ;Move the platform
M106 S255
M109 S220 ; set temperature and wait for it to be reached
G21 ; set units to millimeters
G90 ; use absolute coordinates
M82 ; use absolute distances for extrusion
G92 E0
; Filament gcode
M107
;LAYER_CHANGE
;Z:0.35
;HEIGHT:0.35
G1 Z.35 F7800
G1 E-2 F2400
G92 E0
G1 X141.208 Y108.922 F7800
G1 E2 F2400
;TYPE:Skirt/Brim
;WIDTH:0.42
G1 F1800
G1 X141.588 Y108.543 E2.02693
G1 X141.807 Y108.402 E2.04
G1 X142.223 Y108.273 E2.06186
G1 X157.796 Y108.276 E2.84341
G1 X158.014 Y108.327 E2.85465
G1 X158.307 Y108.465 E2.8709
G1 X158.781 Y108.912 E2.9036
G1 X158.923 Y109.132 E2.91674
G1 X159.052 Y109.548 E2.9386
G1 X159.052 Y181.966 E6.57296
G1 X159.078 Y182.562 E6.6029
G1 X159.151 Y183.118 E6.63104
G1 X159.349 Y183.93 E6.67298
G1 X159.549 Y184.479 E6.7023
G1 X159.924 Y185.236 E6.7447
G1 X160.387 Y185.926 E6.7864
G1 X160.755 Y186.365 E6.81515
G1 X161.357 Y186.939 E6.85689
G1 X161.805 Y187.283 E6.88524
G1 X162.512 Y187.713 E6.92677
G1 X163.033 Y187.956 E6.95562
G1 X163.561 Y188.148 E6.98382
G1 X164.104 Y188.294 E7.01204
G1 X164.668 Y188.392 E7.04077
G1 X165.512 Y188.448 E7.08322
G1 X170.03 Y188.448 E7.30996
G1 X170.731 Y188.515 E7.3453
G1 X171.298 Y188.662 E7.3747
G1 X171.838 Y188.889 E7.4041
G1 X172.33 Y189.185 E7.43292
G1 X172.779 Y189.552 E7.46202
G1 X173.224 Y190.047 E7.49542
G1 X173.587 Y190.616 E7.52929
G1 X173.85 Y191.237 E7.56314
G1 X174.008 Y191.912 E7.59793
G1 X174.052 Y192.477 E7.62637
G1 X174.052 Y197.264 E7.86661
G1 X174.011 Y197.476 E7.87745
G1 X173.792 Y197.903 E7.90153
G1 X173.412 Y198.282 E7.92846
G1 X173.193 Y198.423 E7.94153
G1 X172.777 Y198.552 E7.96339
G1 X127.236 Y198.552 E10.24891
G1 X127.024 Y198.511 E10.25975
G1 X126.597 Y198.292 E10.28383
G1 X126.218 Y197.912 E10.31076
G1 X126.077 Y197.693 E10.32383
G1 X125.948 Y197.277 E10.34569
G1 X125.948 Y192.466 E10.58713
G1 X125.983 Y191.971 E10.61203
G1 X126.12 Y191.335 E10.64468
G1 X126.366 Y190.708 E10.67848
G1 X126.75 Y190.08 E10.71542
G1 X127.194 Y189.579 E10.74902
G1 X127.664 Y189.19 E10.77964
G1 X128.167 Y188.886 E10.80914
G1 X128.679 Y188.67 E10.83703
G1 X129.29 Y188.511 E10.86871
G1 X129.97 Y188.448 E10.90298
G1 X134.488 Y188.448 E11.12972
G1 X135.33 Y188.393 E11.17207
G1 X135.896 Y188.293 E11.20092
G1 X136.439 Y188.148 E11.22913
G1 X136.967 Y187.956 E11.25733
G1 X137.488 Y187.713 E11.28618
G1 X138.195 Y187.282 E11.32773
G1 X138.643 Y186.939 E11.35605
G1 X139.243 Y186.366 E11.39769
G1 X139.776 Y185.706 E11.44026
G1 X140.082 Y185.225 E11.46887
G1 X140.457 Y184.467 E11.51131
G1 X140.727 Y183.667 E11.55368
G1 X140.849 Y183.119 E11.58186
G1 X140.922 Y182.562 E11.61005
G1 X140.948 Y181.966 E11.63999
G1 X140.948 Y109.561 E15.2737
G1 X140.989 Y109.349 E15.28454
G1 X141.18 Y108.976 E15.30557
G1 X141.471 Y109.147 F7800
G1 F1800
G1 X141.819 Y108.799 E15.33027
G1 X141.938 Y108.721 E15.33741
G1 X142.252 Y108.618 E15.35399
G1 X157.776 Y108.621 E16.13308
G1 X157.883 Y108.646 E16.13859
G1 X158.133 Y108.764 E16.15246
G1 X158.527 Y109.146 E16.18
G1 X158.604 Y109.263 E16.18703
G1 X158.707 Y109.577 E16.20361
G1 X158.707 Y181.974 E19.83692
G1 X158.734 Y182.592 E19.86796
G1 X158.812 Y183.181 E19.89778
G1 X159.018 Y184.03 E19.94162
G1 X159.231 Y184.615 E19.97286
G1 X159.625 Y185.409 E20.01734
G1 X160.111 Y186.133 E20.0611
G1 X160.504 Y186.602 E20.09181
G1 X161.133 Y187.202 E20.13544
G1 X161.61 Y187.568 E20.16561
G1 X162.349 Y188.017 E20.20901
G1 X162.901 Y188.275 E20.23959
G1 X163.458 Y188.477 E20.26933
G1 X164.029 Y188.631 E20.29901
G1 X164.627 Y188.735 E20.32947
G1 X165.5 Y188.793 E20.37338
G1 X170.022 Y188.793 E20.60032
G1 X170.659 Y188.852 E20.63243
G1 X171.177 Y188.985 E20.65927
G1 X171.672 Y189.192 E20.6862
G1 X172.123 Y189.461 E20.71255
G1 X172.532 Y189.793 E20.73899
G1 X172.958 Y190.266 E20.77094
G1 X173.287 Y190.788 E20.80191
G1 X173.526 Y191.356 E20.83284
G1 X173.669 Y191.976 E20.86477
G1 X173.707 Y192.483 E20.89029
G1 X173.707 Y197.244 E21.12923
G1 X173.678 Y197.383 E21.13636
G1 X173.529 Y197.678 E21.15295
G1 X173.181 Y198.026 E21.17765
G1 X173.062 Y198.104 E21.18479
G1 X172.748 Y198.207 E21.20137
G1 X127.256 Y198.207 E23.48443
G1 X127.117 Y198.178 E23.49156
G1 X126.822 Y198.029 E23.50815
G1 X126.474 Y197.681 E23.53285
G1 X126.396 Y197.562 E23.53999
G1 X126.293 Y197.248 E23.55657
G1 X126.293 Y192.473 E23.79621
G1 X126.326 Y192.007 E23.81966
G1 X126.446 Y191.448 E23.84835
G1 X126.682 Y190.848 E23.88071
G1 X127.019 Y190.297 E23.91312
G1 X127.443 Y189.817 E23.94526
G1 X127.853 Y189.479 E23.97193
G1 X128.334 Y189.189 E24.00012
G1 X128.801 Y188.993 E24.02554
G1 X129.362 Y188.849 E24.05461
G1 X129.978 Y188.793 E24.08565
G1 X134.499 Y188.793 E24.31254
G1 X135.371 Y188.736 E24.3564
G1 X135.971 Y188.631 E24.38697
G1 X136.542 Y188.477 E24.41665
G1 X137.099 Y188.275 E24.44639
G1 X137.651 Y188.017 E24.47697
G1 X138.391 Y187.567 E24.52044
G1 X138.867 Y187.202 E24.55054
G1 X139.498 Y186.6 E24.59431
G1 X140.056 Y185.907 E24.63896
G1 X140.383 Y185.394 E24.66949
G1 X140.776 Y184.6 E24.71395
G1 X141.06 Y183.76 E24.75845
G1 X141.189 Y183.179 E24.78832
G1 X141.266 Y182.592 E24.81803
G1 X141.293 Y181.974 E24.84907
G1 X141.293 Y109.58 E28.48223
G1 X141.322 Y109.442 E28.48931
G1 X141.444 Y109.2 E28.50291
G1 X141.738 Y109.368 F7800
G1 F1800
G1 X142.052 Y109.054 E28.5252
G1 X142.285 Y108.963 E28.53775
G1 X157.728 Y108.963 E29.31277
G1 X157.957 Y109.063 E29.32531
G1 X158.271 Y109.377 E29.3476
G1 X158.362 Y109.61 E29.36015
G1 X158.362 Y181.981 E32.99215
G1 X158.39 Y182.622 E33.02435
G1 X158.471 Y183.239 E33.05558
G1 X158.608 Y183.856 E33.0873
G1 X158.691 Y184.141 E33.1022
G1 X158.91 Y184.74 E33.13421
G1 X159.027 Y185.008 E33.14889
G1 X159.323 Y185.577 E33.18108
G1 X159.477 Y185.83 E33.19594
G1 X159.838 Y186.345 E33.2275
G1 X160.244 Y186.829 E33.2592
G1 X160.446 Y187.04 E33.27386
G1 X160.912 Y187.467 E33.30558
G1 X161.411 Y187.849 E33.33712
G1 X161.939 Y188.186 E33.36856
G1 X162.196 Y188.327 E33.38327
G1 X162.769 Y188.594 E33.415
G1 X163.354 Y188.807 E33.44624
G1 X163.955 Y188.968 E33.47747
G1 X164.58 Y189.077 E33.50931
G1 X165.193 Y189.131 E33.54019
G1 X165.5 Y189.138 E33.5556
G1 X170.015 Y189.138 E33.78219
G1 X170.588 Y189.19 E33.81106
G1 X171.057 Y189.309 E33.83534
G1 X171.507 Y189.495 E33.85978
G1 X171.917 Y189.738 E33.8837
G1 X172.286 Y190.035 E33.90747
G1 X172.675 Y190.463 E33.9365
G1 X172.988 Y190.959 E33.96593
G1 X173.201 Y191.474 E33.9939
G1 X173.33 Y192.039 E34.02298
G1 X173.362 Y192.489 E34.04562
G1 X173.362 Y197.228 E34.28345
G1 X173.262 Y197.457 E34.29599
G1 X172.948 Y197.771 E34.31828
G1 X172.715 Y197.862 E34.33083
G1 X127.272 Y197.862 E36.61143
G1 X127.043 Y197.762 E36.62397
G1 X126.729 Y197.448 E36.64626
G1 X126.638 Y197.215 E36.65881
G1 X126.638 Y192.478 E36.89654
G1 X126.666 Y192.067 E36.91721
G1 X126.78 Y191.535 E36.94452
G1 X126.996 Y190.99 E36.97394
G1 X127.304 Y190.492 E37.00333
G1 X127.691 Y190.057 E37.03255
G1 X128.062 Y189.753 E37.05662
G1 X128.48 Y189.501 E37.08112
G1 X128.899 Y189.324 E37.10395
G1 X129.434 Y189.186 E37.13168
G1 X129.985 Y189.138 E37.15944
G1 X134.499 Y189.138 E37.38598
G1 X134.816 Y189.13 E37.40189
G1 X135.418 Y189.078 E37.43221
G1 X136.045 Y188.968 E37.46416
G1 X136.646 Y188.807 E37.49539
G1 X137.231 Y188.594 E37.52663
G1 X137.803 Y188.327 E37.55831
G1 X138.062 Y188.185 E37.57313
G1 X138.59 Y187.849 E37.60454
G1 X139.088 Y187.467 E37.63604
G1 X139.554 Y187.04 E37.66776
G1 X139.756 Y186.829 E37.68242
G1 X140.168 Y186.338 E37.71459
G1 X140.343 Y186.098 E37.7295
G1 X140.681 Y185.569 E37.761
G1 X140.973 Y185.008 E37.79274
G1 X141.094 Y184.731 E37.80791
G1 X141.204 Y184.45 E37.82305
G1 X141.394 Y183.847 E37.85478
G1 X141.529 Y183.239 E37.88604
G1 X141.61 Y182.622 E37.91727
G1 X141.638 Y181.981 E37.94947
G1 X141.638 Y109.597 E41.58213
G1 X141.712 Y109.422 E41.59167
G1 X142.009 Y109.584 F7800
G1 F1800
G1 X142.259 Y109.334 E41.60941
G1 X142.323 Y109.308 E41.61288
G1 X157.677 Y109.308 E42.38343
G1 X157.741 Y109.334 E42.3869
G1 X157.991 Y109.584 E42.40464
G1 X158.017 Y109.648 E42.40811
G1 X158.017 Y181.989 E46.03861
G1 X158.046 Y182.652 E46.07192
G1 X158.132 Y183.299 E46.10468
G1 X158.274 Y183.942 E46.13773
G1 X158.363 Y184.248 E46.15372
G1 X158.589 Y184.869 E46.18689
G1 X158.716 Y185.157 E46.20269
G1 X159.023 Y185.746 E46.23602
G1 X159.189 Y186.019 E46.25205
G1 X159.564 Y186.555 E46.28488
G1 X159.987 Y187.059 E46.3179
G1 X160.205 Y187.287 E46.33373
G1 X160.69 Y187.732 E46.36676
G1 X161.213 Y188.132 E46.3998
G1 X161.764 Y188.483 E46.43259
G1 X162.04 Y188.634 E46.44838
G1 X162.637 Y188.913 E46.48145
G1 X163.25 Y189.136 E46.51419
G1 X163.88 Y189.305 E46.54692
G1 X164.536 Y189.42 E46.58034
G1 X165.174 Y189.475 E46.61248
G1 X165.496 Y189.483 E46.62864
G1 X170.007 Y189.483 E46.85503
G1 X170.518 Y189.528 E46.88077
G1 X170.937 Y189.633 E46.90245
G1 X171.364 Y189.809 E46.92563
G1 X171.711 Y190.015 E46.94588
G1 X172.041 Y190.279 E46.96709
G1 X172.392 Y190.662 E46.99316
G1 X172.675 Y191.105 E47.01954
G1 X172.877 Y191.592 E47.046
G1 X172.99 Y192.101 E47.07217
G1 X173.017 Y192.495 E47.09199
G1 X173.017 Y197.177 E47.32696
G1 X172.991 Y197.241 E47.33043
G1 X172.741 Y197.491 E47.34817
G1 X172.677 Y197.517 E47.35164
G1 X127.323 Y197.517 E49.62777
G1 X127.259 Y197.491 E49.63124
G1 X127.009 Y197.241 E49.64898
G1 X126.983 Y197.177 E49.65245
G1 X126.983 Y192.494 E49.88747
G1 X127.006 Y192.127 E49.90592
G1 X127.114 Y191.622 E49.93184
G1 X127.31 Y191.134 E49.95823
G1 X127.588 Y190.688 E49.98461
G1 X127.938 Y190.298 E50.01091
G1 X128.269 Y190.029 E50.03232
G1 X128.627 Y189.813 E50.0533
G1 X128.998 Y189.654 E50.07356
G1 X129.506 Y189.524 E50.09988
G1 X129.992 Y189.483 E50.12436
G1 X134.504 Y189.483 E50.3508
G1 X134.835 Y189.475 E50.36742
G1 X135.463 Y189.42 E50.39906
G1 X136.12 Y189.305 E50.43253
G1 X136.75 Y189.136 E50.46526
G1 X137.363 Y188.913 E50.498
G1 X137.959 Y188.635 E50.531
G1 X138.238 Y188.482 E50.54697
G1 X138.788 Y188.132 E50.57969
G1 X139.31 Y187.732 E50.61269
G1 X139.795 Y187.287 E50.64572
G1 X140.013 Y187.059 E50.66155
G1 X140.44 Y186.551 E50.69485
G1 X140.628 Y186.293 E50.71087
G1 X140.98 Y185.741 E50.74373
G1 X141.284 Y185.157 E50.77677
G1 X141.413 Y184.863 E50.79288
G1 X141.529 Y184.564 E50.80898
G1 X141.727 Y183.937 E50.84198
G1 X141.869 Y183.299 E50.87478
G1 X141.954 Y182.652 E50.90753
G1 X141.983 Y181.989 E50.94084
G1 X141.986 Y109.64 E54.57174
G1 X142.328 Y109.754 F7800
G1 F1800
G1 X142.429 Y109.653 E54.57891
G1 X157.571 Y109.653 E55.33883
G1 X157.672 Y109.754 E55.346
G1 X157.672 Y181.996 E58.97153
G1 X157.702 Y182.682 E59.00599
G1 X157.792 Y183.359 E59.04026
G1 X157.94 Y184.028 E59.07465
G1 X158.036 Y184.356 E59.0918
G1 X158.269 Y184.997 E59.12603
G1 X158.405 Y185.306 E59.14297
G1 X158.722 Y185.915 E59.17743
G1 X158.9 Y186.207 E59.19459
G1 X159.29 Y186.765 E59.22876
G1 X159.73 Y187.29 E59.26314
G1 X159.964 Y187.534 E59.28011
G1 X160.469 Y187.996 E59.31446
G1 X161.015 Y188.415 E59.349
G1 X161.588 Y188.78 E59.3831
G1 X161.884 Y188.942 E59.40003
G1 X162.505 Y189.232 E59.43443
G1 X163.146 Y189.465 E59.46866
G1 X163.806 Y189.642 E59.50295
G1 X164.491 Y189.762 E59.53785
G1 X165.155 Y189.82 E59.5713
G1 X165.492 Y189.827 E59.58822
G1 X170 Y189.828 E59.81446
G1 X170.449 Y189.866 E59.83707
G1 X170.818 Y189.956 E59.85613
G1 X171.22 Y190.123 E59.87798
G1 X171.524 Y190.305 E59.89576
G1 X171.797 Y190.523 E59.91329
G1 X172.111 Y190.862 E59.93648
G1 X172.363 Y191.254 E59.95987
G1 X172.544 Y191.683 E59.98324
G1 X172.651 Y192.162 E60.00787
G1 X172.672 Y192.5 E60.02487
G1 X172.672 Y197.071 E60.25427
G1 X172.571 Y197.172 E60.26144
G1 X127.429 Y197.172 E62.52693
G1 X127.328 Y197.071 E62.5341
G1 X127.328 Y192.5 E62.7635
G1 X127.349 Y192.162 E62.7805
G1 X127.448 Y191.71 E62.80372
G1 X127.624 Y191.279 E62.82708
G1 X127.872 Y190.885 E62.85044
G1 X128.185 Y190.54 E62.87382
G1 X128.459 Y190.317 E62.89155
G1 X128.776 Y190.125 E62.91015
G1 X129.099 Y189.984 E62.92784
G1 X129.55 Y189.866 E62.95124
G1 X130 Y189.828 E62.9739
G1 X134.508 Y189.827 E63.20014
G1 X134.854 Y189.819 E63.21751
G1 X135.508 Y189.762 E63.25046
G1 X136.194 Y189.642 E63.28541
G1 X136.854 Y189.465 E63.3197
G1 X137.495 Y189.232 E63.35393
G1 X138.115 Y188.942 E63.38828
G1 X138.414 Y188.779 E63.40537
G1 X138.986 Y188.414 E63.43942
G1 X139.531 Y187.996 E63.47389
G1 X140.036 Y187.534 E63.50824
G1 X140.27 Y187.29 E63.52521
G1 X140.711 Y186.764 E63.55966
G1 X140.913 Y186.488 E63.57682
G1 X141.279 Y185.914 E63.61098
G1 X141.595 Y185.306 E63.64537
G1 X141.732 Y184.995 E63.66243
G1 X141.855 Y184.679 E63.67945
G1 X142.061 Y184.026 E63.71381
G1 X142.208 Y183.359 E63.74809
G1 X142.298 Y182.682 E63.78236
G1 X142.328 Y181.996 E63.81682
G1 X142.328 Y109.814 E67.43934
G1 E65.43934 F2400
G92 E0
G1 X164.858 Y190.859 F7800
G1 E2 F2400
;TYPE:Perimeter
;WIDTH:0.42
G1 F1800
G1 X165.49 Y190.9 E2.03178
G1 X169 Y190.9 E2.20793
G1 X170.193 Y190.92 E2.26781
G1 X170.579 Y191.018 E2.2878
G1 X171.091 Y191.337 E2.31807
G1 X171.416 Y191.763 E2.34496
G1 X171.552 Y192.151 E2.36559
G1 X171.6 Y192.585 E2.3875
G1 X171.6 Y196.1 E2.5639
G1 X128.4 Y196.1 E4.73193
G1 X128.415 Y192.301 E4.92259
G1 X128.584 Y191.763 E4.95089
G1 X128.811 Y191.443 E4.97058
G1 X129.209 Y191.126 E4.99612
G1 X129.516 Y190.983 E5.01312
G1 X130.039 Y190.9 E5.0397
G1 X134.51 Y190.9 E5.26408
G1 X135.684 Y190.82 E5.32313
G1 X136.463 Y190.68 E5.36285
G1 X137.212 Y190.476 E5.40181
G1 X137.94 Y190.207 E5.44076
G1 X138.657 Y189.867 E5.48058
G1 X139.553 Y189.324 E5.53316
G1 X140.249 Y188.793 E5.57709
G1 X140.831 Y188.252 E5.61697
G1 X141.593 Y187.372 E5.67539
G1 X142.178 Y186.498 E5.72817
G1 X142.549 Y185.795 E5.76806
G1 X143.003 Y184.622 E5.83118
G1 X143.27 Y183.508 E5.88867
G1 X143.368 Y182.738 E5.92762
G1 X143.4 Y182.001 E5.96464
G1 X143.4 Y110.725 E9.54169
G1 X156.6 Y110.725 E10.20414
G1 X156.6 Y182.001 E13.78119
G1 X156.638 Y182.813 E13.82199
G1 X156.78 Y183.749 E13.8695
G1 X156.92 Y184.357 E13.90081
G1 X157.301 Y185.457 E13.95923
G1 X157.822 Y186.497 E14.01761
G1 X158.406 Y187.372 E14.0704
G1 X158.978 Y188.053 E14.11503
G1 X159.737 Y188.78 E14.16778
G1 X160.432 Y189.315 E14.2118
G1 X161.099 Y189.734 E14.25133
G1 X162.043 Y190.199 E14.30414
G1 X162.86 Y190.498 E14.3478
G1 X163.611 Y190.696 E14.38678
G1 X164.388 Y190.829 E14.42634
G1 X164.798 Y190.855 E14.44696
G1 X164.88 Y190.515 F7800
G1 F1800
G1 X165.49 Y190.555 E14.47764
G1 X169 Y190.555 E14.65379
G1 X170.343 Y190.587 E14.72121
G1 X170.711 Y190.699 E14.74051
G1 X171.097 Y190.919 E14.76281
G1 X171.443 Y191.21 E14.7855
G1 X171.723 Y191.603 E14.80972
G1 X171.889 Y192.076 E14.83488
G1 X171.945 Y192.585 E14.86058
G1 X171.945 Y196.445 E15.0543
G1 X128.055 Y196.445 E17.25696
G1 X128.062 Y192.414 E17.45926
G1 X128.147 Y191.916 E17.48461
G1 X128.363 Y191.468 E17.50957
G1 X128.68 Y191.076 E17.53487
G1 X129.118 Y190.769 E17.56171
G1 X129.51 Y190.627 E17.58263
G1 X130.024 Y190.555 E17.60868
G1 X134.51 Y190.555 E17.83381
G1 X135.625 Y190.48 E17.88989
G1 X136.374 Y190.347 E17.92807
G1 X137.094 Y190.152 E17.96551
G1 X137.795 Y189.895 E18.00298
G1 X138.479 Y189.572 E18.04094
G1 X139.375 Y189.029 E18.09352
G1 X140.016 Y188.539 E18.13401
G1 X140.572 Y188.025 E18.17201
G1 X141.307 Y187.181 E18.22818
G1 X141.92 Y186.258 E18.28379
G1 X142.374 Y185.308 E18.33663
G1 X142.668 Y184.54 E18.3779
G1 X142.928 Y183.463 E18.4335
G1 X143.024 Y182.723 E18.47095
G1 X143.055 Y182.001 E18.50722
G1 X143.055 Y110.38 E22.10158
G1 X156.945 Y110.38 E22.79866
G1 X156.945 Y182.001 E26.39302
G1 X156.98 Y182.768 E26.43155
G1 X157.116 Y183.674 E26.47753
G1 X157.246 Y184.246 E26.50697
G1 X157.61 Y185.304 E26.56312
G1 X158.109 Y186.306 E26.6193
G1 X158.693 Y187.18 E26.67205
G1 X159.216 Y187.804 E26.71291
G1 X159.976 Y188.531 E26.76569
G1 X160.617 Y189.024 E26.80627
G1 X161.252 Y189.425 E26.84396
G1 X162.195 Y189.89 E26.89673
G1 X162.949 Y190.165 E26.93701
