; generated by PrusaSlicer 2.6.0 on 2023-06-25 at 17:37:47 UTC

; 

; external perimeters extrusion width = 0.45mm
; perimeters extrusion width = 0.45mm
; infill extrusion width = 0.45mm
; solid infill extrusion width = 0.45mm
; top infill extrusion width = 0.40mm
; first layer extrusion width = 0.42mm

M104 S220 ; set temperature
;TYPE:Custom
G28 ;Home
G1 Z15.0 F2000 ;Move the platform
M106 S255
M109 S220 ; set temperature and wait for it to be reached
G21 ; set units to millimeters
G90 ; use absolute coordinates
M82 ; use absolute distances for extrusion
G92 E0
; Filament gcode
M107
;LAYER_CHANGE
;Z:0.35
;HEIGHT:0.35
G1 Z.35 F7800
G1 E-2 F2400
G92 E0
G1 X141.208 Y108.922 F7800
G1 E2 F2400
;TYPE:Skirt/Brim
;WIDTH:0.42
G1 F1800
G1 X141.588 Y108.543 E2.02693
G1 X141.807 Y108.402 E2.04
G1 X142.223 Y108.273 E2.06186
G1 X157.796 Y108.276 E2.84341
G1 X158.014 Y108.327 E2.85465
G1 X158.307 Y108.465 E2.8709
G1 X158.781 Y108.912 E2.9036
G1 X158.923 Y109.132 E2.91674
G1 X159.052 Y109.548 E2.9386
G1 X159.052 Y181.966 E6.57296
G1 X159.078 Y182.562 E6.6029
G1 X159.151 Y183.118 E6.63104
G1 X159.349 Y183.93 E6.67298
G1 X159.549 Y184.479 E6.7023
G1 X159.918 Y185.225 E6.74407
G1 X160.226 Y185.709 E6.77286
G1 X160.757 Y186.366 E6.81525
G1 X161.357 Y186.939 E6.85689
G1 X161.805 Y187.282 E6.88521
G1 X162.512 Y187.713 E6.92676
G1 X163.033 Y187.956 E6.95561
G1 X163.561 Y188.148 E6.98381
G1 X164.104 Y188.293 E7.01202
G1 X164.669 Y188.393 E7.04082
G1 X165.512 Y188.448 E7.08322
G1 X170.03 Y188.448 E7.30996
G1 X170.731 Y188.515 E7.3453
G1 X171.298 Y188.662 E7.3747
G1 X171.838 Y188.889 E7.4041
G1 X172.33 Y189.185 E7.43292
G1 X172.779 Y189.552 E7.46202
G1 X173.224 Y190.047 E7.49542
G1 X173.587 Y190.616 E7.52929
G1 X173.85 Y191.237 E7.56314
G1 X174.008 Y191.912 E7.59793
G1 X174.052 Y192.477 E7.62637
G1 X174.052 Y197.264 E7.86661
G1 X174.011 Y197.476 E7.87745
G1 X173.792 Y197.903 E7.90153
G1 X173.412 Y198.282 E7.92846
G1 X173.193 Y198.423 E7.94153
G1 X172.777 Y198.552 E7.96339
G1 X127.236 Y198.552 E10.24891
G1 X127.024 Y198.511 E10.25975
G1 X126.597 Y198.292 E10.28383
G1 X126.218 Y197.912 E10.31076
G1 X126.077 Y197.693 E10.32383
G1 X125.948 Y197.277 E10.34569
G1 X125.948 Y192.466 E10.58713
G1 X125.983 Y191.971 E10.61203
G1 X126.12 Y191.335 E10.64468
G1 X126.366 Y190.708 E10.67848
G1 X126.75 Y190.08 E10.71542
G1 X127.194 Y189.579 E10.74902
G1 X127.664 Y189.19 E10.77964
G1 X128.167 Y188.886 E10.80914
G1 X128.679 Y188.67 E10.83703
G1 X129.29 Y188.511 E10.86871
G1 X129.97 Y188.448 E10.90298
G1 X134.47 Y188.448 E11.12882
G1 X135.063 Y188.422 E11.15861
G1 X135.629 Y188.347 E11.18726
G1 X136.431 Y188.15 E11.22871
G1 X136.967 Y187.956 E11.25732
G1 X137.488 Y187.713 E11.28617
G1 X138.194 Y187.283 E11.32766
G1 X138.643 Y186.939 E11.35605
G1 X139.244 Y186.365 E11.39776
G1 X139.615 Y185.923 E11.42672
G1 X140.076 Y185.236 E11.46824
G1 X140.451 Y184.479 E11.51064
G1 X140.653 Y183.926 E11.54019
G1 X140.849 Y183.118 E11.58192
G1 X140.922 Y182.562 E11.61006
G1 X140.948 Y181.966 E11.64
G1 X140.948 Y109.561 E15.27371
G1 X140.989 Y109.349 E15.28455
G1 X141.18 Y108.976 E15.30558
G1 X141.471 Y109.147 F7800
G1 F1800
G1 X141.819 Y108.799 E15.33028
G1 X141.938 Y108.721 E15.33742
G1 X142.252 Y108.618 E15.354
G1 X157.776 Y108.621 E16.13309
G1 X157.883 Y108.646 E16.1386
G1 X158.133 Y108.764 E16.15247
G1 X158.527 Y109.146 E16.18001
G1 X158.604 Y109.263 E16.18704
G1 X158.707 Y109.577 E16.20362
G1 X158.707 Y181.974 E19.83693
G1 X158.734 Y182.592 E19.86797
G1 X158.812 Y183.181 E19.89779
G1 X159.018 Y184.03 E19.94163
G1 X159.231 Y184.615 E19.97287
G1 X159.617 Y185.394 E20.0165
G1 X159.946 Y185.91 E20.04721
G1 X160.502 Y186.6 E20.09168
G1 X161.133 Y187.202 E20.13545
G1 X161.609 Y187.567 E20.16555
G1 X162.349 Y188.017 E20.20902
G1 X162.901 Y188.275 E20.2396
G1 X163.458 Y188.477 E20.26934
G1 X164.029 Y188.631 E20.29902
G1 X164.628 Y188.736 E20.32954
G1 X165.5 Y188.793 E20.3734
G1 X170.022 Y188.793 E20.60034
G1 X170.659 Y188.852 E20.63245
G1 X171.177 Y188.985 E20.65929
G1 X171.672 Y189.192 E20.68622
G1 X172.123 Y189.461 E20.71257
G1 X172.532 Y189.793 E20.73901
G1 X172.958 Y190.266 E20.77096
G1 X173.287 Y190.788 E20.80193
G1 X173.526 Y191.356 E20.83286
G1 X173.669 Y191.976 E20.86479
G1 X173.707 Y192.483 E20.89031
G1 X173.707 Y197.244 E21.12925
G1 X173.678 Y197.383 E21.13638
G1 X173.529 Y197.678 E21.15297
G1 X173.181 Y198.026 E21.17767
G1 X173.062 Y198.104 E21.18481
G1 X172.748 Y198.207 E21.20139
G1 X127.256 Y198.207 E23.48445
G1 X127.117 Y198.178 E23.49158
G1 X126.822 Y198.029 E23.50817
G1 X126.474 Y197.681 E23.53287
G1 X126.396 Y197.562 E23.54001
G1 X126.293 Y197.248 E23.55659
G1 X126.293 Y192.473 E23.79623
G1 X126.326 Y192.007 E23.81968
G1 X126.446 Y191.448 E23.84837
G1 X126.682 Y190.848 E23.88073
G1 X127.019 Y190.297 E23.91314
G1 X127.443 Y189.817 E23.94528
G1 X127.853 Y189.479 E23.97195
G1 X128.334 Y189.189 E24.00014
G1 X128.801 Y188.993 E24.02556
G1 X129.362 Y188.849 E24.05463
G1 X129.978 Y188.793 E24.08567
G1 X134.478 Y188.793 E24.31151
G1 X135.093 Y188.766 E24.3424
G1 X135.693 Y188.687 E24.37277
G1 X136.531 Y188.481 E24.41608
G1 X137.099 Y188.275 E24.4464
G1 X137.651 Y188.017 E24.47698
G1 X138.389 Y187.568 E24.52033
G1 X138.867 Y187.202 E24.55054
G1 X139.496 Y186.602 E24.59417
G1 X139.892 Y186.13 E24.62509
G1 X140.375 Y185.41 E24.6686
G1 X140.769 Y184.615 E24.71313
G1 X140.983 Y184.026 E24.74458
G1 X141.188 Y183.181 E24.78822
G1 X141.266 Y182.592 E24.81804
G1 X141.293 Y181.974 E24.84908
G1 X141.293 Y109.58 E28.48224
G1 X141.322 Y109.442 E28.48932
G1 X141.444 Y109.2 E28.50292
G1 X141.738 Y109.368 F7800
G1 F1800
G1 X142.052 Y109.054 E28.52521
G1 X142.285 Y108.963 E28.53776
G1 X157.728 Y108.963 E29.31278
G1 X157.957 Y109.063 E29.32532
G1 X158.271 Y109.377 E29.34761
G1 X158.362 Y109.61 E29.36016
G1 X158.362 Y181.981 E32.99216
G1 X158.39 Y182.622 E33.02436
G1 X158.471 Y183.239 E33.05559
G1 X158.608 Y183.856 E33.08731
G1 X158.691 Y184.141 E33.10221
G1 X158.91 Y184.74 E33.13422
G1 X159.027 Y185.008 E33.1489
G1 X159.319 Y185.568 E33.1806
G1 X159.659 Y186.102 E33.21237
G1 X159.832 Y186.337 E33.22701
G1 X160.244 Y186.829 E33.25922
G1 X160.446 Y187.04 E33.27388
G1 X160.912 Y187.467 E33.3056
G1 X161.41 Y187.849 E33.3371
G1 X161.939 Y188.186 E33.36858
G1 X162.196 Y188.327 E33.38329
G1 X162.769 Y188.594 E33.41502
G1 X163.354 Y188.807 E33.44626
G1 X163.955 Y188.968 E33.47749
G1 X164.582 Y189.077 E33.50943
G1 X165.19 Y189.131 E33.54006
G1 X165.5 Y189.138 E33.55562
G1 X170.015 Y189.138 E33.78221
G1 X170.588 Y189.19 E33.81108
G1 X171.057 Y189.309 E33.83536
G1 X171.507 Y189.495 E33.8598
G1 X171.917 Y189.738 E33.88372
G1 X172.286 Y190.035 E33.90749
G1 X172.675 Y190.463 E33.93652
G1 X172.988 Y190.959 E33.96595
G1 X173.201 Y191.474 E33.99392
G1 X173.33 Y192.039 E34.023
G1 X173.362 Y192.489 E34.04564
G1 X173.362 Y197.228 E34.28347
G1 X173.262 Y197.457 E34.29601
G1 X172.948 Y197.771 E34.3183
G1 X172.715 Y197.862 E34.33085
G1 X127.272 Y197.862 E36.61145
G1 X127.043 Y197.762 E36.62399
G1 X126.729 Y197.448 E36.64628
G1 X126.638 Y197.215 E36.65883
G1 X126.638 Y192.478 E36.89656
G1 X126.666 Y192.067 E36.91723
G1 X126.78 Y191.535 E36.94454
G1 X126.996 Y190.99 E36.97396
G1 X127.304 Y190.492 E37.00335
G1 X127.691 Y190.057 E37.03257
G1 X128.062 Y189.753 E37.05664
G1 X128.48 Y189.501 E37.08114
G1 X128.899 Y189.324 E37.10397
G1 X129.434 Y189.186 E37.1317
G1 X129.985 Y189.138 E37.15946
G1 X134.485 Y189.138 E37.3853
G1 X135.123 Y189.11 E37.41735
G1 X135.757 Y189.026 E37.44945
G1 X136.632 Y188.811 E37.49467
G1 X137.231 Y188.594 E37.52664
G1 X137.804 Y188.327 E37.55837
G1 X138.062 Y188.185 E37.57315
G1 X138.589 Y187.85 E37.60449
G1 X139.088 Y187.467 E37.63606
G1 X139.554 Y187.04 E37.66778
G1 X139.756 Y186.829 E37.68244
G1 X140.164 Y186.342 E37.71432
G1 X140.525 Y185.827 E37.74588
G1 X140.676 Y185.577 E37.76054
G1 X140.973 Y185.008 E37.79275
G1 X141.09 Y184.74 E37.80743
G1 X141.31 Y184.137 E37.83964
G1 X141.392 Y183.856 E37.85433
G1 X141.529 Y183.239 E37.88605
G1 X141.61 Y182.622 E37.91728
G1 X141.638 Y181.981 E37.94948
G1 X141.638 Y109.597 E41.58214
G1 X141.712 Y109.422 E41.59168
G1 X142.009 Y109.584 F7800
G1 F1800
G1 X142.259 Y109.334 E41.60942
G1 X142.323 Y109.308 E41.61289
G1 X157.677 Y109.308 E42.38344
G1 X157.741 Y109.334 E42.38691
G1 X157.991 Y109.584 E42.40465
G1 X158.017 Y109.648 E42.40812
G1 X158.017 Y181.989 E46.03862
G1 X158.046 Y182.652 E46.07193
G1 X158.131 Y183.299 E46.10468
G1 X158.274 Y183.942 E46.13774
G1 X158.363 Y184.248 E46.15373
G1 X158.589 Y184.869 E46.1869
G1 X158.716 Y185.157 E46.2027
G1 X159.02 Y185.741 E46.23574
G1 X159.374 Y186.296 E46.26878
G1 X159.56 Y186.551 E46.28462
G1 X159.987 Y187.059 E46.31792
G1 X160.205 Y187.287 E46.33375
G1 X160.69 Y187.732 E46.36678
G1 X161.212 Y188.132 E46.39978
G1 X161.764 Y188.483 E46.43261
G1 X162.04 Y188.634 E46.4484
G1 X162.637 Y188.913 E46.48147
G1 X163.25 Y189.136 E46.51421
G1 X163.88 Y189.305 E46.54694
G1 X164.537 Y189.42 E46.58041
G1 X165.171 Y189.475 E46.61235
G1 X165.496 Y189.483 E46.62867
G1 X170.007 Y189.483 E46.85506
G1 X170.518 Y189.528 E46.8808
G1 X170.937 Y189.633 E46.90248
G1 X171.364 Y189.809 E46.92566
G1 X171.711 Y190.015 E46.94591
G1 X172.041 Y190.279 E46.96712
G1 X172.392 Y190.662 E46.99319
G1 X172.675 Y191.105 E47.01957
G1 X172.877 Y191.592 E47.04603
G1 X172.99 Y192.101 E47.0722
G1 X173.017 Y192.495 E47.09202
G1 X173.017 Y197.177 E47.32699
G1 X172.991 Y197.241 E47.33046
G1 X172.741 Y197.491 E47.3482
G1 X172.677 Y197.517 E47.35167
G1 X127.323 Y197.517 E49.6278
G1 X127.259 Y197.491 E49.63127
G1 X127.009 Y197.241 E49.64901
G1 X126.983 Y197.177 E49.65248
G1 X126.983 Y192.494 E49.8875
G1 X127.006 Y192.127 E49.90595
G1 X127.114 Y191.622 E49.93187
G1 X127.31 Y191.134 E49.95826
G1 X127.588 Y190.688 E49.98464
G1 X127.938 Y190.298 E50.01094
G1 X128.269 Y190.029 E50.03235
G1 X128.627 Y189.813 E50.05333
G1 X128.998 Y189.654 E50.07359
G1 X129.506 Y189.524 E50.09991
G1 X129.992 Y189.483 E50.12439
G1 X134.493 Y189.483 E50.35028
G1 X135.154 Y189.454 E50.38348
G1 X135.809 Y189.367 E50.41664
G1 X136.115 Y189.306 E50.4323
G1 X136.737 Y189.14 E50.46461
G1 X137.363 Y188.913 E50.49803
G1 X137.96 Y188.634 E50.5311
G1 X138.237 Y188.482 E50.54696
G1 X138.787 Y188.132 E50.57968
G1 X139.31 Y187.732 E50.61272
G1 X139.795 Y187.287 E50.64575
G1 X140.013 Y187.059 E50.66158
G1 X140.438 Y186.552 E50.69478
G1 X140.814 Y186.016 E50.72764
G1 X140.977 Y185.746 E50.74347
G1 X141.284 Y185.157 E50.7768
G1 X141.411 Y184.869 E50.7926
G1 X141.638 Y184.245 E50.82592
G1 X141.726 Y183.942 E50.84175
G1 X141.869 Y183.299 E50.87481
G1 X141.954 Y182.652 E50.90756
G1 X141.983 Y181.989 E50.94087
G1 X141.986 Y109.64 E54.57177
G1 X142.328 Y109.754 F7800
G1 F1800
G1 X142.429 Y109.653 E54.57894
G1 X157.571 Y109.653 E55.33886
G1 X157.672 Y109.754 E55.34603
G1 X157.672 Y181.996 E58.97156
G1 X157.702 Y182.682 E59.00602
G1 X157.792 Y183.359 E59.04029
G1 X157.94 Y184.028 E59.07468
G1 X158.036 Y184.356 E59.09183
G1 X158.269 Y184.997 E59.12606
G1 X158.405 Y185.306 E59.143
G1 X158.721 Y185.914 E59.17739
G1 X159.089 Y186.491 E59.21174
G1 X159.289 Y186.764 E59.22872
G1 X159.73 Y187.29 E59.26317
G1 X159.964 Y187.534 E59.28014
G1 X160.469 Y187.996 E59.31449
G1 X161.014 Y188.414 E59.34896
G1 X161.588 Y188.78 E59.38312
G1 X161.884 Y188.942 E59.40005
G1 X162.505 Y189.232 E59.43445
G1 X163.146 Y189.465 E59.46868
G1 X163.806 Y189.642 E59.50297
G1 X164.492 Y189.762 E59.53792
G1 X165.152 Y189.82 E59.57117
G1 X165.492 Y189.827 E59.58824
G1 X170 Y189.828 E59.81448
G1 X170.449 Y189.866 E59.83709
G1 X170.818 Y189.956 E59.85615
G1 X171.22 Y190.123 E59.878
G1 X171.524 Y190.305 E59.89578
G1 X171.797 Y190.523 E59.91331
G1 X172.111 Y190.862 E59.9365
G1 X172.363 Y191.254 E59.95989
G1 X172.544 Y191.683 E59.98326
G1 X172.651 Y192.162 E60.00789
G1 X172.672 Y192.5 E60.02489
G1 X172.672 Y197.071 E60.25429
G1 X172.571 Y197.172 E60.26146
G1 X127.429 Y197.172 E62.52695
G1 X127.328 Y197.071 E62.53412
G1 X127.328 Y192.5 E62.76352
G1 X127.349 Y192.162 E62.78052
G1 X127.448 Y191.71 E62.80374
G1 X127.624 Y191.279 E62.8271
G1 X127.872 Y190.885 E62.85046
G1 X128.185 Y190.54 E62.87384
G1 X128.459 Y190.317 E62.89157
G1 X128.776 Y190.125 E62.91017
G1 X129.099 Y189.984 E62.92786
G1 X129.55 Y189.866 E62.95126
G1 X130 Y189.828 E62.97392
G1 X134.5 Y189.828 E63.19976
G1 X135.184 Y189.797 E63.23412
G1 X135.865 Y189.707 E63.26859
G1 X136.194 Y189.642 E63.28542
G1 X136.84 Y189.469 E63.31898
G1 X137.495 Y189.232 E63.35394
G1 X138.116 Y188.942 E63.38834
G1 X138.413 Y188.779 E63.40534
G1 X138.985 Y188.415 E63.43937
G1 X139.531 Y187.996 E63.47391
G1 X140.036 Y187.534 E63.50826
G1 X140.27 Y187.29 E63.52523
G1 X140.712 Y186.762 E63.55979
G1 X141.103 Y186.204 E63.59398
G1 X141.278 Y185.915 E63.61094
G1 X141.595 Y185.306 E63.6454
G1 X141.731 Y184.997 E63.66234
G1 X141.966 Y184.352 E63.69679
G1 X142.06 Y184.028 E63.71372
G1 X142.208 Y183.359 E63.74811
G1 X142.298 Y182.682 E63.78238
G1 X142.328 Y181.996 E63.81684
G1 X142.328 Y109.814 E67.43936
G1 E65.43936 F2400
G92 E0
G1 X165.447 Y190.897 F7800
G1 E2 F2400
;TYPE:Perimeter
;WIDTH:0.42
G1 F1800
G1 X169 Y190.9 E2.17831
G1 X170.193 Y190.92 E2.23819
G1 X170.579 Y191.018 E2.25818
G1 X171.091 Y191.337 E2.28845
G1 X171.416 Y191.763 E2.31534
G1 X171.552 Y192.151 E2.33597
G1 X171.6 Y192.585 E2.35788
G1 X171.6 Y196.1 E2.53428
G1 X128.4 Y196.1 E4.70231
G1 X128.415 Y192.301 E4.89297
G1 X128.584 Y191.763 E4.92127
G1 X128.811 Y191.443 E4.94096
G1 X129.209 Y191.126 E4.9665
G1 X129.516 Y190.983 E4.9835
G1 X130.039 Y190.9 E5.01008
G1 X134.543 Y190.899 E5.23612
G1 X135.315 Y190.862 E5.27491
G1 X136.104 Y190.752 E5.31489
G1 X137.197 Y190.48 E5.37142
G1 X137.94 Y190.207 E5.41115
G1 X138.658 Y189.867 E5.45102
G1 X139.552 Y189.325 E5.50349
G1 X140.249 Y188.793 E5.54749
G1 X140.831 Y188.252 E5.58737
G1 X141.583 Y187.388 E5.64485
G1 X142.035 Y186.734 E5.68475
G1 X142.54 Y185.812 E5.73751
G1 X143.003 Y184.622 E5.80159
G1 X143.27 Y183.508 E5.85908
G1 X143.368 Y182.738 E5.89803
G1 X143.4 Y182.001 E5.93505
G1 X143.4 Y110.725 E9.5121
G1 X156.6 Y110.725 E10.17455
G1 X156.6 Y182.001 E13.7516
G1 X156.638 Y182.813 E13.7924
G1 X156.78 Y183.749 E13.83991
G1 X156.92 Y184.357 E13.87122
G1 X157.301 Y185.457 E13.92964
G1 X157.766 Y186.4 E13.98241
G1 X158.243 Y187.149 E14.02697
G1 X158.901 Y187.969 E14.07973
G1 X159.737 Y188.78 E14.13818
G1 X160.431 Y189.314 E14.18213
G1 X161.099 Y189.734 E14.22173
G1 X162.129 Y190.236 E14.27923
G1 X162.86 Y190.498 E14.3182
G1 X163.612 Y190.696 E14.35723
G1 X164.39 Y190.829 E14.39684
G1 X165.387 Y190.893 E14.44698
G1 X165.468 Y190.553 F7800
G1 F1800
G1 X169 Y190.555 E14.62424
G1 X170.343 Y190.587 E14.69166
G1 X170.711 Y190.699 E14.71096
G1 X171.097 Y190.919 E14.73326
G1 X171.443 Y191.21 E14.75595
G1 X171.723 Y191.603 E14.78017
G1 X171.889 Y192.076 E14.80533
G1 X171.945 Y192.585 E14.83103
G1 X171.945 Y196.445 E15.02475
G1 X128.055 Y196.445 E17.22741
G1 X128.062 Y192.414 E17.42971
G1 X128.147 Y191.916 E17.45506
G1 X128.363 Y191.468 E17.48002
G1 X128.68 Y191.076 E17.50532
G1 X129.118 Y190.769 E17.53216
G1 X129.51 Y190.627 E17.55308
G1 X130.024 Y190.555 E17.57913
G1 X134.528 Y190.554 E17.80517
G1 X135.27 Y190.52 E17.84245
G1 X136.023 Y190.417 E17.88059
G1 X137.08 Y190.156 E17.93523
G1 X137.794 Y189.895 E17.97338
G1 X138.479 Y189.572 E18.01139
G1 X139.373 Y189.03 E18.06386
G1 X140.016 Y188.539 E18.10446
G1 X140.572 Y188.025 E18.14246
G1 X141.3 Y187.19 E18.19806
G1 X141.732 Y186.568 E18.23607
G1 X142.238 Y185.646 E18.28885
G1 X142.668 Y184.54 E18.3484
G1 X142.928 Y183.463 E18.404
G1 X143.024 Y182.723 E18.44145
G1 X143.055 Y182.001 E18.47772
G1 X143.055 Y110.38 E22.07208
G1 X156.945 Y110.38 E22.76916
G1 X156.945 Y182.001 E26.36352
G1 X156.98 Y182.768 E26.40205
G1 X157.116 Y183.674 E26.44803
G1 X157.246 Y184.246 E26.47747
G1 X157.61 Y185.304 E26.53362
G1 X158.075 Y186.248 E26.58643
G1 X158.512 Y186.934 E26.62725
G1 X159.17 Y187.754 E26.68001
G1 X159.976 Y188.531 E26.73619
G1 X160.616 Y189.023 E26.7767
G1 X161.252 Y189.424 E26.81443
G1 X162.247 Y189.912 E26.87005
G1 X162.949 Y190.165 E26.9075
G1 X163.671 Y190.357 E26.94499
G1 X164.42 Y190.486 E26.98313
G1 X165.408 Y190.55 E27.03282
