; generated by PrusaSlicer 2.6.0 on 2023-07-09 at 12:01:41 UTC

; 

; external perimeters extrusion width = 0.45mm
; perimeters extrusion width = 0.45mm
; infill extrusion width = 0.45mm
; solid infill extrusion width = 0.45mm
; top infill extrusion width = 0.40mm
; first layer extrusion width = 0.42mm

M104 S230 ; set temperature
;TYPE:Custom
G28 ;Home
G1 Z15.0 F2000 ;Move the platform
M106 S255
M109 S230 ; set temperature and wait for it to be reached
G21 ; set units to millimeters
G90 ; use absolute coordinates
M82 ; use absolute distances for extrusion
G92 E0
; Filament gcode
M107
;LAYER_CHANGE
;Z:0.15
;HEIGHT:0.15
G1 Z.15 F7800
G1 E-2 F2400
G92 E0
G1 X141.346 Y140.692 F7800
G1 E2 F2400
;TYPE:Skirt/Brim
;WIDTH:0.42
G1 F1800
G1 X142.315 Y139.877 E2.03062
G1 X143.375 Y139.153 E2.06167
G1 X144.485 Y138.549 E2.09223
G1 X145.65 Y138.058 E2.12281
G1 X146.858 Y137.685 E2.15339
G1 X148.098 Y137.433 E2.18399
G1 X149.357 Y137.307 E2.21459
G1 X150.624 Y137.306 E2.24523
G1 X151.901 Y137.434 E2.27627
G1 X153.144 Y137.685 E2.30694
G1 X154.375 Y138.067 E2.33811
G1 X155.539 Y138.561 E2.36869
G1 X156.665 Y139.178 E2.39974
G1 X157.725 Y139.908 E2.43087
G1 X158.692 Y140.727 E2.46152
G1 X159.585 Y141.653 E2.49263
G1 X160.379 Y142.665 E2.52374
G1 X161.068 Y143.752 E2.55487
G1 X161.634 Y144.884 E2.58548
G1 X162.092 Y146.086 E2.61659
G1 X162.426 Y147.328 E2.64769
G1 X162.632 Y148.598 E2.67881
G1 X162.709 Y149.861 E2.70941
G1 X162.658 Y151.145 E2.74049
G1 X162.477 Y152.42 E2.77163
G1 X162.167 Y153.675 E2.80289
G1 X161.626 Y155.137 E2.84059
G1 X161.043 Y156.291 E2.87186
G1 X160.35 Y157.376 E2.903
G1 X159.551 Y158.385 E2.93413
G1 X158.655 Y159.307 E2.96522
G1 X157.688 Y160.121 E2.99579
G1 X156.627 Y160.845 E3.02686
G1 X155.516 Y161.45 E3.05746
G1 X154.349 Y161.943 E3.0881
G1 X153.138 Y162.316 E3.11875
G1 X151.897 Y162.567 E3.14937
G1 X150.64 Y162.693 E3.17992
G1 X149.375 Y162.694 E3.21051
G1 X148.097 Y162.566 E3.24157
G1 X146.836 Y162.309 E3.27269
G1 X145.627 Y161.934 E3.3033
G1 X144.443 Y161.43 E3.33442
G1 X143.316 Y160.81 E3.36553
G1 X142.274 Y160.092 E3.39613
G1 X141.294 Y159.259 E3.42724
G1 X140.402 Y158.331 E3.45837
G1 X139.61 Y157.32 E3.48943
G1 X138.923 Y156.232 E3.52055
G1 X138.358 Y155.099 E3.55117
G1 X137.902 Y153.896 E3.58228
G1 X137.574 Y152.672 E3.61293
G1 X137.368 Y151.403 E3.64402
G1 X137.291 Y150.139 E3.67465
G1 X137.342 Y148.855 E3.70573
G1 X137.523 Y147.58 E3.73687
G1 X137.833 Y146.325 E3.76813
G1 X138.374 Y144.863 E3.80583
G1 X138.957 Y143.709 E3.8371
G1 X139.65 Y142.624 E3.86824
G1 X140.449 Y141.615 E3.89937
G1 X141.304 Y140.735 E3.92904
G1 X141.581 Y141.005 F7800
G1 F1800
G1 X142.542 Y140.192 E3.95948
G1 X143.57 Y139.489 E3.9896
G1 X144.645 Y138.903 E4.01921
G1 X145.774 Y138.426 E4.04885
G1 X146.945 Y138.063 E4.0785
G1 X148.166 Y137.816 E4.10863
G1 X149.386 Y137.694 E4.13828
G1 X150.614 Y137.694 E4.16798
G1 X151.852 Y137.819 E4.19807
G1 X153.057 Y138.063 E4.2278
G1 X154.251 Y138.435 E4.25805
G1 X155.378 Y138.914 E4.28767
G1 X156.47 Y139.513 E4.31779
G1 X157.497 Y140.222 E4.34797
G1 X158.433 Y141.016 E4.37765
G1 X159.298 Y141.915 E4.40782
G1 X160.068 Y142.896 E4.43798
G1 X160.735 Y143.951 E4.46817
G1 X161.283 Y145.048 E4.49783
G1 X161.726 Y146.214 E4.528
G1 X162.048 Y147.419 E4.55817
G1 X162.248 Y148.65 E4.58833
G1 X162.321 Y149.874 E4.61798
G1 X162.271 Y151.12 E4.64814
G1 X162.095 Y152.355 E4.67831
G1 X161.793 Y153.571 E4.70861
G1 X161.274 Y154.972 E4.74474
G1 X160.711 Y156.091 E4.77504
G1 X160.04 Y157.143 E4.80522
G1 X159.266 Y158.122 E4.8354
G1 X158.398 Y159.017 E4.86555
G1 X157.461 Y159.806 E4.89518
G1 X156.432 Y160.51 E4.92533
G1 X155.356 Y161.097 E4.95497
G1 X154.225 Y161.575 E4.98467
G1 X153.051 Y161.938 E5.01439
G1 X151.83 Y162.185 E5.04452
G1 X150.611 Y162.307 E5.07415
G1 X149.385 Y162.306 E5.1038
G1 X148.146 Y162.181 E5.13392
G1 X146.923 Y161.932 E5.1641
G1 X145.752 Y161.566 E5.19377
G1 X144.604 Y161.077 E5.22395
G1 X143.512 Y160.475 E5.25411
G1 X142.502 Y159.778 E5.28379
G1 X141.552 Y158.97 E5.31395
G1 X140.689 Y158.07 E5.34411
G1 X139.921 Y157.089 E5.37424
G1 X139.257 Y156.034 E5.40439
G1 X138.71 Y154.935 E5.43408
G1 X138.268 Y153.768 E5.46426
G1 X137.952 Y152.582 E5.49394
G1 X137.752 Y151.35 E5.52413
G1 X137.679 Y150.126 E5.55378
G1 X137.729 Y148.88 E5.58394
G1 X137.905 Y147.645 E5.61411
G1 X138.207 Y146.429 E5.64441
G1 X138.726 Y145.028 E5.68054
G1 X139.289 Y143.909 E5.71084
G1 X139.96 Y142.857 E5.74102
G1 X140.734 Y141.877 E5.77122
G1 X141.54 Y141.048 E5.79918
G1 X141.817 Y141.317 F7800
G1 F1800
G1 X142.769 Y140.506 E5.82943
G1 X143.764 Y139.825 E5.85859
G1 X144.805 Y139.256 E5.88728
G1 X145.898 Y138.793 E5.91599
G1 X147.032 Y138.441 E5.94471
G1 X148.214 Y138.2 E5.97388
G1 X149.396 Y138.081 E6.00261
G1 X150.586 Y138.08 E6.03139
G1 X151.785 Y138.201 E6.06053
G1 X152.97 Y138.442 E6.08978
G1 X154.126 Y138.802 E6.11906
G1 X155.217 Y139.267 E6.14774
G1 X156.274 Y139.848 E6.17691
G1 X157.269 Y140.535 E6.20615
G1 X158.174 Y141.305 E6.23489
G1 X159.012 Y142.176 E6.26412
G1 X159.757 Y143.128 E6.29336
G1 X160.402 Y144.15 E6.32259
G1 X160.932 Y145.213 E6.35132
G1 X161.36 Y146.342 E6.38052
G1 X161.671 Y147.509 E6.40973
G1 X161.863 Y148.702 E6.43895
G1 X161.933 Y149.887 E6.46766
G1 X161.884 Y151.094 E6.49688
G1 X161.712 Y152.29 E6.5261
G1 X161.42 Y153.467 E6.55543
G1 X160.923 Y154.808 E6.59002
G1 X160.378 Y155.891 E6.61934
G1 X159.729 Y156.911 E6.64858
G1 X158.98 Y157.86 E6.67782
G1 X158.14 Y158.727 E6.70702
G1 X157.234 Y159.492 E6.7357
G1 X156.238 Y160.174 E6.76489
G1 X155.196 Y160.744 E6.79361
G1 X154.083 Y161.214 E6.82283
G1 X152.946 Y161.565 E6.85161
G1 X151.763 Y161.803 E6.88079
G1 X150.583 Y161.92 E6.90947
G1 X149.395 Y161.919 E6.9382
G1 X148.195 Y161.797 E6.96737
G1 X147.011 Y161.554 E6.9966
G1 X145.877 Y161.199 E7.02534
G1 X144.765 Y160.725 E7.05457
G1 X143.708 Y160.14 E7.08379
G1 X142.731 Y159.465 E7.11251
G1 X141.811 Y158.681 E7.14174
G1 X140.976 Y157.809 E7.17094
G1 X140.233 Y156.858 E7.20013
G1 X139.59 Y155.836 E7.22933
G1 X139.061 Y154.771 E7.25809
G1 X138.635 Y153.64 E7.28732
G1 X138.329 Y152.492 E7.31605
G1 X138.137 Y151.298 E7.3453
G1 X138.067 Y150.113 E7.37401
G1 X138.116 Y148.906 E7.40323
G1 X138.288 Y147.71 E7.43245
G1 X138.58 Y146.533 E7.46178
G1 X139.077 Y145.192 E7.49637
G1 X139.622 Y144.109 E7.52569
G1 X140.271 Y143.089 E7.55493
G1 X141.02 Y142.14 E7.58417
G1 X141.776 Y141.36 E7.61044
G1 X142.054 Y141.629 F7800
G1 F1800
G1 X142.996 Y140.821 E7.64045
G1 X143.959 Y140.16 E7.6687
G1 X144.966 Y139.609 E7.69646
G1 X146.04 Y139.154 E7.72467
G1 X147.137 Y138.814 E7.75245
G1 X148.282 Y138.582 E7.7807
G1 X149.425 Y138.468 E7.80848
G1 X150.576 Y138.468 E7.83632
G1 X151.736 Y138.586 E7.86452
G1 X152.883 Y138.82 E7.89283
G1 X154.001 Y139.169 E7.92116
G1 X155.055 Y139.619 E7.94888
G1 X156.078 Y140.183 E7.97713
G1 X157.04 Y140.848 E8.00541
G1 X157.915 Y141.594 E8.03322
G1 X158.725 Y142.438 E8.06151
G1 X159.445 Y143.359 E8.08978
G1 X160.068 Y144.348 E8.11805
G1 X160.58 Y145.377 E8.14585
G1 X160.993 Y146.47 E8.17411
G1 X161.294 Y147.6 E8.20239
G1 X161.479 Y148.754 E8.23066
G1 X161.546 Y149.9 E8.25842
G1 X161.497 Y151.067 E8.28667
G1 X161.33 Y152.225 E8.31497
G1 X161.046 Y153.362 E8.34331
G1 X160.571 Y154.644 E8.37637
G1 X160.046 Y155.692 E8.40472
G1 X159.418 Y156.679 E8.43301
G1 X158.695 Y157.597 E8.46127
G1 X157.883 Y158.437 E8.48953
G1 X157.006 Y159.178 E8.5173
G1 X156.043 Y159.839 E8.54555
G1 X155.035 Y160.39 E8.57333
G1 X153.959 Y160.846 E8.60159
G1 X152.86 Y161.186 E8.62941
G1 X151.715 Y161.418 E8.65766
G1 X150.573 Y161.532 E8.68542
G1 X149.406 Y161.531 E8.71364
G1 X148.244 Y161.412 E8.74189
G1 X147.099 Y161.176 E8.77016
G1 X146.002 Y160.832 E8.79796
G1 X144.927 Y160.372 E8.82624
G1 X143.904 Y159.806 E8.85452
G1 X142.96 Y159.152 E8.88229
G1 X142.071 Y158.393 E8.91056
G1 X141.263 Y157.548 E8.93884
G1 X140.556 Y156.643 E8.96661
G1 X139.933 Y155.654 E8.99488
G1 X139.421 Y154.625 E9.02268
G1 X139.007 Y153.531 E9.05097
G1 X138.706 Y152.401 E9.07925
G1 X138.521 Y151.247 E9.10752
G1 X138.454 Y150.1 E9.13531
G1 X138.503 Y148.933 E9.16356
G1 X138.67 Y147.775 E9.19186
G1 X138.954 Y146.638 E9.2202
G1 X139.429 Y145.356 E9.25326
G1 X139.954 Y144.308 E9.28161
G1 X140.582 Y143.321 E9.3099
G1 X141.306 Y142.403 E9.33818
G1 X142.012 Y141.672 E9.36276
G1 X142.29 Y141.941 F7800
G1 F1800
G1 X143.224 Y141.135 E9.3926
G1 X144.154 Y140.495 E9.4199
G1 X145.126 Y139.962 E9.44671
G1 X146.165 Y139.521 E9.47401
G1 X147.224 Y139.192 E9.50083
G1 X148.33 Y138.967 E9.52813
G1 X149.435 Y138.856 E9.55499
G1 X150.566 Y138.856 E9.58234
G1 X151.686 Y138.971 E9.60957
G1 X152.795 Y139.197 E9.63694
G1 X153.875 Y139.536 E9.66432
G1 X154.894 Y139.972 E9.69113
G1 X155.882 Y140.518 E9.71843
G1 X156.811 Y141.162 E9.74577
G1 X157.656 Y141.883 E9.77263
G1 X158.438 Y142.699 E9.79996
G1 X159.133 Y143.589 E9.82727
G1 X159.735 Y144.546 E9.85461
G1 X160.228 Y145.54 E9.88144
G1 X160.627 Y146.597 E9.90876
G1 X160.916 Y147.689 E9.93608
G1 X161.094 Y148.805 E9.96341
G1 X161.158 Y149.913 E9.99025
G1 X161.11 Y151.041 E10.01756
G1 X160.947 Y152.159 E10.04488
G1 X160.672 Y153.258 E10.07228
G1 X160.22 Y154.48 E10.10379
G1 X159.713 Y155.492 E10.13116
G1 X159.108 Y156.447 E10.1585
G1 X158.409 Y157.335 E10.18583
G1 X157.624 Y158.147 E10.21314
G1 X156.778 Y158.864 E10.23996
G1 X155.848 Y159.503 E10.26725
G1 X154.875 Y160.037 E10.29409
G1 X153.834 Y160.479 E10.32144
G1 X152.755 Y160.813 E10.34876
G1 X151.648 Y161.036 E10.37607
G1 X150.545 Y161.145 E10.40288
G1 X149.416 Y161.143 E10.43018
G1 X148.313 Y161.03 E10.457
G1 X147.206 Y160.803 E10.48433
G1 X146.128 Y160.465 E10.51165
G1 X145.089 Y160.019 E10.539
G1 X144.101 Y159.472 E10.56631
G1 X143.189 Y158.839 E10.59316
G1 X142.33 Y158.105 E10.62049
G1 X141.55 Y157.287 E10.64783
G1 X140.868 Y156.412 E10.67466
G1 X140.266 Y155.456 E10.70198
G1 X139.772 Y154.461 E10.72885
G1 X139.373 Y153.404 E10.75617
G1 X139.084 Y152.312 E10.78349
G1 X138.906 Y151.196 E10.81082
G1 X138.842 Y150.088 E10.83766
G1 X138.89 Y148.959 E10.86499
G1 X139.053 Y147.841 E10.89231
G1 X139.328 Y146.742 E10.91971
G1 X139.78 Y145.52 E10.95122
G1 X140.287 Y144.508 E10.97859
G1 X140.892 Y143.553 E11.00593
G1 X141.591 Y142.665 E11.03326
G1 X142.249 Y141.984 E11.05616
G1 X142.527 Y142.253 F7800
G1 F1800
G1 X142.635 Y142.141 E11.05992
G1 X143.452 Y141.448 E11.08583
G1 X144.35 Y140.83 E11.11219
G1 X145.287 Y140.315 E11.13805
G1 X146.29 Y139.889 E11.1644
G1 X147.311 Y139.57 E11.19027
G1 X148.379 Y139.352 E11.21663
G1 X149.445 Y139.244 E11.24254
G1 X150.536 Y139.243 E11.26893
G1 X151.619 Y139.353 E11.29526
G1 X152.689 Y139.571 E11.32167
G1 X153.732 Y139.897 E11.3481
G1 X154.715 Y140.316 E11.37394
G1 X155.67 Y140.842 E11.40031
G1 X156.567 Y141.463 E11.4267
G1 X157.397 Y142.171 E11.45308
G1 X158.151 Y142.96 E11.47947
G1 X158.821 Y143.82 E11.50584
G1 X159.401 Y144.744 E11.53222
G1 X159.877 Y145.704 E11.55813
G1 X160.26 Y146.725 E11.5845
G1 X160.539 Y147.779 E11.61087
G1 X160.71 Y148.856 E11.63724
G1 X160.77 Y149.925 E11.66313
G1 X160.723 Y151.014 E11.68949
G1 X160.565 Y152.094 E11.71589
G1 X160.299 Y153.153 E11.7423
G1 X159.868 Y154.316 E11.7723
G1 X159.38 Y155.293 E11.79871
G1 X158.796 Y156.215 E11.82511
G1 X158.122 Y157.073 E11.8515
G1 X157.366 Y157.858 E11.87786
G1 X156.55 Y158.55 E11.90374
G1 X155.652 Y159.168 E11.9301
G1 X154.714 Y159.684 E11.95599
G1 X153.71 Y160.111 E11.98238
G1 X152.668 Y160.435 E12.00877
G1 X151.6 Y160.651 E12.03512
G1 X150.535 Y160.757 E12.061
G1 X149.445 Y160.756 E12.08736
G1 X148.38 Y160.648 E12.11325
G1 X147.312 Y160.43 E12.13961
G1 X146.271 Y160.104 E12.16599
G1 X145.268 Y159.675 E12.19237
G1 X144.314 Y159.147 E12.21874
G1 X143.433 Y158.537 E12.24466
G1 X142.604 Y157.829 E12.27103
G1 X141.85 Y157.041 E12.29741
G1 X141.191 Y156.197 E12.32331
G1 X140.609 Y155.275 E12.34968
G1 X140.124 Y154.297 E12.37608
G1 X139.74 Y153.276 E12.40246
G1 X139.461 Y152.222 E12.42883
G1 X139.29 Y151.145 E12.4552
G1 X139.23 Y150.076 E12.48109
G1 X139.277 Y148.986 E12.50748
G1 X139.435 Y147.906 E12.53388
G1 X139.701 Y146.847 E12.56029
G1 X140.132 Y145.684 E12.59029
G1 X140.62 Y144.707 E12.6167
G1 X141.204 Y143.785 E12.6431
G1 X141.878 Y142.927 E12.66949
G1 X142.486 Y142.296 E12.69068
G1 X142.765 Y142.564 F7800
G1 F1800
G1 X142.893 Y142.431 E12.69514
G1 X143.695 Y141.751 E12.72057
G1 X144.561 Y141.156 E12.74598
G1 X145.465 Y140.66 E12.77092
G1 X146.432 Y140.25 E12.79632
G1 X147.417 Y139.944 E12.82127
G1 X148.447 Y139.734 E12.84669
G1 X149.474 Y139.631 E12.87165
G1 X150.526 Y139.631 E12.89709
G1 X151.569 Y139.738 E12.92245
G1 X152.602 Y139.949 E12.94795
G1 X153.607 Y140.264 E12.97342
G1 X154.554 Y140.669 E12.99833
G1 X155.473 Y141.177 E13.02373
G1 X156.338 Y141.776 E13.04918
G1 X157.137 Y142.459 E13.0746
G1 X157.863 Y143.22 E13.10004
G1 X158.509 Y144.05 E13.12548
G1 X159.067 Y144.941 E13.15091
G1 X159.524 Y145.867 E13.17588
G1 X159.894 Y146.851 E13.2013
G1 X160.161 Y147.868 E13.22673
G1 X160.325 Y148.907 E13.25217
G1 X160.383 Y149.936 E13.2771
G1 X160.336 Y150.987 E13.30254
G1 X160.183 Y152.027 E13.32796
G1 X159.925 Y153.048 E13.35343
G1 X159.516 Y154.152 E13.3819
G1 X159.047 Y155.095 E13.40737
G1 X158.485 Y155.984 E13.43281
G1 X157.836 Y156.811 E13.45823
G1 X157.107 Y157.569 E13.48366
G1 X156.322 Y158.236 E13.50857
G1 X155.456 Y158.833 E13.53401
G1 X154.552 Y159.331 E13.55897
G1 X153.585 Y159.744 E13.5844
G1 X152.581 Y160.057 E13.60983
G1 X151.551 Y160.266 E13.63525
G1 X150.525 Y160.369 E13.66019
G1 X149.474 Y160.369 E13.68561
G1 X148.448 Y160.266 E13.71055
G1 X147.418 Y160.056 E13.73597
G1 X146.414 Y159.744 E13.7614
G1 X145.447 Y159.331 E13.78683
G1 X144.526 Y158.823 E13.81227
G1 X143.677 Y158.236 E13.83723
G1 X142.877 Y157.554 E13.86265
G1 X142.149 Y156.795 E13.88809
G1 X141.503 Y155.966 E13.91351
G1 X140.943 Y155.076 E13.93894
G1 X140.476 Y154.134 E13.96437
G1 X140.106 Y153.149 E13.98982
G1 X139.839 Y152.133 E14.01523
G1 X139.675 Y151.094 E14.04067
G1 X139.617 Y150.064 E14.06562
G1 X139.664 Y149.013 E14.09106
G1 X139.817 Y147.973 E14.11648
G1 X140.075 Y146.952 E14.14195
G1 X140.484 Y145.848 E14.17042
G1 X140.953 Y144.905 E14.19589
G1 X141.515 Y144.016 E14.22133
G1 X142.164 Y143.189 E14.24675
G1 X142.723 Y142.608 E14.26625
G1 X143.002 Y142.876 F7800
G1 F1800
G1 X143.152 Y142.72 E14.27148
G1 X143.924 Y142.064 E14.29598
G1 X144.757 Y141.491 E14.32043
G1 X145.626 Y141.013 E14.34442
G1 X146.557 Y140.617 E14.36889
G1 X147.504 Y140.322 E14.39288
G1 X148.496 Y140.119 E14.41737
G1 X149.484 Y140.018 E14.44139
G1 X150.497 Y140.017 E14.46589
G1 X151.502 Y140.12 E14.49032
G1 X152.496 Y140.322 E14.51485
G1 X153.463 Y140.624 E14.53935
G1 X154.375 Y141.014 E14.56334
G1 X155.261 Y141.502 E14.5878
G1 X156.094 Y142.078 E14.61229
G1 X156.864 Y142.735 E14.63677
G1 X157.564 Y143.466 E14.66125
G1 X158.186 Y144.265 E14.68574
G1 X158.724 Y145.122 E14.71021
G1 X159.172 Y146.03 E14.7347
G1 X159.527 Y146.978 E14.75918
G1 X159.784 Y147.957 E14.78366
G1 X159.94 Y148.957 E14.80814
G1 X159.995 Y149.948 E14.83214
G1 X159.949 Y150.959 E14.85662
G1 X159.801 Y151.961 E14.88112
G1 X159.552 Y152.943 E14.90562
G1 X159.164 Y153.989 E14.9326
G1 X158.713 Y154.896 E14.9571
G1 X158.173 Y155.753 E14.9816
G1 X157.55 Y156.55 E15.00607
G1 X156.849 Y157.28 E15.03055
G1 X156.093 Y157.923 E15.05455
G1 X155.26 Y158.499 E15.07904
G1 X154.391 Y158.979 E15.10305
G1 X153.46 Y159.377 E15.12754
G1 X152.493 Y159.679 E15.15204
G1 X151.502 Y159.881 E15.1765
G1 X150.515 Y159.982 E15.2005
G1 X149.503 Y159.983 E15.22498
G1 X148.497 Y159.881 E15.24943
G1 X147.505 Y159.679 E15.27391
G1 X146.539 Y159.377 E15.29839
G1 X145.608 Y158.978 E15.32289
G1 X144.723 Y158.488 E15.34736
G1 X143.906 Y157.922 E15.3714
G1 X143.136 Y157.265 E15.39588
G1 X142.436 Y156.534 E15.42036
G1 X141.815 Y155.736 E15.44481
G1 X141.277 Y154.879 E15.46928
G1 X140.828 Y153.971 E15.49378
G1 X140.473 Y153.023 E15.51826
G1 X140.216 Y152.044 E15.54274
G1 X140.06 Y151.044 E15.56722
G1 X140.005 Y150.052 E15.59125
G1 X140.051 Y149.041 E15.61573
G1 X140.199 Y148.039 E15.64023
G1 X140.448 Y147.057 E15.66473
G1 X140.836 Y146.011 E15.69171
G1 X141.287 Y145.104 E15.71621
G1 X141.827 Y144.247 E15.74071
G1 X142.45 Y143.45 E15.76518
