; generated by PrusaSlicer 2.6.0 on 2023-07-09 at 12:01:57 UTC

; 

; external perimeters extrusion width = 0.45mm
; perimeters extrusion width = 0.45mm
; infill extrusion width = 0.45mm
; solid infill extrusion width = 0.45mm
; top infill extrusion width = 0.40mm
; first layer extrusion width = 0.42mm

M104 S230 ; set temperature
;TYPE:Custom
G28 ;Home
G1 Z15.0 F2000 ;Move the platform
M106 S255
M109 S230 ; set temperature and wait for it to be reached
G21 ; set units to millimeters
G90 ; use absolute coordinates
M82 ; use absolute distances for extrusion
G92 E0
; Filament gcode
M107
;LAYER_CHANGE
;Z:0.15
;HEIGHT:0.15
G1 Z.15 F7800
G1 E-2 F2400
G92 E0
G1 X138.822 Y138.968 F7800
G1 E2 F2400
;TYPE:Skirt/Brim
;WIDTH:0.42
G1 F1800
G1 X139.162 Y138.628 E2.01163
G1 X139.891 Y137.975 E2.0353
G1 X140.723 Y137.323 E2.06086
G1 X141.301 Y136.919 E2.07792
G1 X142.11 Y136.415 E2.10097
G1 X143.055 Y135.909 E2.12689
G1 X143.664 Y135.625 E2.14314
G1 X144.6 Y135.247 E2.16755
G1 X145.601 Y134.919 E2.19303
G1 X146.774 Y134.625 E2.22228
G1 X147.742 Y134.454 E2.24605
G1 X148.463 Y134.366 E2.26362
G1 X149.456 Y134.3 E2.28769
G1 X150.53 Y134.299 E2.31366
G1 X151.202 Y134.337 E2.32994
G1 X152.162 Y134.44 E2.35329
G1 X153.163 Y134.612 E2.37785
G1 X153.816 Y134.761 E2.39405
G1 X154.904 Y135.075 E2.42144
G1 X155.799 Y135.4 E2.44447
G1 X156.483 Y135.691 E2.46245
G1 X157.327 Y136.104 E2.48517
G1 X157.947 Y136.449 E2.50233
G1 X158.775 Y136.97 E2.52599
G1 X159.595 Y137.562 E2.55045
G1 X160.176 Y138.032 E2.56852
G1 X160.883 Y138.671 E2.59157
G1 X161.615 Y139.423 E2.61695
G1 X162.086 Y139.964 E2.6343
G1 X162.675 Y140.719 E2.65746
G1 X163.058 Y141.266 E2.67361
G1 X163.588 Y142.115 E2.69782
G1 X163.905 Y142.691 E2.71372
G1 X164.338 Y143.58 E2.73764
G1 X164.601 Y144.204 E2.75402
G1 X164.945 Y145.16 E2.77859
G1 X165.234 Y146.165 E2.80388
G1 X165.467 Y147.251 E2.83074
G1 X165.62 Y148.324 E2.85695
G1 X165.712 Y149.799 E2.89269
G1 X170.038 Y149.83 E2.99732
G1 X170.8 Y150.029 E3.01637
G1 X171.561 Y150.392 E3.03676
G1 X172.97 Y151.73 E3.08375
G1 X173.417 Y152.575 E3.10687
G1 X173.71 Y153.75 E3.13616
G1 X173.71 Y161.695 E3.32831
G1 X173.462 Y162.817 E3.3561
G1 X172.912 Y163.847 E3.38434
G1 X171.677 Y165.034 E3.42577
G1 X170.916 Y165.42 E3.44641
G1 X169.75 Y165.71 E3.47547
G1 X130.305 Y165.71 E4.42944
G1 X129.183 Y165.462 E4.45723
G1 X128.153 Y164.912 E4.48547
G1 X126.966 Y163.677 E4.5269
G1 X126.58 Y162.916 E4.54754
G1 X126.29 Y161.75 E4.5766
G1 X126.29 Y153.805 E4.76875
G1 X126.538 Y152.683 E4.79654
G1 X127.088 Y151.653 E4.82478
G1 X128.323 Y150.466 E4.86621
G1 X129.066 Y150.086 E4.88639
G1 X129.98 Y149.827 E4.90937
G1 X134.288 Y149.794 E5.01356
G1 X134.379 Y148.33 E5.04904
G1 X134.53 Y147.266 E5.07503
G1 X134.759 Y146.193 E5.10156
G1 X135.054 Y145.161 E5.12752
G1 X135.394 Y144.217 E5.15179
G1 X135.671 Y143.56 E5.16903
G1 X136.09 Y142.7 E5.19217
G1 X136.441 Y142.067 E5.20968
G1 X136.961 Y141.238 E5.23335
G1 X137.353 Y140.682 E5.2498
G1 X137.973 Y139.894 E5.27405
G1 X138.779 Y139.011 E5.30296
G1 X139.053 Y139.285 F7800
G1 F1800
G1 X139.425 Y138.914 E5.31567
G1 X140.135 Y138.276 E5.33876
G1 X140.949 Y137.637 E5.36379
G1 X141.51 Y137.246 E5.38033
G1 X142.309 Y136.748 E5.4031
G1 X143.224 Y136.258 E5.4282
G1 X143.814 Y135.983 E5.44394
G1 X144.739 Y135.61 E5.46806
G1 X145.716 Y135.289 E5.49293
G1 X146.861 Y135.003 E5.52147
G1 X147.794 Y134.838 E5.54438
G1 X148.494 Y134.753 E5.56143
G1 X149.475 Y134.687 E5.58521
G1 X150.514 Y134.687 E5.61034
G1 X151.165 Y134.723 E5.62611
G1 X152.114 Y134.825 E5.64919
G1 X153.092 Y134.994 E5.67319
G1 X153.714 Y135.135 E5.68861
G1 X154.778 Y135.442 E5.71539
G1 X155.652 Y135.759 E5.73787
G1 X156.317 Y136.042 E5.75535
G1 X157.143 Y136.445 E5.77758
G1 X157.745 Y136.78 E5.79424
G1 X158.564 Y137.295 E5.81764
G1 X159.355 Y137.866 E5.84123
G1 X159.92 Y138.323 E5.8588
G1 X160.61 Y138.946 E5.88128
G1 X161.333 Y139.69 E5.90637
G1 X161.79 Y140.214 E5.92319
G1 X162.366 Y140.954 E5.94587
G1 X162.737 Y141.484 E5.96152
G1 X163.256 Y142.316 E5.98524
G1 X163.559 Y142.865 E6.00041
G1 X163.987 Y143.745 E6.02408
G1 X164.238 Y144.341 E6.03972
G1 X164.574 Y145.273 E6.06368
G1 X164.859 Y146.265 E6.08864
G1 X165.086 Y147.325 E6.11486
G1 X165.235 Y148.372 E6.14044
G1 X165.312 Y149.452 E6.16663
G1 X165.315 Y150.184 E6.18433
G1 X170.009 Y150.218 E6.29786
G1 X170.683 Y150.399 E6.31474
G1 X171.319 Y150.697 E6.33173
G1 X172.644 Y151.942 E6.3757
G1 X173.048 Y152.694 E6.39635
G1 X173.322 Y153.775 E6.42332
G1 X173.322 Y161.673 E6.61433
G1 X173.09 Y162.705 E6.63991
G1 X172.586 Y163.635 E6.66549
G1 X171.474 Y164.703 E6.70278
G1 X170.799 Y165.05 E6.72114
G1 X169.725 Y165.322 E6.74793
G1 X130.327 Y165.322 E7.70077
G1 X129.295 Y165.09 E7.72635
G1 X128.365 Y164.586 E7.75193
G1 X127.297 Y163.474 E7.78922
G1 X126.95 Y162.799 E7.80758
G1 X126.678 Y161.725 E7.83437
G1 X126.678 Y153.827 E8.02538
G1 X126.91 Y152.795 E8.05096
G1 X127.414 Y151.865 E8.07654
G1 X128.526 Y150.797 E8.11383
G1 X129.191 Y150.453 E8.13194
G1 X130.06 Y150.207 E8.15378
G1 X134.686 Y150.18 E8.26566
G1 X134.688 Y149.44 E8.28356
G1 X134.764 Y148.378 E8.30931
G1 X134.911 Y147.34 E8.33466
G1 X135.133 Y146.293 E8.36054
G1 X135.425 Y145.274 E8.38618
G1 X135.757 Y144.353 E8.40986
G1 X136.022 Y143.725 E8.42634
G1 X136.431 Y142.884 E8.44896
G1 X136.772 Y142.268 E8.46599
G1 X137.281 Y141.457 E8.48915
G1 X137.661 Y140.917 E8.50512
G1 X138.266 Y140.148 E8.52878
G1 X139.011 Y139.327 E8.55559
G1 X139.284 Y139.601 F7800
G1 F1800
G1 X139.687 Y139.199 E8.56936
G1 X140.38 Y138.577 E8.59188
G1 X141.184 Y137.946 E8.6166
G1 X141.72 Y137.572 E8.63241
G1 X142.509 Y137.081 E8.65489
G1 X143.393 Y136.607 E8.67915
G1 X143.964 Y136.34 E8.69439
G1 X144.878 Y135.972 E8.71822
G1 X145.83 Y135.66 E8.74245
G1 X146.948 Y135.381 E8.77032
G1 X147.846 Y135.222 E8.79238
G1 X148.526 Y135.139 E8.80895
G1 X149.495 Y135.074 E8.83244
G1 X150.498 Y135.074 E8.8567
G1 X151.129 Y135.109 E8.87198
G1 X152.067 Y135.21 E8.8948
G1 X153.02 Y135.375 E8.91819
G1 X153.623 Y135.512 E8.93315
G1 X154.652 Y135.809 E8.95905
G1 X155.515 Y136.122 E8.98125
G1 X156.152 Y136.392 E8.99798
G1 X156.968 Y136.791 E9.01995
G1 X157.543 Y137.111 E9.03586
G1 X158.352 Y137.62 E9.05898
G1 X159.124 Y138.178 E9.08202
G1 X159.664 Y138.615 E9.09882
G1 X160.345 Y139.229 E9.121
G1 X161.051 Y139.956 E9.14551
G1 X161.487 Y140.457 E9.16157
G1 X162.057 Y141.188 E9.18399
G1 X162.411 Y141.693 E9.19891
G1 X162.924 Y142.517 E9.22238
G1 X163.217 Y143.048 E9.23705
G1 X163.636 Y143.909 E9.26021
G1 X163.875 Y144.478 E9.27514
G1 X164.204 Y145.386 E9.2985
G1 X164.485 Y146.366 E9.32316
G1 X164.706 Y147.4 E9.34873
G1 X164.849 Y148.407 E9.37333
G1 X164.925 Y149.473 E9.39918
G1 X164.928 Y150.569 E9.42569
G1 X169.933 Y150.599 E9.54674
G1 X170.565 Y150.769 E9.56257
G1 X171.126 Y151.034 E9.57758
G1 X172.319 Y152.155 E9.61717
G1 X172.679 Y152.816 E9.63537
G1 X172.934 Y153.8 E9.65995
G1 X172.934 Y161.651 E9.84983
G1 X172.719 Y162.591 E9.87315
G1 X172.261 Y163.421 E9.89608
G1 X171.27 Y164.372 E9.9293
G1 X170.679 Y164.68 E9.94542
G1 X169.7 Y164.934 E9.96988
G1 X130.349 Y164.934 E10.92158
G1 X129.409 Y164.719 E10.9449
G1 X128.579 Y164.261 E10.96783
G1 X127.628 Y163.27 E11.00105
G1 X127.32 Y162.679 E11.01717
G1 X127.066 Y161.7 E11.04163
G1 X127.066 Y153.849 E11.23151
G1 X127.281 Y152.909 E11.25483
G1 X127.739 Y152.079 E11.27776
G1 X128.73 Y151.128 E11.31098
G1 X129.316 Y150.821 E11.32698
G1 X130.14 Y150.588 E11.34769
G1 X135.073 Y150.567 E11.467
G1 X135.076 Y149.461 E11.49375
G1 X135.149 Y148.426 E11.51884
G1 X135.292 Y147.414 E11.54356
G1 X135.511 Y146.38 E11.56912
G1 X135.796 Y145.387 E11.59411
G1 X136.12 Y144.49 E11.61718
G1 X136.373 Y143.89 E11.63293
G1 X136.778 Y143.058 E11.65531
G1 X137.104 Y142.47 E11.67157
G1 X137.601 Y141.676 E11.69422
G1 X137.969 Y141.153 E11.70969
G1 X138.559 Y140.402 E11.73279
G1 X139.242 Y139.644 E11.75747
G1 X139.516 Y139.918 F7800
G1 F1800
G1 X139.951 Y139.484 E11.77233
G1 X140.625 Y138.878 E11.79425
G1 X141.419 Y138.254 E11.81867
G1 X141.929 Y137.899 E11.8337
G1 X142.709 Y137.413 E11.85593
G1 X143.562 Y136.956 E11.87933
G1 X144.114 Y136.698 E11.89407
G1 X145.017 Y136.334 E11.91762
G1 X145.943 Y136.031 E11.94118
G1 X147.035 Y135.759 E11.9684
G1 X147.899 Y135.607 E11.98962
G1 X148.557 Y135.526 E12.00565
G1 X149.514 Y135.462 E12.02885
G1 X150.483 Y135.462 E12.05229
G1 X151.093 Y135.495 E12.06706
G1 X152.007 Y135.593 E12.08929
G1 X152.949 Y135.756 E12.11241
G1 X153.531 Y135.889 E12.12685
G1 X154.526 Y136.176 E12.1519
G1 X155.378 Y136.485 E12.17382
G1 X155.986 Y136.743 E12.18979
G1 X156.793 Y137.137 E12.21151
G1 X157.341 Y137.442 E12.22668
G1 X158.13 Y137.938 E12.24922
G1 X158.893 Y138.489 E12.27198
G1 X159.408 Y138.906 E12.28801
G1 X160.081 Y139.513 E12.30993
G1 X160.77 Y140.222 E12.33384
G1 X161.184 Y140.7 E12.34913
G1 X161.748 Y141.423 E12.37131
G1 X162.084 Y141.903 E12.38548
G1 X162.592 Y142.718 E12.40871
G1 X162.875 Y143.231 E12.42288
G1 X163.285 Y144.074 E12.44555
G1 X163.512 Y144.614 E12.45972
G1 X163.833 Y145.5 E12.48251
G1 X164.11 Y146.466 E12.50681
G1 X164.325 Y147.474 E12.53174
G1 X164.462 Y148.441 E12.55536
G1 X164.537 Y149.494 E12.58089
G1 X164.54 Y150.956 E12.61625
G1 X169.858 Y150.98 E12.74487
G1 X170.415 Y151.127 E12.7588
G1 X170.932 Y151.372 E12.77264
G1 X171.995 Y152.37 E12.8079
G1 X172.311 Y152.94 E12.82366
G1 X172.546 Y153.826 E12.84583
G1 X172.546 Y161.629 E13.03454
G1 X172.366 Y162.428 E13.05435
G1 X171.936 Y163.208 E13.07589
G1 X171.064 Y164.042 E13.10507
G1 X170.557 Y164.312 E13.11896
G1 X169.674 Y164.546 E13.14105
G1 X130.371 Y164.546 E14.09159
G1 X129.572 Y164.366 E14.1114
G1 X128.792 Y163.936 E14.13294
G1 X127.958 Y163.064 E14.16212
G1 X127.688 Y162.557 E14.17601
G1 X127.454 Y161.674 E14.1981
G1 X127.454 Y153.871 E14.38681
G1 X127.634 Y153.072 E14.40662
G1 X128.064 Y152.292 E14.42816
G1 X128.936 Y151.457 E14.45736
G1 X129.442 Y151.188 E14.47122
G1 X130.22 Y150.968 E14.49077
G1 X135.46 Y150.954 E14.6175
G1 X135.463 Y149.482 E14.6531
G1 X135.534 Y148.473 E14.67756
G1 X135.672 Y147.488 E14.70161
G1 X135.889 Y146.468 E14.72683
G1 X136.167 Y145.501 E14.75116
G1 X136.483 Y144.627 E14.77364
G1 X136.724 Y144.055 E14.78865
G1 X137.124 Y143.232 E14.81078
G1 X137.435 Y142.671 E14.82629
G1 X137.921 Y141.895 E14.84843
G1 X138.278 Y141.388 E14.86343
G1 X138.852 Y140.656 E14.88593
G1 X139.475 Y139.961 E14.9085
G1 X139.763 Y140.22 F7800
G1 F1800
G1 X140.214 Y139.769 E14.92393
G1 X140.879 Y139.171 E14.94556
G1 X141.646 Y138.569 E14.96914
G1 X142.138 Y138.225 E14.98366
G1 X142.897 Y137.752 E15.00529
G1 X143.741 Y137.3 E15.02844
G1 X144.264 Y137.056 E15.0424
G1 X145.144 Y136.7 E15.06536
G1 X146.057 Y136.402 E15.08859
G1 X147.109 Y136.14 E15.11481
G1 X147.961 Y135.989 E15.13574
G1 X148.588 Y135.912 E15.15102
G1 X149.521 Y135.85 E15.17363
G1 X150.467 Y135.849 E15.19651
G1 X151.057 Y135.881 E15.2108
G1 X151.959 Y135.978 E15.23274
G1 X152.878 Y136.137 E15.2553
G1 X153.439 Y136.266 E15.26922
G1 X154.4 Y136.542 E15.2934
G1 X155.241 Y136.848 E15.31504
G1 X155.82 Y137.094 E15.33025
G1 X156.618 Y137.484 E15.35173
G1 X157.139 Y137.774 E15.36615
G1 X157.918 Y138.263 E15.38839
G1 X158.661 Y138.8 E15.41056
G1 X159.152 Y139.198 E15.42585
G1 X159.816 Y139.797 E15.44748
G1 X160.487 Y140.489 E15.47079
G1 X160.882 Y140.942 E15.48533
G1 X161.434 Y141.649 E15.50702
G1 X161.758 Y142.113 E15.52071
G1 X162.255 Y142.91 E15.54343
G1 X162.528 Y143.405 E15.5571
G1 X162.929 Y144.23 E15.57928
G1 X163.149 Y144.751 E15.59296
G1 X163.466 Y145.626 E15.61547
G1 X163.732 Y146.554 E15.63882
G1 X163.944 Y147.548 E15.6634
G1 X164.078 Y148.489 E15.68639
G1 X164.15 Y149.501 E15.71093
G1 X164.153 Y151.342 E15.75545
G1 X169.785 Y151.362 E15.89166
G1 X170.267 Y151.486 E15.9037
G1 X170.739 Y151.709 E15.91633
G1 X171.672 Y152.587 E15.94731
G1 X171.944 Y153.067 E15.96065
G1 X172.159 Y153.852 E15.98033
G1 X172.159 Y161.607 E16.16788
G1 X171.995 Y162.312 E16.18539
G1 X171.612 Y162.992 E16.20426
G1 X170.856 Y163.714 E16.22954
G1 X170.431 Y163.944 E16.24123
G1 X169.648 Y164.159 E16.26087
G1 X130.393 Y164.159 E17.21025
G1 X129.688 Y163.995 E17.22776
G1 X129.008 Y163.612 E17.24663
G1 X128.286 Y162.856 E17.27191
G1 X128.056 Y162.431 E17.2836
G1 X127.841 Y161.648 E17.30324
G1 X127.841 Y153.893 E17.49079
G1 X128.005 Y153.188 E17.5083
G1 X128.388 Y152.508 E17.52717
G1 X129.144 Y151.786 E17.55245
G1 X129.569 Y151.555 E17.56415
G1 X130.3 Y151.349 E17.58252
G1 X135.847 Y151.341 E17.71667
G1 X135.85 Y149.502 E17.76115
G1 X135.92 Y148.507 E17.78527
G1 X136.055 Y147.549 E17.80867
G1 X136.264 Y146.568 E17.83293
G1 X136.538 Y145.614 E17.85694
G1 X136.846 Y144.763 E17.87883
G1 X137.075 Y144.22 E17.89308
G1 X137.466 Y143.415 E17.91472
G1 X137.767 Y142.872 E17.92974
G1 X138.247 Y142.105 E17.95162
G1 X138.586 Y141.623 E17.96587
G1 X139.153 Y140.9 E17.98809
G1 X139.723 Y140.265 E18.00873
G1 X140.012 Y140.524 F7800
G1 F1800
G1 X140.477 Y140.054 E18.02472
G1 X141.133 Y139.464 E18.04606
G1 X141.872 Y138.884 E18.06878
G1 X142.348 Y138.551 E18.08283
G1 X143.086 Y138.091 E18.10386
G1 X143.919 Y137.645 E18.12671
G1 X144.414 Y137.413 E18.13993
G1 X145.283 Y137.062 E18.1626
G1 X146.171 Y136.772 E18.18519
G1 X147.183 Y136.52 E18.21041
G1 X148.023 Y136.372 E18.23104
G1 X148.62 Y136.299 E18.24559
G1 X149.54 Y136.237 E18.26789
G1 X150.461 Y136.237 E18.29016
G1 X151.021 Y136.268 E18.30372
G1 X151.912 Y136.363 E18.32539
G1 X152.806 Y136.519 E18.34734
G1 X153.348 Y136.642 E18.36078
G1 X154.274 Y136.909 E18.38409
G1 X155.104 Y137.21 E18.40544
G1 X155.655 Y137.444 E18.41992
G1 X156.443 Y137.83 E18.44114
G1 X156.938 Y138.105 E18.45483
G1 X157.696 Y138.581 E18.47648
G1 X158.429 Y139.111 E18.49836
G1 X158.896 Y139.489 E18.51289
G1 X159.551 Y140.08 E18.53423
G1 X160.198 Y140.747 E18.5567
G1 X160.579 Y141.185 E18.57074
G1 X161.119 Y141.876 E18.59195
G1 X161.432 Y142.323 E18.60515
G1 X161.918 Y143.102 E18.62736
G1 X162.182 Y143.579 E18.64055
G1 X162.574 Y144.386 E18.66225
G1 X162.786 Y144.888 E18.67543
G1 X163.099 Y145.751 E18.69763
G1 X163.355 Y146.641 E18.72003
G1 X163.564 Y147.622 E18.74429
G1 X163.693 Y148.536 E18.76661
G1 X163.762 Y149.509 E18.7902
G1 X163.766 Y151.73 E18.84391
G1 X169.715 Y151.744 E18.98779
G1 X170.119 Y151.845 E18.99786
G1 X170.546 Y152.047 E19.00928
G1 X171.351 Y152.807 E19.03605
G1 X171.578 Y153.197 E19.04696
G1 X171.771 Y153.88 E19.06413
G1 X171.771 Y161.585 E19.25047
G1 X171.643 Y162.147 E19.26441
G1 X171.289 Y162.777 E19.28189
G1 X170.646 Y163.388 E19.30334
G1 X170.303 Y163.578 E19.31282
G1 X169.62 Y163.771 E19.32999
G1 X130.415 Y163.771 E20.27816
G1 X129.853 Y163.643 E20.2921
G1 X129.223 Y163.289 E20.30958
G1 X128.612 Y162.646 E20.33103
G1 X128.422 Y162.303 E20.34051
G1 X128.229 Y161.62 E20.35768
G1 X128.229 Y153.915 E20.54402
G1 X128.357 Y153.353 E20.55796
G1 X128.711 Y152.723 E20.57544
G1 X129.354 Y152.112 E20.59689
G1 X129.697 Y151.922 E20.60637
G1 X130.38 Y151.729 E20.62354
G1 X136.234 Y151.729 E20.76512
G1 X136.238 Y149.51 E20.81879
G1 X136.305 Y148.554 E20.84197
G1 X136.436 Y147.623 E20.86471
G1 X136.642 Y146.656 E20.88862
G1 X136.905 Y145.74 E20.91167
G1 X137.209 Y144.9 E20.93327
G1 X137.43 Y144.376 E20.94702
G1 X137.813 Y143.59 E20.96817
G1 X138.098 Y143.074 E20.98243
G1 X138.573 Y142.315 E21.00408
G1 X138.894 Y141.859 E21.01757
G1 X139.446 Y141.155 E21.03921
G1 X139.972 Y140.568 E21.05827
G1 X140.26 Y140.827 F7800
G1 F1800
G1 X140.74 Y140.339 E21.07482
G1 X141.388 Y139.757 E21.09588
G1 X142.099 Y139.199 E21.11774
G1 X142.558 Y138.878 E21.13129
G1 X143.286 Y138.423 E21.15205
G1 X144.098 Y137.989 E21.17432
G1 X144.564 Y137.771 E21.18676
G1 X145.41 Y137.429 E21.20883
G1 X146.285 Y137.143 E21.23109
G1 X147.257 Y136.901 E21.25532
G1 X148.086 Y136.755 E21.27568
G1 X148.651 Y136.686 E21.28945
G1 X149.547 Y136.625 E21.31117
G1 X150.446 Y136.625 E21.33291
G1 X150.984 Y136.654 E21.34594
G1 X151.864 Y136.748 E21.36734
G1 X152.734 Y136.9 E21.3887
G1 X153.256 Y137.019 E21.40165
G1 X154.148 Y137.276 E21.4241
G1 X154.967 Y137.573 E21.44517
G1 X155.489 Y137.795 E21.45889
G1 X156.268 Y138.176 E21.47986
G1 X156.736 Y138.436 E21.49281
G1 X157.485 Y138.906 E21.5142
G1 X158.198 Y139.422 E21.53549
G1 X158.64 Y139.78 E21.54925
