;FLAVOR:Marlin
;TIME:15202
;Filament used: 17.1649m
;Layer height: 0.32
;MINX:84.165
;MINY:86.837
;MINZ:0.32
;MAXX:215.765
;MAXY:213.153
;MAXZ:40.96
;Generated with Cura_SteamEngine master
M140 S70
M105
M190 S70
M104 S240
M105
M109 S240
M82 ;absolute extrusion mode
G28 ;Home
G1 Z15.0 F2000 ;Move the platform
G92 E0
G92 E0
;LAYER_COUNT:128
;LAYER:0
M107 P2
G0 F9000 X87.37 Y89.664 Z0.32
;TYPE:SKIRT
G1 F2400 X87.879 Y89.212 E0.03623
G1 X88.438 Y88.823 E0.07247
G1 X89.077 Y88.485 E0.11094
G1 X90.954 Y87.637 E0.22054
G1 X91.59 Y87.394 E0.25678
G1 X92.25 Y87.227 E0.29301
G1 X92.714 Y87.157 E0.31798
G1 X95.338 Y86.871 E0.45844
G1 X95.966 Y86.837 E0.49191
G1 X107.662 Y86.837 E1.11433
G1 X108.342 Y86.877 E1.15058
G1 X108.68 Y86.937 E1.16885
G1 X162.624 Y86.937 E4.03954
G1 X162.736 Y86.912 E4.04565
G1 X163.667 Y86.837 E4.09535
G1 X203.964 Y86.837 E6.23981
G1 X204.591 Y86.871 E6.27322
G1 X207.221 Y87.157 E6.41401
G1 X207.892 Y87.27 E6.45022
G1 X208.546 Y87.461 E6.48648
G1 X208.988 Y87.64 E6.51185
G1 X210.859 Y88.488 E6.62117
G1 X211.462 Y88.805 E6.65742
G1 X212.023 Y89.191 E6.69366
G1 X212.535 Y89.639 E6.72987
G1 X213.004 Y90.16 E6.76717
G1 X214.132 Y91.578 E6.8636
G1 X214.524 Y92.135 E6.89984
G1 X214.848 Y92.734 E6.93608
G1 X215.099 Y93.367 E6.97232
G1 X215.294 Y94.124 E7.01392
G1 X215.666 Y96.116 E7.12176
G1 X215.752 Y96.792 E7.15802
G1 X215.765 Y97.181 E7.17874
G1 X215.765 Y178.8 E11.52219
G1 X215.725 Y179.48 E11.55844
G1 X215.666 Y179.866 E11.57922
G1 X215.294 Y181.855 E11.6869
G1 X215.13 Y182.516 E11.72314
G1 X214.889 Y183.153 E11.75939
G1 X214.576 Y183.757 E11.79559
G1 X214.127 Y184.406 E11.83759
G1 X212.999 Y185.82 E11.93385
G1 X212.544 Y186.326 E11.97006
G1 X212.033 Y186.776 E12.00629
G1 X211.472 Y187.163 E12.04256
G1 X210.871 Y187.48 E12.07872
G1 X210.128 Y187.819 E12.12218
G1 X210.127 Y193.216 E12.40939
G1 X210.123 Y193.43 E12.42078
G1 X210.058 Y195.183 E12.51413
G1 X210.023 Y195.637 E12.53836
G1 X209.971 Y196.211 E12.56904
G1 X209.922 Y196.609 E12.59038
G1 X209.522 Y199.147 E12.7271
G1 X209.471 Y199.425 E12.74215
G1 X209.39 Y199.792 E12.76215
G1 X209.052 Y201.128 E12.83548
G1 X208.904 Y201.62 E12.86282
G1 X208.264 Y203.45 E12.96599
G1 X208.073 Y203.926 E12.99329
G1 X207.612 Y204.945 E13.05281
G1 X207.359 Y205.441 E13.08244
G1 X206.535 Y206.877 E13.17054
G1 X206.409 Y207.086 E13.18353
G1 X205.811 Y207.897 E13.23715
G1 X204.146 Y209.786 E13.37115
G1 X203.667 Y210.27 E13.40739
G1 X203.356 Y210.529 E13.42893
G1 X203.223 Y210.632 E13.43788
G1 X203.035 Y210.804 E13.45144
G1 X202.379 Y211.265 E13.49411
G1 X201.599 Y211.736 E13.5426
G1 X201.279 Y211.916 E13.56214
G1 X201.206 Y211.954 E13.56652
G1 X200.826 Y212.135 E13.58892
G1 X200.024 Y212.481 E13.6354
G1 X199.142 Y212.779 E13.68494
G1 X198.598 Y212.916 E13.71479
G1 X197.93 Y213.044 E13.75099
G1 X197.524 Y213.082 E13.77269
G1 X196.322 Y213.153 E13.83677
G1 X195.641 Y213.153 E13.87301
G1 X194.754 Y213.032 E13.92065
G1 X193.607 Y212.784 E13.9831
G1 X192.644 Y212.486 E14.03674
G1 X192.173 Y212.293 E14.06383
G1 X191.878 Y212.181 E14.08062
G1 X191.246 Y211.85 E14.11859
G1 X190.31 Y211.284 E14.1768
G1 X189.545 Y210.732 E14.227
G1 X188.874 Y210.159 E14.27395
G1 X188.738 Y210.053 E14.28313
G1 X188.266 Y209.587 E14.31843
G1 X187.293 Y208.509 E14.39571
G1 X186.755 Y207.814 E14.44248
G1 X185.844 Y206.431 E14.53061
G1 X185.528 Y205.888 E14.56404
G1 X185.383 Y205.599 E14.58125
G1 X184.535 Y203.801 E14.68704
G1 X184.319 Y203.278 E14.71715
G1 X184.22 Y202.988 E14.73346
G1 X183.494 Y200.687 E14.86186
G1 X183.43 Y200.472 E14.8738
G1 X183.301 Y199.924 E14.90376
G1 X182.837 Y197.416 E15.03949
G1 X182.768 Y196.971 E15.06345
G1 X182.718 Y196.426 E15.09258
G1 X182.539 Y193.513 E15.24789
G1 X182.528 Y193.158 E15.26679
G1 X182.528 Y189.137 E15.48077
G1 X115.656 Y189.137 E19.03945
G1 X115.656 Y193.216 E19.25652
G1 X115.652 Y193.43 E19.26791
G1 X115.587 Y195.183 E19.36126
G1 X115.552 Y195.637 E19.38549
G1 X115.5 Y196.211 E19.41616
G1 X115.451 Y196.609 E19.4375
G1 X115.051 Y199.147 E19.57423
G1 X115 Y199.425 E19.58927
G1 X114.919 Y199.792 E19.60927
G1 X114.581 Y201.128 E19.68261
G1 X114.433 Y201.62 E19.70995
G1 X113.793 Y203.45 E19.81312
G1 X113.602 Y203.926 E19.84041
G1 X113.141 Y204.945 E19.89993
G1 X112.888 Y205.441 E19.92956
G1 X112.064 Y206.877 E20.01767
G1 X111.938 Y207.086 E20.03066
G1 X111.34 Y207.897 E20.08428
G1 X109.675 Y209.786 E20.21828
G1 X109.196 Y210.27 E20.25452
G1 X108.885 Y210.529 E20.27606
G1 X108.752 Y210.632 E20.28501
G1 X108.564 Y210.804 E20.29857
G1 X107.908 Y211.265 E20.34124
G1 X107.128 Y211.736 E20.38972
G1 X106.808 Y211.916 E20.40926
G1 X106.735 Y211.954 E20.41364
G1 X106.355 Y212.135 E20.43604
G1 X105.553 Y212.481 E20.48252
G1 X104.671 Y212.779 E20.53207
G1 X104.127 Y212.916 E20.56192
G1 X103.459 Y213.044 E20.59812
G1 X103.053 Y213.082 E20.61982
G1 X101.851 Y213.153 E20.68389
G1 X101.17 Y213.153 E20.72013
G1 X100.283 Y213.032 E20.76777
G1 X99.136 Y212.784 E20.83022
G1 X98.173 Y212.486 E20.88387
G1 X97.702 Y212.293 E20.91096
G1 X97.407 Y212.181 E20.92775
G1 X96.775 Y211.85 E20.96571
G1 X95.839 Y211.284 E21.02392
G1 X95.074 Y210.732 E21.07412
G1 X94.403 Y210.159 E21.12108
G1 X94.267 Y210.053 E21.13026
G1 X93.795 Y209.587 E21.16555
G1 X92.822 Y208.509 E21.24283
G1 X92.284 Y207.814 E21.28961
G1 X91.373 Y206.431 E21.37774
G1 X91.057 Y205.888 E21.41117
G1 X90.912 Y205.599 E21.42838
G1 X90.064 Y203.801 E21.53417
G1 X89.848 Y203.278 E21.56428
G1 X89.749 Y202.988 E21.58059
G1 X89.023 Y200.687 E21.70899
G1 X88.959 Y200.472 E21.72092
G1 X88.83 Y199.924 E21.75088
G1 X88.366 Y197.416 E21.88662
G1 X88.297 Y196.971 E21.91058
G1 X88.247 Y196.426 E21.9397
G1 X88.068 Y193.513 E22.09502
G1 X88.057 Y193.158 E22.11392
G1 X88.056 Y186.886 E22.44769
G1 X87.902 Y186.78 E22.45764
G1 X87.39 Y186.331 E22.49388
G1 X86.922 Y185.808 E22.53123
G1 X85.8 Y184.394 E22.62728
G1 X85.408 Y183.837 E22.66353
G1 X85.085 Y183.238 E22.69975
G1 X84.834 Y182.605 E22.73598
G1 X84.645 Y181.872 E22.77627
G1 X84.267 Y179.883 E22.88401
G1 X84.179 Y179.208 E22.92023
G1 X84.165 Y178.8 E22.94196
G1 X84.165 Y97.174 E27.28579
G1 X84.205 Y96.494 E27.32203
G1 X84.267 Y96.089 E27.34384
G1 X84.645 Y94.104 E27.45137
G1 X84.812 Y93.444 E27.4876
G1 X85.054 Y92.808 E27.52381
G1 X85.37 Y92.204 E27.56009
G1 X85.795 Y91.59 E27.59983
G1 X86.917 Y90.172 E27.69605
G1 X87.37 Y89.664 E27.73227
G0 F9000 X87.669 Y89.931
G1 F2400 X88.163 Y89.498 E27.76723
G1 X88.706 Y89.129 E27.80217
G1 X89.242 Y88.85 E27.83433
G1 X91.119 Y88.002 E27.94393
G1 X91.733 Y87.768 E27.9789
G1 X92.371 Y87.611 E28.01387
G1 X92.757 Y87.555 E28.03462
G1 X95.381 Y87.269 E28.17509
G1 X95.966 Y87.237 E28.20627
G1 X107.662 Y87.237 E28.82868
G1 X108.318 Y87.277 E28.86366
G1 X108.644 Y87.337 E28.8813
G1 X162.683 Y87.337 E31.75705
G1 X163.074 Y87.27 E31.77816
G1 X163.667 Y87.237 E31.80977
G1 X203.964 Y87.237 E33.95422
G1 X204.548 Y87.269 E33.98535
G1 X207.178 Y87.555 E34.12613
G1 X207.825 Y87.665 E34.16105
G1 X208.455 Y87.854 E34.19606
G1 X208.823 Y88.005 E34.21722
G1 X210.694 Y88.853 E34.32654
G1 X211.275 Y89.16 E34.36151
G1 X211.814 Y89.535 E34.39645
G1 X212.304 Y89.973 E34.43143
G1 X212.691 Y90.409 E34.46245
G1 X213.819 Y91.827 E34.55888
G1 X214.196 Y92.365 E34.59384
G1 X214.505 Y92.945 E34.62881
G1 X214.741 Y93.558 E34.66377
G1 X214.901 Y94.198 E34.69887
G1 X215.273 Y96.19 E34.80671
G1 X215.354 Y96.842 E34.84167
G1 X215.365 Y97.181 E34.85972
G1 X215.365 Y178.8 E39.20318
G1 X215.325 Y179.456 E39.23815
G1 X215.273 Y179.793 E39.2563
G1 X214.901 Y181.782 E39.36398
G1 X214.741 Y182.419 E39.39893
G1 X214.505 Y183.032 E39.43389
G1 X214.196 Y183.612 E39.46886
G1 X213.814 Y184.157 E39.50428
G1 X212.686 Y185.571 E39.60054
G1 X212.246 Y186.058 E39.63546
G1 X211.75 Y186.489 E39.67043
G1 X211.205 Y186.856 E39.7054
G1 X210.705 Y187.116 E39.73539
G1 X209.728 Y187.562 E39.79254
G1 X209.727 Y193.216 E40.09343
G1 X209.723 Y193.415 E40.10402
G1 X209.658 Y195.168 E40.19737
G1 X209.626 Y195.591 E40.21995
G1 X209.615 Y195.687 E40.22509
G1 X209.572 Y196.177 E40.25126
G1 X209.527 Y196.547 E40.2711
G1 X209.127 Y199.085 E40.40783
G1 X209.08 Y199.344 E40.42184
G1 X209.002 Y199.693 E40.44087
G1 X208.664 Y201.029 E40.51421
G1 X208.526 Y201.488 E40.53971
G1 X207.886 Y203.318 E40.64288
G1 X207.709 Y203.761 E40.66827
G1 X207.248 Y204.78 E40.72779
G1 X207.012 Y205.242 E40.75539
G1 X206.188 Y206.678 E40.8435
G1 X206.068 Y206.878 E40.85591
G1 X205.511 Y207.633 E40.90584
G1 X203.846 Y209.522 E41.03984
G1 X203.382 Y209.987 E41.0748
G1 X203.11 Y210.214 E41.09365
G1 X202.96 Y210.331 E41.10378
G1 X202.765 Y210.508 E41.11779
G1 X202.172 Y210.923 E41.15631
G1 X201.392 Y211.394 E41.2048
G1 X201.094 Y211.561 E41.22298
G1 X201.021 Y211.599 E41.22736
G1 X200.667 Y211.767 E41.24821
G1 X199.865 Y212.113 E41.29469
G1 X199.045 Y212.391 E41.34077
G1 X198.501 Y212.528 E41.37062
G1 X197.855 Y212.65 E41.40561
G1 X197.5 Y212.683 E41.42458
G1 X196.298 Y212.754 E41.48866
G1 X195.641 Y212.752 E41.52362
G1 X194.839 Y212.641 E41.56671
G1 X193.692 Y212.393 E41.62916
G1 X192.795 Y212.115 E41.67913
G1 X192.324 Y211.922 E41.70622
G1 X192.02 Y211.806 E41.72353
G1 X191.453 Y211.508 E41.75762
G1 X190.517 Y210.942 E41.81583
G1 X189.804 Y210.427 E41.86264
G1 X189.133 Y209.854 E41.90959
G1 X188.985 Y209.737 E41.91963
G1 X188.563 Y209.319 E41.95124
G1 X187.59 Y208.241 E42.02852
G1 X187.089 Y207.594 E42.07207
G1 X186.178 Y206.211 E42.1602
G1 X185.883 Y205.705 E42.19137
G1 X185.745 Y205.428 E42.20784
G1 X184.897 Y203.63 E42.31363
G1 X184.696 Y203.143 E42.34166
G1 X184.601 Y202.868 E42.35715
G1 X183.875 Y200.567 E42.48555
G1 X183.814 Y200.362 E42.49693
G1 X183.694 Y199.851 E42.52486
G1 X183.23 Y197.343 E42.66059
G1 X183.164 Y196.915 E42.68364
G1 X183.117 Y196.401 E42.71111
G1 X182.938 Y193.488 E42.86642
G1 X182.928 Y193.158 E42.88399
G1 X182.928 Y188.737 E43.11926
G1 X115.256 Y188.737 E46.7205
G1 X115.256 Y193.216 E46.95886
G1 X115.252 Y193.415 E46.96945
G1 X115.187 Y195.168 E47.0628
G1 X115.155 Y195.591 E47.08538
G1 X115.144 Y195.687 E47.09052
G1 X115.101 Y196.177 E47.1167
G1 X115.056 Y196.547 E47.13653
G1 X114.656 Y199.085 E47.27326
G1 X114.609 Y199.344 E47.28727
G1 X114.531 Y199.693 E47.3063
G1 X114.193 Y201.029 E47.37964
G1 X114.055 Y201.488 E47.40514
G1 X113.415 Y203.318 E47.50831
G1 X113.238 Y203.761 E47.5337
G1 X112.777 Y204.78 E47.59322
G1 X112.541 Y205.242 E47.62083
G1 X111.717 Y206.678 E47.70893
G1 X111.597 Y206.878 E47.72134
G1 X111.04 Y207.633 E47.77127
G1 X109.375 Y209.522 E47.90527
G1 X108.911 Y209.987 E47.94023
G1 X108.639 Y210.214 E47.95909
G1 X108.489 Y210.331 E47.96921
G1 X108.294 Y210.508 E47.98322
G1 X107.701 Y210.923 E48.02174
G1 X106.921 Y211.394 E48.07023
G1 X106.623 Y211.561 E48.08841
G1 X106.55 Y211.599 E48.09279
G1 X106.196 Y211.767 E48.11364
G1 X105.394 Y212.113 E48.16012
G1 X104.574 Y212.391 E48.2062
G1 X104.03 Y212.528 E48.23605
G1 X103.384 Y212.65 E48.27104
G1 X103.029 Y212.683 E48.29001
G1 X101.827 Y212.754 E48.35409
G1 X101.17 Y212.752 E48.38905
G1 X100.368 Y212.641 E48.43214
G1 X99.221 Y212.393 E48.49459
G1 X98.324 Y212.115 E48.54456
G1 X97.853 Y211.922 E48.57165
G1 X97.549 Y211.806 E48.58897
G1 X96.982 Y211.508 E48.62305
G1 X96.046 Y210.942 E48.68126
G1 X95.333 Y210.427 E48.72807
G1 X94.662 Y209.854 E48.77503
G1 X94.514 Y209.737 E48.78506
G1 X94.092 Y209.319 E48.81667
G1 X93.119 Y208.241 E48.89395
G1 X92.618 Y207.594 E48.9375
G1 X91.707 Y206.211 E49.02563
G1 X91.412 Y205.705 E49.0568
G1 X91.274 Y205.428 E49.07327
G1 X90.426 Y203.63 E49.17906
G1 X90.225 Y203.143 E49.2071
G1 X90.13 Y202.868 E49.22258
G1 X89.404 Y200.567 E49.35098
G1 X89.343 Y200.362 E49.36236
G1 X89.223 Y199.851 E49.3903
G1 X88.759 Y197.343 E49.52603
G1 X88.693 Y196.915 E49.54907
G1 X88.646 Y196.401 E49.57654
G1 X88.467 Y193.488 E49.73185
G1 X88.457 Y193.158 E49.74942
G1 X88.456 Y186.676 E50.09437
G1 X88.112 Y186.436 E50.11669
G1 X87.622 Y185.997 E50.1517
G1 X87.235 Y185.56 E50.18276
G1 X86.113 Y184.146 E50.27882
G1 X85.737 Y183.607 E50.3138
G1 X85.429 Y183.027 E50.34874
G1 X85.193 Y182.413 E50.38375
G1 X85.038 Y181.797 E50.41755
G1 X84.66 Y179.808 E50.52529
G1 X84.577 Y179.157 E50.56022
G1 X84.565 Y178.8 E50.57923
G1 X84.565 Y97.174 E54.92305
G1 X84.605 Y96.518 E54.95803
G1 X84.66 Y96.164 E54.97709
G1 X85.038 Y94.179 E55.08462
G1 X85.2 Y93.542 E55.1196
G1 X85.438 Y92.93 E55.15455
G1 X85.749 Y92.351 E55.18952
G1 X86.108 Y91.838 E55.22284
G1 X87.23 Y90.42 E55.31907
G1 X87.669 Y89.931 E55.35404
G0 F9000 X87.967 Y90.199
G1 F2400 X88.445 Y89.786 E55.38766
G1 X88.972 Y89.437 E55.42129
G1 X89.406 Y89.214 E55.44726
G1 X91.283 Y88.366 E55.55687
G1 X91.875 Y88.143 E55.59053
G1 X92.8 Y87.952 E55.6408
G1 X95.424 Y87.666 E55.78126
G1 X95.966 Y87.637 E55.81015
G1 X107.662 Y87.637 E56.43256
G1 X108.293 Y87.677 E56.46621
G1 X108.606 Y87.737 E56.48317
G1 X162.695 Y87.737 E59.36158
G1 X162.776 Y87.717 E59.36602
G1 X163.667 Y87.637 E59.41363
G1 X203.964 Y87.637 E61.55808
G1 X204.505 Y87.666 E61.58691
G1 X207.135 Y87.952 E61.7277
G1 X207.757 Y88.06 E61.76129
G1 X208.362 Y88.246 E61.79498
G1 X208.658 Y88.369 E61.81204
G1 X210.529 Y89.217 E61.92135
G1 X211.087 Y89.514 E61.95499
G1 X211.603 Y89.879 E61.98863
G1 X212.069 Y90.306 E62.02226
G1 X212.378 Y90.658 E62.04719
G1 X213.506 Y92.076 E62.14361
G1 X213.867 Y92.595 E62.17725
G1 X214.161 Y93.155 E62.21091
G1 X214.381 Y93.748 E62.24457
G1 X214.508 Y94.271 E62.27321
G1 X214.88 Y96.263 E62.38105
G1 X214.965 Y97.181 E62.43011
G1 X214.965 Y178.8 E66.77357
G1 X214.88 Y179.719 E66.82268
G1 X214.508 Y181.708 E66.93036
G1 X214.353 Y182.321 E66.96401
G1 X214.121 Y182.909 E66.99765
G1 X213.817 Y183.464 E67.03133
G1 X213.502 Y183.907 E67.06025
G1 X212.374 Y185.321 E67.15651
G1 X211.949 Y185.789 E67.19015
G1 X211.469 Y186.2 E67.22378
G1 X210.94 Y186.547 E67.25745
G1 X210.539 Y186.752 E67.28142
G1 X209.328 Y187.304 E67.35224
G1 X209.327 Y193.216 E67.66685
G1 X209.324 Y193.4 E67.67665
G1 X209.259 Y195.153 E67.77
G1 X209.229 Y195.545 E67.79092
G1 X209.218 Y195.642 E67.79612
G1 X209.174 Y196.142 E67.82283
G1 X209.132 Y196.484 E67.84116
G1 X208.732 Y199.022 E67.97789
G1 X208.662 Y199.387 E67.99767
G1 X208.614 Y199.595 E68.00903
G1 X208.276 Y200.931 E68.08237
G1 X208.149 Y201.356 E68.10597
G1 X207.509 Y203.186 E68.20914
G1 X207.344 Y203.596 E68.23266
G1 X206.883 Y204.615 E68.29218
G1 X206.665 Y205.042 E68.31769
G1 X205.841 Y206.478 E68.4058
G1 X205.726 Y206.669 E68.41767
G1 X205.211 Y207.368 E68.46387
G1 X203.546 Y209.257 E68.59787
G1 X202.865 Y209.898 E68.64764
G1 X202.702 Y210.025 E68.65864
G1 X202.496 Y210.211 E68.67341
G1 X201.966 Y210.58 E68.70777
G1 X201.186 Y211.051 E68.75626
G1 X200.91 Y211.206 E68.77311
G1 X200.837 Y211.244 E68.77749
G1 X200.509 Y211.4 E68.79682
G1 X199.707 Y211.746 E68.8433
G1 X198.947 Y212.004 E68.88601
G1 X198.403 Y212.141 E68.91586
G1 X197.477 Y212.283 E68.96572
G1 X196.275 Y212.354 E69.02979
G1 X195.643 Y212.352 E69.06343
G1 X194.923 Y212.25 E69.10212
G1 X193.776 Y212.002 E69.16457
G1 X192.946 Y211.745 E69.21081
G1 X192.475 Y211.552 E69.2379
G1 X192.163 Y211.432 E69.25569
G1 X191.66 Y211.166 E69.28597
G1 X190.724 Y210.6 E69.34418
G1 X190.064 Y210.123 E69.38751
G1 X189.393 Y209.549 E69.4345
G1 X189.233 Y209.423 E69.44534
G1 X188.86 Y209.051 E69.47338
G1 X187.887 Y207.973 E69.55066
G1 X187.423 Y207.373 E69.59102
G1 X186.512 Y205.99 E69.67915
G1 X186.239 Y205.522 E69.70798
G1 X186.107 Y205.258 E69.72369
G1 X185.259 Y203.46 E69.82948
G1 X185.072 Y203.009 E69.85546
G1 X184.983 Y202.747 E69.87019
G1 X184.22 Y200.324 E70.00537
G1 X184.199 Y200.251 E70.00941
G1 X184.087 Y199.779 E70.03523
G1 X183.623 Y197.271 E70.17096
G1 X183.56 Y196.858 E70.19319
G1 X183.516 Y196.377 E70.2189
G1 X183.337 Y193.464 E70.37421
G1 X183.328 Y193.158 E70.3905
G1 X183.328 Y188.337 E70.64706
G1 X114.856 Y188.337 E74.29088
G1 X114.856 Y193.216 E74.55052
G1 X114.853 Y193.4 E74.56031
G1 X114.788 Y195.153 E74.65366
G1 X114.758 Y195.545 E74.67459
G1 X114.747 Y195.642 E74.67978
G1 X114.703 Y196.142 E74.70649
G1 X114.661 Y196.484 E74.72483
G1 X114.261 Y199.022 E74.86156
G1 X114.191 Y199.387 E74.88134
G1 X114.143 Y199.595 E74.8927
G1 X113.805 Y200.931 E74.96603
G1 X113.678 Y201.356 E74.98964
