;FLAVOR:Marlin
;TIME:5219
;Filament used: 22.4366m
;Layer height: 0.8
;MINX:89.362
;MINY:93.137
;MINZ:0.2
;MAXX:210.638
;MAXY:206.861
;MAXZ:42
;Generated with Cura_SteamEngine master
M140 S60
M105
M190 S60
M104 S220
M105
M109 S220
M82 ;absolute extrusion mode
G28 ;Home
G1 Z15.0 F2000 ;Move the platform
G92 E0
G92 E0
;LAYER_COUNT:52
;LAYER:0
M107 P2
M204 S100
G1 F300 Z1.2
;MESH:BOX TINYBEE BY SANTOCYBER-CAIXA-CCCCCCCC.stl
G0 F9000 X101.118 Y197.176 Z1.2
;TYPE:WALL-OUTER
G1 F300 Z0.2
G1 F2400 X101.909 Y196.783 E0.07344
G1 X102.409 Y196.22 E0.13605
G1 X102.684 Y195.76 E0.18062
G1 X102.73 Y195.664 E0.18947
G1 X103.089 Y194.608 E0.28221
G1 X103.112 Y194.505 E0.29098
G1 X103.197 Y193.999 E0.33365
G1 X103.247 Y192.938 E0.42197
G1 X103.133 Y191.929 E0.5064
G1 X102.932 Y191.15 E0.5733
G1 X102.646 Y190.488 E0.63326
G1 X102.264 Y189.903 E0.69135
G1 X101.916 Y189.574 E0.73118
G1 X101.841 Y189.488 E0.74066
G1 X101.264 Y189.176 E0.79521
G1 X100.404 Y189.149 E0.86675
G1 X100.254 Y189.216 E0.88041
G1 X99.533 Y189.601 E0.94837
G1 X99.42 Y189.723 E0.9622
G1 X98.821 Y190.549 E1.04704
G1 X98.771 Y190.663 E1.05739
G1 X98.382 Y191.878 E1.16347
G1 X98.358 Y191.979 E1.1721
G1 X98.289 Y192.471 E1.21341
G1 X98.259 Y193.335 E1.2853
G1 X98.373 Y194.382 E1.37287
G1 X98.569 Y195.159 E1.4395
G1 X98.851 Y195.811 E1.49857
G1 X98.9 Y195.886 E1.50602
G1 X99.365 Y196.542 E1.57288
G1 X99.453 Y196.63 E1.58323
G1 X100.131 Y197.074 E1.65062
G1 X100.302 Y197.123 E1.66541
G1 X101.118 Y197.176 E1.7334
G0 F9000 X101.297 Y197.087
G0 X101.786 Y198.073
G1 F300 Z1.2
G0 F9000 X195.59 Y197.176 Z1.2
G1 F300 Z0.2
G1 F2400 X196.381 Y196.783 E1.80685
G1 X196.881 Y196.22 E1.86946
G1 X197.156 Y195.76 E1.91402
G1 X197.202 Y195.664 E1.92287
G1 X197.561 Y194.608 E2.01561
G1 X197.584 Y194.505 E2.02439
G1 X197.669 Y193.999 E2.06705
G1 X197.719 Y192.938 E2.15537
G1 X197.605 Y191.929 E2.2398
G1 X197.404 Y191.15 E2.3067
G1 X197.118 Y190.488 E2.36666
G1 X196.736 Y189.903 E2.42476
G1 X196.388 Y189.574 E2.46458
G1 X196.313 Y189.488 E2.47407
G1 X195.736 Y189.176 E2.52861
G1 X194.876 Y189.149 E2.60015
G1 X194.726 Y189.216 E2.61381
G1 X194.005 Y189.601 E2.68178
G1 X193.892 Y189.723 E2.6956
G1 X193.293 Y190.549 E2.78045
G1 X193.243 Y190.663 E2.7908
G1 X192.854 Y191.878 E2.89688
G1 X192.83 Y191.979 E2.90551
G1 X192.761 Y192.471 E2.94682
G1 X192.731 Y193.335 E3.0187
G1 X192.845 Y194.382 E3.10628
G1 X193.041 Y195.159 E3.17291
G1 X193.323 Y195.811 E3.23198
G1 X193.372 Y195.886 E3.23942
G1 X193.837 Y196.542 E3.30629
G1 X193.925 Y196.63 E3.31663
G1 X194.603 Y197.074 E3.38402
G1 X194.774 Y197.123 E3.39881
G1 X195.59 Y197.176 E3.46681
G0 F9000 X195.769 Y197.087
G0 X196.258 Y198.073
G1 F300 Z1.2
G0 F9000 X193.352 Y206.428 Z1.2
G1 F300 Z0.2
G1 F2400 X192.486 Y205.905 E3.55093
G1 X191.813 Y205.33 E3.62453
G1 X191.794 Y205.317 E3.62645
G1 X190.894 Y204.318 E3.73825
G1 X190.011 Y202.977 E3.87176
G1 X189.989 Y202.934 E3.87577
G1 X189.141 Y201.138 E4.04092
G1 X188.392 Y198.77 E4.24744
G1 X187.921 Y196.223 E4.46281
G1 X187.908 Y196.129 E4.4707
G1 X187.725 Y193.142 E4.71954
G1 X187.725 Y182.837 E5.5764
G1 X108.253 Y182.836 E12.18453
G1 X108.252 Y193.175 E13.04422
G1 X108.187 Y194.948 E13.19174
G1 X108.177 Y195.031 E13.19869
G1 X108.127 Y195.613 E13.24726
G1 X107.722 Y198.18 E13.46335
G1 X107.713 Y198.224 E13.46709
G1 X107.371 Y199.572 E13.58272
G1 X106.747 Y201.355 E13.7398
G1 X106.311 Y202.318 E13.8277
G1 X105.488 Y203.754 E13.96532
G1 X103.843 Y205.62 E14.17216
G1 X103.543 Y205.854 E14.2038
G1 X103.497 Y205.901 E14.20927
G1 X102.752 Y206.351 E14.28164
G1 X101.988 Y206.68 E14.3508
G1 X101.534 Y206.795 E14.38975
G1 X100.444 Y206.86 E14.48054
G1 X99.382 Y206.63 E14.57089
G1 X98.907 Y206.436 E14.61356
G1 X98.88 Y206.428 E14.6159
G1 X98.014 Y205.905 E14.70002
G1 X97.341 Y205.33 E14.77362
G1 X97.322 Y205.317 E14.77554
G1 X96.422 Y204.318 E14.88734
G1 X95.539 Y202.977 E15.02085
G1 X95.517 Y202.934 E15.02487
G1 X94.669 Y201.138 E15.19001
G1 X93.92 Y198.77 E15.39653
G1 X93.449 Y196.223 E15.6119
G1 X93.436 Y196.129 E15.61979
G1 X93.253 Y193.142 E15.86863
G1 X93.253 Y182.662 E16.74005
G1 X92.374 Y182.568 E16.81355
G1 X90.68 Y181.798 E16.96828
G1 X89.708 Y180.572 E17.09837
G1 X89.362 Y178.756 E17.25209
G1 X89.362 Y97.219 E24.03192
G1 X89.708 Y95.404 E24.18555
G1 X90.678 Y94.177 E24.31561
G1 X92.375 Y93.411 E24.47042
G1 X94.888 Y93.137 E24.68062
G1 X106.059 Y93.137 E25.60949
G1 X106.059 Y93.237 E25.61781
G1 X163.064 Y93.237 E30.35779
G1 X163.064 Y93.137 E30.36611
G1 X202.847 Y93.138 E33.67408
G1 X205.358 Y93.412 E33.88411
G1 X207.046 Y94.176 E34.03817
G1 X208.022 Y95.404 E34.1686
G1 X208.362 Y97.216 E34.3219
G1 X208.362 Y178.758 E41.10214
G1 X208.022 Y180.572 E41.25561
G1 X207.045 Y181.798 E41.38596
G1 X205.356 Y182.568 E41.54031
G1 X202.725 Y182.849 E41.76032
G1 X202.724 Y193.175 E42.61893
G1 X202.659 Y194.948 E42.76645
G1 X202.649 Y195.031 E42.7734
G1 X202.599 Y195.613 E42.82198
G1 X202.194 Y198.18 E43.03806
G1 X202.185 Y198.224 E43.0418
G1 X201.843 Y199.572 E43.15744
G1 X201.219 Y201.355 E43.31451
G1 X200.783 Y202.318 E43.40241
G1 X199.96 Y203.754 E43.54003
G1 X198.315 Y205.62 E43.74687
G1 X198.015 Y205.854 E43.77851
G1 X197.969 Y205.901 E43.78398
G1 X197.224 Y206.351 E43.85635
G1 X196.46 Y206.68 E43.92552
G1 X196.006 Y206.795 E43.96446
G1 X194.916 Y206.86 E44.05525
G1 X193.854 Y206.63 E44.14561
G1 X193.379 Y206.436 E44.18827
G1 X193.352 Y206.428 E44.19061
G0 F9000 X193.181 Y206.325
G0 X193.751 Y205.383
G0 X193.778 Y205.53
;TYPE:SKIN
G1 F2400 X193.072 Y205.103 E44.25922
G1 X192.472 Y204.59 E44.32486
G1 X191.68 Y203.711 E44.42324
G1 X190.868 Y202.478 E44.546
G1 X190.066 Y200.781 E44.70207
G1 X189.355 Y198.532 E44.8982
G1 X188.894 Y196.034 E45.10941
G1 X188.715 Y193.113 E45.35275
G1 X188.715 Y181.847 E46.28952
G1 X107.263 Y181.846 E53.06228
G1 X107.262 Y193.139 E54.0013
G1 X107.198 Y194.876 E54.14583
G1 X107.145 Y195.488 E54.19691
G1 X106.749 Y197.995 E54.40795
G1 X106.421 Y199.286 E54.51871
G1 X105.824 Y200.993 E54.66908
G1 X105.431 Y201.863 E54.74846
G1 X104.679 Y203.174 E54.87413
G1 X103.16 Y204.897 E55.06512
G1 X102.884 Y205.112 E55.09421
G1 X102.88 Y205.117 E55.09474
G1 X102.293 Y205.472 E55.15179
G1 X101.674 Y205.738 E55.20781
G1 X101.378 Y205.813 E55.2332
G1 X100.523 Y205.864 E55.30442
G1 X99.675 Y205.68 E55.37657
G1 X99.306 Y205.53 E55.40969
G1 X98.6 Y205.103 E55.4783
G1 X98 Y204.59 E55.54394
G1 X97.208 Y203.711 E55.64232
G1 X96.396 Y202.478 E55.76508
G1 X95.594 Y200.781 E55.92115
G1 X94.883 Y198.532 E56.11727
G1 X94.422 Y196.034 E56.32849
G1 X94.243 Y193.113 E56.57183
G1 X94.243 Y181.773 E57.51475
G1 X92.64 Y181.602 E57.6488
G1 X91.309 Y180.996 E57.7704
G1 X90.634 Y180.146 E57.86066
G1 X90.352 Y178.664 E57.9861
G1 X90.352 Y97.311 E64.75063
G1 X90.635 Y95.828 E64.87616
G1 X91.303 Y94.982 E64.96579
G1 X92.643 Y94.377 E65.08805
G1 X94.939 Y94.127 E65.28009
G1 X105.069 Y94.127 E66.1224
G1 X105.069 Y94.227 E66.13072
G1 X164.054 Y94.227 E71.03534
G1 X164.054 Y94.127 E71.04365
G1 X202.795 Y94.128 E74.26498
G1 X205.093 Y94.379 E74.4572
G1 X206.42 Y94.98 E74.57833
G1 X207.095 Y95.828 E74.66845
G1 X207.372 Y97.307 E74.79357
G1 X207.372 Y178.667 E81.55868
G1 X207.094 Y180.147 E81.68389
G1 X206.419 Y180.996 E81.77408
G1 X205.09 Y181.602 E81.89553
G1 X201.735 Y181.96 E82.17609
G1 X201.734 Y193.139 E83.10562
G1 X201.67 Y194.876 E83.25015
G1 X201.617 Y195.488 E83.30123
G1 X201.221 Y197.995 E83.51227
G1 X200.893 Y199.286 E83.62303
G1 X200.296 Y200.993 E83.7734
G1 X199.903 Y201.863 E83.85278
G1 X199.151 Y203.174 E83.97845
G1 X197.632 Y204.897 E84.16944
G1 X197.356 Y205.112 E84.19853
G1 X197.352 Y205.117 E84.19907
G1 X196.765 Y205.472 E84.25611
G1 X196.146 Y205.738 E84.31213
G1 X195.85 Y205.813 E84.33752
G1 X194.995 Y205.864 E84.40874
G1 X194.147 Y205.68 E84.48089
G1 X193.778 Y205.53 E84.51401
G1 F300 Z1.2
G0 F9000 X194.604 Y198.104 Z1.2
G1 F300 Z0.2
G1 F2400 X195.792 Y198.182 E84.61301
G1 X196.993 Y197.584 E84.72457
G1 X197.683 Y196.808 E84.81091
G1 X198.029 Y196.229 E84.86699
G1 X198.121 Y196.038 E84.88462
G1 X198.515 Y194.876 E84.98665
G1 X198.556 Y194.695 E85.00208
G1 X198.655 Y194.104 E85.0519
G1 X198.711 Y192.906 E85.15163
G1 X198.581 Y191.749 E85.24844
G1 X198.343 Y190.828 E85.32753
G1 X197.993 Y190.017 E85.40098
G1 X197.5 Y189.263 E85.47589
G1 X197.105 Y188.89 E85.52106
G1 X196.941 Y188.702 E85.54181
G1 X196.001 Y188.194 E85.63065
G1 X194.68 Y188.153 E85.74055
G1 X194.29 Y188.327 E85.77606
G1 X193.392 Y188.807 E85.86072
G1 X193.126 Y189.094 E85.89326
G1 X192.429 Y190.054 E85.99191
G1 X192.316 Y190.312 E86.01533
G1 X191.9 Y191.612 E86.12882
G1 X191.856 Y191.795 E86.14447
G1 X191.773 Y192.384 E86.19393
G1 X191.739 Y193.371 E86.27605
G1 X191.869 Y194.558 E86.37534
G1 X192.101 Y195.478 E86.45423
G1 X192.448 Y196.283 E86.52712
G1 X192.555 Y196.444 E86.5432
G1 X193.078 Y197.183 E86.61847
G1 X193.297 Y197.402 E86.64423
G1 X194.186 Y197.985 E86.73263
G1 X194.604 Y198.104 E86.76876
G1 F300 Z1.2
G0 F9000 X104.183 Y194.104 Z1.2
G1 F300 Z0.2
G1 F2400 X104.239 Y192.906 E86.86849
G1 X104.109 Y191.749 E86.9653
G1 X103.871 Y190.828 E87.04439
G1 X103.521 Y190.017 E87.11784
G1 X103.028 Y189.263 E87.19275
G1 X102.633 Y188.89 E87.23792
G1 X102.469 Y188.702 E87.25867
G1 X101.529 Y188.194 E87.34751
G1 X100.208 Y188.153 E87.45741
G1 X99.818 Y188.327 E87.49292
G1 X98.92 Y188.807 E87.57758
G1 X98.654 Y189.094 E87.61012
G1 X97.957 Y190.054 E87.70877
G1 X97.844 Y190.312 E87.73219
G1 X97.428 Y191.612 E87.84568
G1 X97.384 Y191.795 E87.86133
G1 X97.301 Y192.384 E87.91079
G1 X97.267 Y193.371 E87.99291
G1 X97.397 Y194.558 E88.0922
G1 X97.629 Y195.478 E88.17109
G1 X97.976 Y196.283 E88.24398
G1 X98.083 Y196.444 E88.26005
G1 X98.606 Y197.183 E88.33533
G1 X98.825 Y197.402 E88.36109
G1 X99.714 Y197.985 E88.44949
G1 X100.132 Y198.104 E88.48562
G1 X101.32 Y198.182 E88.58462
G1 X102.521 Y197.584 E88.69618
G1 X103.211 Y196.808 E88.78252
G1 X103.557 Y196.229 E88.83861
G1 X103.649 Y196.038 E88.85623
G1 X104.043 Y194.876 E88.95826
G1 X104.084 Y194.695 E88.97369
G1 X104.183 Y194.104 E89.02352
G1 F300 Z1.2
G0 F9000 X100.794 Y205.446 Z1.2
G1 F300 Z0.2
G1 F2400 X95.96 Y200.611 E89.59202
G1 F300 Z1.2
G0 F9000 X95.306 Y198.544 Z1.2
G1 F300 Z0.2
G1 F2400 X101.947 Y205.184 E90.37289
G0 F9000 X102.826 Y204.649
G1 F2400 X94.969 Y196.792 E91.29681
G1 F300 Z1.2
G0 F9000 X94.77 Y195.179 Z1.2
G1 F300 Z0.2
G1 F2400 X103.498 Y203.907 E92.32316
G0 F9000 X104.161 Y203.156
G1 F2400 X98.996 Y197.991 E92.93052
G0 F9000 X97.944 Y196.939
G1 F2400 X94.677 Y193.672 E93.31469
G0 F9000 X94.642 Y192.223
G1 F2400 X96.996 Y194.577 E93.59151
G1 F300 Z1.2
G0 F9000 X96.877 Y193.044 Z1.2
G1 F300 Z0.2
G1 F2400 X94.642 Y190.809 E93.85433
G0 F9000 X94.642 Y189.395
G1 F2400 X96.987 Y191.739 E94.13002
G0 F9000 X97.314 Y190.652
G1 F2400 X94.642 Y187.98 E94.44423
G0 F9000 X94.642 Y186.566
G1 F2400 X97.744 Y189.667 E94.80894
G0 F9000 X98.338 Y188.848
G1 F2400 X94.642 Y185.152 E95.24356
G0 F9000 X94.642 Y183.738
G1 F2400 X99.139 Y188.234 E95.77232
G0 F9000 X100.086 Y187.767
G1 F2400 X94.642 Y182.323 E96.41249
G0 F9000 X93.623 Y181.304
G1 F2400 X90.751 Y178.432 E96.75021
G0 F9000 X90.751 Y177.018
G1 F2400 X101.526 Y187.793 E98.01727
G1 F300 Z1.2
G0 F9000 X104.112 Y190.38 Z1.2
G1 F300 Z0.2
G1 F2400 X106.862 Y193.129 E98.34059
G0 F9000 X106.812 Y194.493
G1 F2400 X104.567 Y192.248 E98.60459
G0 F9000 X104.602 Y193.697
G1 F2400 X106.693 Y195.788 E98.85047
G0 F9000 X106.499 Y197.009
G1 F2400 X104.436 Y194.946 E99.09306
G0 F9000 X104.081 Y196.005
G1 F2400 X106.282 Y198.206 E99.35189
G0 F9000 X105.984 Y199.322
G1 F2400 X103.598 Y196.937 E99.6324
G0 F9000 X102.949 Y197.702
G1 F2400 X105.618 Y200.37 E99.9462
G0 F9000 X105.211 Y201.377
G1 F2400 X102.082 Y198.249 E100.31408
G0 F9000 X100.979 Y198.559
G1 F2400 X104.718 Y202.299 E100.75382
G1 F300 Z1.2
G0 F9000 X106.862 Y191.715 Z1.2
G1 F300 Z0.2
G1 F2400 X90.751 Y175.604 E102.64835
G0 F9000 X90.751 Y174.19
G1 F2400 X106.862 Y190.301 E104.54288
G0 F9000 X106.862 Y188.887
G1 F2400 X90.751 Y172.775 E106.43747
G0 F9000 X90.751 Y171.361
G1 F2400 X106.862 Y187.473 E108.33206
G0 F9000 X106.862 Y186.058
G1 F2400 X90.751 Y169.947 E110.22659
G0 F9000 X90.751 Y168.533
G1 F2400 X106.862 Y184.644 E112.12112
G0 F9000 X106.862 Y183.23
G1 F2400 X90.751 Y167.119 E114.01565
G0 F9000 X90.751 Y165.704
G1 F2400 X106.862 Y181.816 E115.91024
G0 F9000 X107.906 Y181.445
G1 F2400 X90.751 Y164.29 E117.92753
G0 F9000 X90.751 Y162.876
G1 F2400 X109.32 Y181.445 E120.11111
G0 F9000 X110.735 Y181.445
G1 F2400 X90.751 Y161.462 E122.46101
G0 F9000 X90.751 Y160.047
G1 F2400 X112.149 Y181.445 E124.97725
G0 F9000 X113.563 Y181.445
G1 F2400 X90.751 Y158.633 E127.65977
G0 F9000 X90.751 Y157.219
G1 F2400 X114.977 Y181.445 E130.50856
G0 F9000 X116.391 Y181.445
G1 F2400 X90.751 Y155.805 E133.52363
G0 F9000 X90.751 Y154.391
G1 F2400 X117.806 Y181.445 E136.70503
G0 F9000 X119.22 Y181.445
G1 F2400 X90.751 Y152.976 E140.05277
G0 F9000 X90.751 Y151.562
G1 F2400 X120.634 Y181.445 E143.56678
G0 F9000 X122.048 Y181.445
G1 F2400 X90.751 Y150.148 E147.24707
G0 F9000 X90.751 Y148.734
G1 F2400 X123.462 Y181.445 E151.09363
G0 F9000 X124.877 Y181.445
G1 F2400 X90.751 Y147.32 E155.10653
G0 F9000 X90.751 Y145.905
G1 F2400 X126.291 Y181.445 E159.28576
G0 F9000 X127.705 Y181.445
G1 F2400 X90.751 Y144.491 E163.63127
G0 F9000 X90.751 Y143.077
G1 F2400 X129.119 Y181.445 E168.14305
G0 F9000 X130.534 Y181.445
G1 F2400 X90.751 Y141.663 E172.82117
G0 F9000 X90.751 Y140.248
G1 F2400 X131.948 Y181.445 E177.66562
G0 F9000 X133.362 Y181.445
G1 F2400 X90.751 Y138.834 E182.67634
G0 F9000 X90.751 Y137.42
G1 F2400 X134.776 Y181.445 E187.85335
G0 F9000 X136.19 Y181.445
G1 F2400 X90.751 Y136.006 E193.19662
G0 F9000 X90.751 Y134.592
G1 F2400 X137.605 Y181.445 E198.70624
G0 F9000 X139.019 Y181.445
G1 F2400 X90.751 Y133.177 E204.38218
G0 F9000 X90.751 Y131.763
G1 F2400 X140.433 Y181.445 E210.22441
G0 F9000 X141.847 Y181.445
G1 F2400 X90.751 Y130.349 E216.2329
G0 F9000 X90.751 Y128.935
G1 F2400 X143.261 Y181.445 E222.40768
G0 F9000 X144.676 Y181.445
G1 F2400 X90.751 Y127.521 E228.74879
G0 F9000 X90.751 Y126.106
G1 F2400 X146.09 Y181.445 E235.25623
G0 F9000 X147.504 Y181.445
G1 F2400 X90.751 Y124.692 E241.92995
G0 F9000 X90.751 Y123.278
G1 F2400 X148.918 Y181.445 E248.76994
G0 F9000 X150.333 Y181.445
G1 F2400 X90.751 Y121.864 E255.77627
G0 F9000 X90.751 Y120.449
G1 F2400 X151.747 Y181.445 E262.94893
G0 F9000 X153.161 Y181.445
G1 F2400 X90.751 Y119.035 E270.28787
G0 F9000 X90.751 Y117.621
G1 F2400 X154.575 Y181.445 E277.79308
G0 F9000 X155.989 Y181.445
G1 F2400 X90.751 Y116.207 E285.46457
G0 F9000 X90.751 Y114.793
G1 F2400 X157.404 Y181.445 E293.30239
G0 F9000 X158.818 Y181.445
G1 F2400 X90.751 Y113.378 E301.30655
G0 F9000 X90.751 Y111.964
G1 F2400 X160.232 Y181.445 E309.47698
G0 F9000 X161.646 Y181.445
G1 F2400 X90.751 Y110.55 E317.81369
G0 F9000 X90.751 Y109.136
G1 F2400 X163.06 Y181.445 E326.31668
G0 F9000 X164.475 Y181.445
G1 F2400 X90.751 Y107.722 E334.98599
G0 F9000 X90.751 Y106.307
G1 F2400 X165.889 Y181.445 E343.82165
G0 F9000 X167.303 Y181.445
G1 F2400 X90.751 Y104.893 E352.82357
G0 F9000 X90.751 Y103.479
G1 F2400 X168.717 Y181.445 E361.99178
G0 F9000 X170.132 Y181.445
G1 F2400 X90.751 Y102.065 E371.32632
G0 F9000 X90.751 Y100.65
G1 F2400 X171.546 Y181.445 E380.82719
G0 F9000 X172.96 Y181.445
G1 F2400 X90.751 Y99.236 E390.49434
G0 F9000 X90.751 Y97.822
G1 F2400 X174.374 Y181.445 E400.32776
G0 F9000 X175.788 Y181.445
G1 F2400 X90.902 Y96.558 E410.30976
G0 F9000 X91.338 Y95.581
G1 F2400 X177.203 Y181.445 E420.40677
G0 F9000 X178.617 Y181.445
G1 F2400 X92.191 Y95.02 E430.56975
G0 F9000 X93.293 Y94.707
G1 F2400 X180.031 Y181.445 E440.76947
G0 F9000 X181.445 Y181.445
G1 F2400 X94.569 Y94.569 E450.98542
G0 F9000 X95.94 Y94.526
G1 F2400 X182.859 Y181.445 E461.20643
G0 F9000 X184.274 Y181.445
G1 F2400 X97.355 Y94.526 E471.42744
G0 F9000 X98.769 Y94.526
G1 F2400 X185.688 Y181.445 E481.64845
G0 F9000 X187.102 Y181.445
G1 F2400 X100.183 Y94.526 E491.86946
G0 F9000 X101.597 Y94.526
G1 F2400 X188.516 Y181.445 E502.09046
G0 F9000 X189.114 Y182.043
G1 F2400 X194.828 Y187.757 E502.76239
G0 F9000 X193.794 Y188.137
