;FLAVOR:Marlin
;TIME:2068
;Filament used: 2.09693m
;Layer height: 0.32
;MINX:150.434
;MINY:128.7
;MINZ:0.32
;MAXX:191.034
;MAXY:171.3
;MAXZ:24.64
;Generated with Cura_SteamEngine master
M140 S70
M105
M190 S70
M104 S240
M105
M109 S240
M82 ;absolute extrusion mode
G28 ;Home
G1 Z15.0 F2000 ;Move the platform
G92 E0
G92 E0
;LAYER_COUNT:78
;LAYER:0
M107 P2
G0 F9000 X151.816 Y130.859 Z0.32
;TYPE:SKIRT
G1 F2400 X152.133 Y130.516 E0.02485
G1 X152.25 Y130.399 E0.03366
G1 X152.759 Y129.946 E0.06992
G1 X153.317 Y129.557 E0.10612
G1 X153.917 Y129.235 E0.14236
G1 X154.551 Y128.986 E0.1786
G1 X155.21 Y128.813 E0.21486
G1 X155.884 Y128.719 E0.25108
G1 X156.351 Y128.7 E0.27595
G1 X185.117 Y128.7 E1.80677
G1 X185.797 Y128.74 E1.84302
G1 X186.467 Y128.859 E1.87923
G1 X187.119 Y129.056 E1.91548
G1 X187.743 Y129.328 E1.9517
G1 X188.331 Y129.672 E1.98795
G1 X188.875 Y130.082 E2.0242
G1 X189.218 Y130.399 E2.04906
G1 X189.335 Y130.516 E2.05786
G1 X189.788 Y131.025 E2.09413
G1 X190.177 Y131.583 E2.13032
G1 X190.499 Y132.183 E2.16656
G1 X190.748 Y132.817 E2.20281
G1 X190.921 Y133.476 E2.23907
G1 X191.015 Y134.15 E2.27528
G1 X191.034 Y134.617 E2.30015
G1 X191.034 Y165.383 E3.9374
G1 X190.994 Y166.063 E3.97365
G1 X190.875 Y166.733 E4.00987
G1 X190.678 Y167.385 E4.04611
G1 X190.406 Y168.009 E4.08234
G1 X190.062 Y168.597 E4.11859
G1 X189.652 Y169.141 E4.15484
G1 X189.335 Y169.484 E4.1797
G1 X189.218 Y169.601 E4.1885
G1 X188.709 Y170.054 E4.22476
G1 X188.151 Y170.443 E4.26096
G1 X187.551 Y170.765 E4.2972
G1 X186.917 Y171.014 E4.33344
G1 X186.258 Y171.187 E4.3697
G1 X185.584 Y171.281 E4.40592
G1 X185.117 Y171.3 E4.43079
G1 X156.351 Y171.3 E5.96161
G1 X155.671 Y171.26 E5.99786
G1 X155.001 Y171.141 E6.03407
G1 X154.349 Y170.944 E6.07032
G1 X153.725 Y170.672 E6.10654
G1 X153.137 Y170.328 E6.14279
G1 X152.593 Y169.918 E6.17904
G1 X152.25 Y169.601 E6.2039
G1 X152.133 Y169.484 E6.2127
G1 X151.68 Y168.975 E6.24897
G1 X151.291 Y168.417 E6.28516
G1 X150.969 Y167.817 E6.3214
G1 X150.72 Y167.183 E6.35765
G1 X150.547 Y166.524 E6.39391
G1 X150.453 Y165.85 E6.43012
G1 X150.434 Y165.383 E6.45499
G1 X150.434 Y134.617 E8.09224
G1 X150.474 Y133.937 E8.12849
G1 X150.593 Y133.267 E8.16471
G1 X150.79 Y132.615 E8.20095
G1 X151.062 Y131.991 E8.23718
G1 X151.406 Y131.403 E8.27343
G1 X151.816 Y130.859 E8.30968
G0 F9000 X152.416 Y130.799
G1 F2400 X152.533 Y130.682 E8.31849
G1 X153.025 Y130.246 E8.35347
G1 X153.566 Y129.874 E8.38841
G1 X154.148 Y129.57 E8.42335
G1 X154.763 Y129.339 E8.45831
G1 X155.402 Y129.184 E8.4933
G1 X156.351 Y129.1 E8.544
G1 X185.117 Y129.1 E10.07482
G1 X185.773 Y129.14 E10.1098
G1 X186.419 Y129.259 E10.14475
G1 X187.046 Y129.456 E10.17973
G1 X187.644 Y129.728 E10.21469
G1 X188.205 Y130.07 E10.24965
G1 X188.935 Y130.682 E10.30035
G1 X189.052 Y130.799 E10.30915
G1 X189.488 Y131.291 E10.34413
G1 X189.86 Y131.832 E10.37907
G1 X190.164 Y132.414 E10.41402
G1 X190.395 Y133.029 E10.44898
G1 X190.55 Y133.668 E10.48397
G1 X190.634 Y134.617 E10.53467
G1 X190.634 Y165.383 E12.17192
G1 X190.594 Y166.039 E12.20689
G1 X190.475 Y166.685 E12.24185
G1 X190.278 Y167.312 E12.27682
G1 X190.006 Y167.91 E12.31178
G1 X189.664 Y168.471 E12.34675
G1 X189.052 Y169.201 E12.39744
G1 X188.935 Y169.318 E12.40625
G1 X188.443 Y169.754 E12.44123
G1 X187.902 Y170.126 E12.47617
G1 X187.32 Y170.43 E12.51111
G1 X186.705 Y170.661 E12.54607
G1 X186.066 Y170.816 E12.58106
G1 X185.117 Y170.9 E12.63176
G1 X156.351 Y170.9 E14.16258
G1 X155.695 Y170.86 E14.19756
G1 X155.049 Y170.741 E14.23251
G1 X154.422 Y170.544 E14.26749
G1 X153.824 Y170.272 E14.30245
G1 X153.263 Y169.93 E14.33741
G1 X152.533 Y169.318 E14.38811
G1 X152.416 Y169.201 E14.39691
G1 X151.98 Y168.709 E14.4319
G1 X151.608 Y168.168 E14.46683
G1 X151.304 Y167.586 E14.50178
G1 X151.073 Y166.971 E14.53674
G1 X150.918 Y166.332 E14.57173
G1 X150.834 Y165.383 E14.62243
G1 X150.834 Y134.617 E16.25968
G1 X150.874 Y133.961 E16.29465
G1 X150.993 Y133.315 E16.32961
G1 X151.19 Y132.688 E16.36458
G1 X151.462 Y132.09 E16.39954
G1 X151.804 Y131.529 E16.43451
G1 X152.416 Y130.799 E16.4852
G0 F9000 X152.201 Y131.661
G1 F2400 X152.698 Y131.081 E16.52585
G1 X152.815 Y130.964 E16.53466
G1 X153.29 Y130.547 E16.56829
G1 X153.813 Y130.192 E16.60193
G1 X154.377 Y129.906 E16.63558
G1 X154.972 Y129.694 E16.6692
G1 X155.59 Y129.558 E16.70287
G1 X156.351 Y129.5 E16.74349
G1 X185.117 Y129.5 E18.2743
G1 X185.748 Y129.54 E18.30795
G1 X186.369 Y129.659 E18.3416
G1 X186.969 Y129.856 E18.37521
G1 X187.541 Y130.127 E18.40889
G1 X188.073 Y130.467 E18.44249
G1 X188.653 Y130.964 E18.48313
G1 X188.77 Y131.081 E18.49194
G1 X189.187 Y131.556 E18.52558
G1 X189.542 Y132.079 E18.55921
G1 X189.828 Y132.643 E18.59287
G1 X190.04 Y133.238 E18.62648
G1 X190.176 Y133.856 E18.66015
G1 X190.234 Y134.617 E18.70077
G1 X190.234 Y165.383 E20.33802
G1 X190.194 Y166.014 E20.37167
G1 X190.075 Y166.635 E20.40532
G1 X189.878 Y167.235 E20.43892
G1 X189.607 Y167.807 E20.47261
G1 X189.267 Y168.339 E20.5062
G1 X188.77 Y168.919 E20.54685
G1 X188.653 Y169.036 E20.55566
G1 X188.178 Y169.453 E20.58929
G1 X187.655 Y169.808 E20.62293
G1 X187.091 Y170.094 E20.65658
G1 X186.496 Y170.306 E20.6902
G1 X185.878 Y170.442 E20.72387
G1 X185.117 Y170.5 E20.76449
G1 X156.351 Y170.5 E22.2953
G1 X155.72 Y170.46 E22.32895
G1 X155.099 Y170.341 E22.3626
G1 X154.499 Y170.144 E22.39621
G1 X153.927 Y169.873 E22.42989
G1 X153.395 Y169.533 E22.46349
G1 X152.815 Y169.036 E22.50414
G1 X152.698 Y168.919 E22.51294
G1 X152.281 Y168.444 E22.54658
G1 X151.926 Y167.921 E22.58022
G1 X151.64 Y167.357 E22.61387
G1 X151.428 Y166.762 E22.64748
G1 X151.292 Y166.144 E22.68116
G1 X151.234 Y165.383 E22.72177
G1 X151.234 Y134.617 E24.35902
G1 X151.274 Y133.986 E24.39267
G1 X151.393 Y133.365 E24.42632
G1 X151.59 Y132.765 E24.45992
G1 X151.861 Y132.193 E24.49361
G1 X152.201 Y131.661 E24.52721
G0 F9000 X152.599 Y131.798
G1 F2400 X152.981 Y131.364 E24.55797
G1 X153.098 Y131.247 E24.56678
G1 X153.554 Y130.848 E24.59902
G1 X154.059 Y130.512 E24.6313
G1 X154.603 Y130.245 E24.66355
G1 X155.178 Y130.052 E24.69583
G1 X155.773 Y129.936 E24.72809
G1 X156.351 Y129.9 E24.75891
G1 X185.117 Y129.9 E26.28972
G1 X185.722 Y129.94 E26.32199
G1 X186.316 Y130.059 E26.35423
G1 X186.89 Y130.255 E26.38651
G1 X187.433 Y130.526 E26.4188
G1 X187.936 Y130.865 E26.45108
G1 X188.37 Y131.247 E26.48185
G1 X188.487 Y131.364 E26.49065
G1 X188.886 Y131.82 E26.5229
G1 X189.222 Y132.325 E26.55518
G1 X189.489 Y132.869 E26.58743
G1 X189.682 Y133.444 E26.6197
G1 X189.798 Y134.039 E26.65196
G1 X189.834 Y134.617 E26.68278
G1 X189.834 Y165.383 E28.32003
G1 X189.794 Y165.988 E28.3523
G1 X189.675 Y166.582 E28.38454
G1 X189.479 Y167.156 E28.41681
G1 X189.208 Y167.699 E28.44911
G1 X188.869 Y168.202 E28.48139
G1 X188.487 Y168.636 E28.51216
G1 X188.37 Y168.753 E28.52096
G1 X187.914 Y169.152 E28.55321
G1 X187.409 Y169.488 E28.58549
G1 X186.865 Y169.755 E28.61774
G1 X186.29 Y169.948 E28.65001
G1 X185.695 Y170.064 E28.68227
G1 X185.117 Y170.1 E28.71309
G1 X156.351 Y170.1 E30.24391
G1 X155.746 Y170.06 E30.27617
G1 X155.152 Y169.941 E30.30841
G1 X154.578 Y169.745 E30.34069
G1 X154.035 Y169.474 E30.37299
G1 X153.532 Y169.135 E30.40527
G1 X153.098 Y168.753 E30.43603
G1 X152.981 Y168.636 E30.44484
G1 X152.582 Y168.18 E30.47708
G1 X152.246 Y167.675 E30.50936
G1 X151.979 Y167.131 E30.54161
G1 X151.786 Y166.556 E30.57389
G1 X151.67 Y165.961 E30.60615
G1 X151.634 Y165.383 E30.63697
G1 X151.634 Y134.617 E32.27422
G1 X151.674 Y134.012 E32.30648
G1 X151.793 Y133.418 E32.33872
G1 X151.989 Y132.844 E32.371
G1 X152.26 Y132.301 E32.40329
G1 X152.599 Y131.798 E32.43557
G0 F9000 X152.995 Y131.943
G1 F2400 X153.264 Y131.647 E32.45686
G1 X153.381 Y131.53 E32.46566
G1 X153.818 Y131.15 E32.49648
G1 X154.303 Y130.833 E32.52732
G1 X154.827 Y130.586 E32.55814
G1 X155.38 Y130.414 E32.58896
G1 X155.952 Y130.319 E32.61982
G1 X156.351 Y130.3 E32.64108
G1 X185.117 Y130.3 E34.17189
G1 X185.695 Y130.34 E34.20273
G1 X186.262 Y130.459 E34.23356
G1 X186.807 Y130.655 E34.26438
G1 X187.32 Y130.924 E34.29521
G1 X187.791 Y131.261 E34.32603
G1 X188.087 Y131.53 E34.34731
G1 X188.204 Y131.647 E34.35612
G1 X188.584 Y132.084 E34.38693
G1 X188.901 Y132.569 E34.41777
G1 X189.148 Y133.093 E34.4486
G1 X189.32 Y133.646 E34.47941
G1 X189.415 Y134.218 E34.51027
G1 X189.434 Y134.617 E34.53153
G1 X189.434 Y165.383 E36.16878
G1 X189.394 Y165.961 E36.19961
G1 X189.275 Y166.528 E36.23044
G1 X189.079 Y167.073 E36.26126
G1 X188.81 Y167.586 E36.29209
G1 X188.473 Y168.057 E36.32291
G1 X188.204 Y168.353 E36.34419
G1 X188.087 Y168.47 E36.353
G1 X187.65 Y168.85 E36.38382
G1 X187.165 Y169.167 E36.41465
G1 X186.641 Y169.414 E36.44548
G1 X186.088 Y169.586 E36.4763
G1 X185.516 Y169.681 E36.50716
G1 X185.117 Y169.7 E36.52841
G1 X156.351 Y169.7 E38.05923
G1 X155.773 Y169.66 E38.09006
G1 X155.206 Y169.541 E38.12089
G1 X154.661 Y169.345 E38.15172
G1 X154.148 Y169.076 E38.18254
G1 X153.677 Y168.739 E38.21336
G1 X153.381 Y168.47 E38.23465
G1 X153.264 Y168.353 E38.24345
G1 X152.884 Y167.916 E38.27427
G1 X152.567 Y167.431 E38.3051
G1 X152.32 Y166.907 E38.33593
G1 X152.148 Y166.354 E38.36675
G1 X152.053 Y165.782 E38.39761
G1 X152.034 Y165.383 E38.41886
G1 X152.034 Y134.617 E40.05611
G1 X152.074 Y134.039 E40.08695
G1 X152.193 Y133.472 E40.11778
G1 X152.389 Y132.927 E40.1486
G1 X152.658 Y132.414 E40.17942
G1 X152.995 Y131.943 E40.21024
G0 F9000 X153.547 Y131.93
G1 F2400 X153.664 Y131.813 E40.21905
G1 X154.081 Y131.453 E40.24837
G1 X154.545 Y131.156 E40.27768
G1 X155.048 Y130.93 E40.30703
G1 X155.578 Y130.779 E40.33636
G1 X156.351 Y130.7 E40.37771
G1 X185.117 Y130.7 E41.90852
G1 X185.667 Y130.74 E41.93787
G1 X186.205 Y130.859 E41.96719
G1 X186.72 Y131.055 E41.99652
G1 X187.201 Y131.323 E42.02582
G1 X187.804 Y131.813 E42.06717
G1 X187.921 Y131.93 E42.07597
G1 X188.281 Y132.347 E42.10529
G1 X188.578 Y132.811 E42.13461
G1 X188.804 Y133.314 E42.16395
G1 X188.955 Y133.844 E42.19328
G1 X189.034 Y134.617 E42.23463
G1 X189.034 Y165.383 E43.87188
G1 X188.994 Y165.933 E43.90123
G1 X188.875 Y166.471 E43.93055
G1 X188.679 Y166.986 E43.95987
G1 X188.411 Y167.467 E43.98917
G1 X187.921 Y168.07 E44.03052
G1 X187.804 Y168.187 E44.03933
G1 X187.387 Y168.547 E44.06864
G1 X186.923 Y168.844 E44.09796
G1 X186.42 Y169.07 E44.12731
G1 X185.89 Y169.221 E44.15663
G1 X185.117 Y169.3 E44.19799
G1 X156.351 Y169.3 E45.7288
G1 X155.801 Y169.26 E45.75815
G1 X155.263 Y169.141 E45.78747
G1 X154.748 Y168.945 E45.8168
G1 X154.267 Y168.677 E45.8461
G1 X153.664 Y168.187 E45.88745
G1 X153.547 Y168.07 E45.89625
G1 X153.187 Y167.653 E45.92557
G1 X152.89 Y167.189 E45.95489
G1 X152.664 Y166.686 E45.98423
G1 X152.513 Y166.156 E46.01356
G1 X152.434 Y165.383 E46.05491
G1 X152.434 Y134.617 E47.69216
G1 X152.474 Y134.067 E47.7215
G1 X152.593 Y133.529 E47.75083
G1 X152.789 Y133.014 E47.78015
G1 X153.057 Y132.533 E47.80945
G1 X153.547 Y131.93 E47.8508
G0 F9000 X153.83 Y132.213
G1 F2400 X153.947 Y132.096 E47.85961
G1 X154.343 Y131.757 E47.88735
G1 X154.785 Y131.482 E47.91505
G1 X155.265 Y131.278 E47.94281
G1 X155.77 Y131.15 E47.97053
G1 X156.351 Y131.1 E48.00156
G1 X185.117 Y131.1 E49.53238
G1 X185.637 Y131.14 E49.56013
G1 X186.144 Y131.259 E49.58785
G1 X186.627 Y131.454 E49.61557
G1 X187.075 Y131.72 E49.64329
G1 X187.521 Y132.096 E49.67434
G1 X187.638 Y132.213 E49.68314
G1 X187.977 Y132.609 E49.71088
G1 X188.252 Y133.051 E49.73859
G1 X188.456 Y133.531 E49.76634
G1 X188.584 Y134.036 E49.79406
G1 X188.634 Y134.617 E49.8251
G1 X188.634 Y165.383 E51.46235
G1 X188.594 Y165.903 E51.4901
G1 X188.475 Y166.41 E51.51782
G1 X188.28 Y166.893 E51.54553
G1 X188.014 Y167.341 E51.57326
G1 X187.638 Y167.787 E51.6043
G1 X187.521 Y167.904 E51.61311
G1 X187.125 Y168.243 E51.64085
G1 X186.683 Y168.518 E51.66855
G1 X186.203 Y168.722 E51.69631
G1 X185.698 Y168.85 E51.72403
G1 X185.117 Y168.9 E51.75507
G1 X156.351 Y168.9 E53.28588
G1 X155.831 Y168.86 E53.31364
G1 X155.324 Y168.741 E53.34135
G1 X154.841 Y168.546 E53.36907
G1 X154.393 Y168.28 E53.3968
G1 X153.947 Y167.904 E53.42784
G1 X153.83 Y167.787 E53.43665
G1 X153.491 Y167.391 E53.46439
G1 X153.216 Y166.949 E53.49209
G1 X153.012 Y166.469 E53.51984
G1 X152.884 Y165.964 E53.54757
G1 X152.834 Y165.383 E53.5786
G1 X152.834 Y134.617 E55.21585
G1 X152.874 Y134.097 E55.24361
G1 X152.993 Y133.59 E55.27132
G1 X153.188 Y133.107 E55.29904
G1 X153.454 Y132.659 E55.32676
G1 X153.83 Y132.213 E55.35781
G0 F9000 X153.852 Y132.793
G1 F2400 X154.113 Y132.496 E55.37885
G1 X154.23 Y132.379 E55.38765
G1 X154.603 Y132.062 E55.4137
G1 X155.023 Y131.81 E55.43977
G1 X155.478 Y131.63 E55.46581
G1 X155.956 Y131.526 E55.49184
G1 X156.351 Y131.5 E55.51291
G1 X185.117 Y131.5 E57.04372
G1 X185.605 Y131.54 E57.06978
G1 X186.08 Y131.659 E57.09584
G1 X186.529 Y131.853 E57.12187
G1 X186.941 Y132.118 E57.14794
G1 X187.238 Y132.379 E57.16898
G1 X187.355 Y132.496 E57.17778
G1 X187.672 Y132.869 E57.20383
G1 X187.924 Y133.289 E57.2299
G1 X188.104 Y133.744 E57.25594
G1 X188.208 Y134.222 E57.28197
G1 X188.234 Y134.617 E57.30304
G1 X188.234 Y165.383 E58.94029
G1 X188.194 Y165.871 E58.96634
G1 X188.075 Y166.346 E58.9924
G1 X187.881 Y166.795 E59.01843
G1 X187.616 Y167.207 E59.0445
G1 X187.355 Y167.504 E59.06554
G1 X187.238 Y167.621 E59.07435
G1 X186.865 Y167.938 E59.1004
G1 X186.445 Y168.19 E59.12646
G1 X185.99 Y168.37 E59.1525
G1 X185.512 Y168.474 E59.17853
G1 X185.117 Y168.5 E59.1996
G1 X156.351 Y168.5 E60.73042
G1 X155.863 Y168.46 E60.75647
G1 X155.388 Y168.341 E60.78253
G1 X154.939 Y168.147 E60.80856
G1 X154.527 Y167.882 E60.83463
G1 X154.23 Y167.621 E60.85567
G1 X154.113 Y167.504 E60.86448
G1 X153.796 Y167.131 E60.89053
G1 X153.544 Y166.711 E60.91659
G1 X153.364 Y166.256 E60.94263
G1 X153.26 Y165.778 E60.96866
G1 X153.234 Y165.383 E60.98973
G1 X153.234 Y134.617 E62.62698
G1 X153.274 Y134.129 E62.65304
G1 X153.393 Y133.654 E62.6791
G1 X153.587 Y133.205 E62.70512
G1 X153.852 Y132.793 E62.73119
G0 F9000 X154.396 Y132.779
G1 F2400 X154.513 Y132.662 E62.74
G1 X154.862 Y132.369 E62.76425
G1 X155.257 Y132.142 E62.78849
G1 X155.685 Y131.987 E62.81272
G1 X156.351 Y131.9 E62.84846
G1 X185.117 Y131.9 E64.37928
G1 X185.571 Y131.94 E64.40353
G1 X186.011 Y132.058 E64.42777
G1 X186.423 Y132.252 E64.45201
G1 X186.955 Y132.662 E64.48775
G1 X187.072 Y132.779 E64.49656
G1 X187.365 Y133.128 E64.52081
G1 X187.592 Y133.523 E64.54505
G1 X187.747 Y133.951 E64.56927
G1 X187.834 Y134.617 E64.60502
G1 X187.834 Y165.383 E66.24227
G1 X187.794 Y165.837 E66.26652
G1 X187.676 Y166.277 E66.29076
G1 X187.482 Y166.689 E66.315
G1 X187.072 Y167.221 E66.35074
G1 X186.955 Y167.338 E66.35955
G1 X186.606 Y167.631 E66.3838
G1 X186.211 Y167.858 E66.40804
G1 X185.783 Y168.013 E66.43226
G1 X185.117 Y168.1 E66.46801
G1 X156.351 Y168.1 E67.99883
G1 X155.897 Y168.06 E68.02308
G1 X155.457 Y167.942 E68.04732
G1 X155.045 Y167.748 E68.07156
G1 X154.513 Y167.338 E68.1073
G1 X154.396 Y167.221 E68.1161
G1 X154.103 Y166.872 E68.14035
G1 X153.876 Y166.477 E68.1646
G1 X153.721 Y166.049 E68.18882
G1 X153.634 Y165.383 E68.22457
G1 X153.634 Y134.617 E69.86182
G1 X153.674 Y134.163 E69.88607
G1 X153.792 Y133.723 E69.91031
G1 X153.986 Y133.311 E69.93455
G1 X154.396 Y132.779 E69.97029
G0 F9000 X154.678 Y133.061
G1 F2400 X154.795 Y132.944 E69.97909
G1 X155.119 Y132.678 E70.0014
G1 X155.486 Y132.477 E70.02367
G1 X155.886 Y132.35 E70.046
G1 X156.351 Y132.3 E70.07089
G1 X185.117 Y132.3 E71.60171
G1 X185.534 Y132.34 E71.624
G1 X185.936 Y132.458 E71.6463
G1 X186.308 Y132.651 E71.6686
G1 X186.673 Y132.944 E71.69351
G1 X186.79 Y133.061 E71.70231
G1 X187.056 Y133.385 E71.72462
G1 X187.257 Y133.752 E71.74689
G1 X187.384 Y134.152 E71.76922
G1 X187.434 Y134.617 E71.79411
G1 X187.434 Y165.383 E73.43136
G1 X187.394 Y165.8 E73.45366
G1 X187.276 Y166.202 E73.47595
G1 X187.083 Y166.574 E73.49825
G1 X186.79 Y166.939 E73.52316
G1 X186.673 Y167.056 E73.53197
G1 X186.349 Y167.322 E73.55428
G1 X185.982 Y167.523 E73.57654
G1 X185.582 Y167.65 E73.59888
G1 X185.117 Y167.7 E73.62376
G1 X156.351 Y167.7 E75.15458
G1 X155.934 Y167.66 E75.17688
G1 X155.532 Y167.542 E75.19917
G1 X155.16 Y167.349 E75.22147
G1 X154.795 Y167.056 E75.24638
G1 X154.678 Y166.939 E75.25519
G1 X154.412 Y166.615 E75.27749
