;FLAVOR:Marlin
;TIME:3900
;Filament used: 3.13319m
;Layer height: 0.32
;MINX:113.227
;MINY:129.434
;MINZ:0.32
;MAXX:186.773
;MAXY:176.569
;MAXZ:56.32
;Generated with Cura_SteamEngine master
M140 S70
M105
M190 S70
M104 S240
M105
M109 S240
M82 ;absolute extrusion mode
G28 ;Home
G1 Z15.0 F2000 ;Move the platform
G92 E0
G92 E0
;LAYER_COUNT:176
;LAYER:0
M107 P2
G0 F9000 X131.59 Y138.14 Z0.32
;TYPE:SKIRT
G1 F2400 X132.096 Y137.71 E0.03534
G1 X132.312 Y137.547 E0.04974
G1 X132.879 Y137.17 E0.08597
G1 X133.486 Y136.861 E0.12222
G1 X133.845 Y136.718 E0.14278
G1 X134.09 Y136.63 E0.15664
G1 X134.744 Y136.438 E0.19291
G1 X135.415 Y136.324 E0.22913
G1 X135.981 Y136.289 E0.25931
G1 X139.06 Y136.252 E0.42317
G1 X141.618 Y136.235 E0.5593
G1 X158.375 Y136.235 E1.45105
G1 X158.691 Y136.228 E1.46787
G1 X158.962 Y136.229 E1.48229
G1 X159.21 Y136.235 E1.49549
G1 X159.706 Y136.258 E1.52191
G1 X160.271 Y136.299 E1.55206
G1 X160.946 Y136.39 E1.58831
G1 X161.523 Y136.534 E1.61995
G1 X161.759 Y136.606 E1.63308
G1 X162.398 Y136.843 E1.66935
G1 X163.004 Y137.153 E1.70558
G1 X163.511 Y137.487 E1.73788
G1 X163.74 Y137.656 E1.75303
G1 X164.263 Y138.092 E1.78927
G1 X164.732 Y138.586 E1.82551
G1 X165.139 Y139.132 E1.86176
G1 X165.48 Y139.721 E1.89797
G1 X165.749 Y140.347 E1.93423
G1 X165.943 Y140.999 E1.97043
G1 X166.031 Y141.459 E1.99536
G1 X166.109 Y141.977 E2.02323
G1 X166.137 Y142.189 E2.03461
G1 X166.185 Y142.613 E2.05732
G1 X166.222 Y143.292 E2.09351
G1 X166.198 Y143.678 E2.11409
G1 X166.306 Y143.916 E2.128
G1 X166.514 Y144.564 E2.16421
G1 X166.651 Y145.287 E2.20337
G1 X166.679 Y145.511 E2.21539
G1 X166.716 Y145.923 E2.2374
G1 X166.73 Y146.187 E2.25147
G1 X166.726 Y146.868 E2.28771
G1 X166.675 Y147.28 E2.3098
G1 X166.707 Y147.651 E2.32962
G1 X166.672 Y148.468 E2.37314
G1 X166.638 Y148.791 E2.39042
G1 X166.592 Y149.141 E2.40921
G1 X166.56 Y149.34 E2.41993
G1 X166.504 Y149.738 E2.44132
G1 X166.495 Y149.781 E2.44366
G1 X166.437 Y150.14 E2.46301
G1 X166.386 Y150.458 E2.48015
G1 X166.329 Y150.759 E2.49645
G1 X166.275 Y151.09 E2.5143
G1 X166.231 Y151.454 E2.53381
G1 X166.162 Y151.83 E2.55416
G1 X166.127 Y152.156 E2.5716
G1 X166.014 Y152.827 E2.60782
G1 X165.824 Y153.481 E2.64406
G1 X165.558 Y154.108 E2.6803
G1 X165.22 Y154.699 E2.71653
G1 X164.728 Y155.349 E2.75992
G1 X164.515 Y155.588 E2.77695
G1 X164.291 Y155.826 E2.79435
G1 X163.814 Y156.277 E2.82928
G1 X163.814 Y170.769 E3.60049
G1 X163.774 Y171.449 E3.63674
G1 X163.655 Y172.119 E3.67295
G1 X163.458 Y172.771 E3.7092
G1 X163.186 Y173.395 E3.74542
G1 X162.842 Y173.983 E3.78167
G1 X162.432 Y174.527 E3.81793
G1 X161.961 Y175.018 E3.85413
G1 X161.436 Y175.452 E3.89038
G1 X160.864 Y175.821 E3.92661
G1 X160.252 Y176.12 E3.96285
G1 X159.61 Y176.345 E3.99906
G1 X158.945 Y176.494 E4.03532
G1 X158.014 Y176.569 E4.08503
G1 X153.837 Y176.569 E4.30731
G1 X153.157 Y176.529 E4.34356
G1 X152.487 Y176.41 E4.37977
G1 X151.835 Y176.213 E4.41602
G1 X151.211 Y175.941 E4.45224
G1 X150.623 Y175.597 E4.4885
G1 X150.079 Y175.187 E4.52475
G1 X149.588 Y174.716 E4.56096
G1 X148.987 Y173.95 E4.61277
G1 X146.651 Y170.388 E4.83945
G1 X146.095 Y169.59 E4.89121
G1 X145.599 Y168.914 E4.93583
G1 X145.167 Y168.358 E4.9733
G1 X144.703 Y167.793 E5.0122
G1 X144.228 Y167.25 E5.0506
G1 X143.759 Y166.749 E5.08712
G1 X143.421 Y166.41 E5.11259
G1 X142.964 Y165.979 E5.14602
G1 X142.553 Y165.62 E5.17506
G1 X142.193 Y165.326 E5.1998
G1 X141.425 Y164.764 E5.25044
G1 X140.673 Y164.286 E5.29786
G1 X139.888 Y163.854 E5.34554
G1 X139.158 Y163.504 E5.38863
G1 X138.301 Y163.146 E5.43805
G1 X137.5 Y162.854 E5.48342
G1 X136.645 Y162.581 E5.53118
G1 X135.706 Y162.32 E5.58305
G1 X134.73 Y162.086 E5.63646
G1 X134.078 Y161.889 E5.67271
G1 X133.454 Y161.617 E5.70893
G1 X132.866 Y161.274 E5.74516
G1 X132.323 Y160.864 E5.78136
G1 X131.831 Y160.393 E5.81761
G1 X131.398 Y159.867 E5.85387
G1 X131.029 Y159.295 E5.89009
G1 X130.73 Y158.683 E5.92634
G1 X130.505 Y158.041 E5.96254
G1 X130.356 Y157.376 E5.99881
G1 X130.281 Y156.446 E6.04846
G1 X130.281 Y155.659 E6.09034
G1 X130.321 Y154.979 E6.12659
G1 X130.341 Y154.864 E6.1328
G1 X130.244 Y154.67 E6.14434
G1 X129.986 Y153.944 E6.18535
G1 X129.934 Y153.773 E6.19486
G1 X129.768 Y153.113 E6.23107
G1 X129.668 Y152.134 E6.28344
G1 X129.661 Y151.809 E6.30074
G1 X129.645 Y151.09 E6.33901
G1 X129.645 Y148.662 E6.46822
G1 X129.624 Y148.105 E6.49789
G1 X129.618 Y147.768 E6.51582
G1 X129.62 Y147.459 E6.53227
G1 X129.619 Y146.05 E6.60725
G1 X129.621 Y145.738 E6.62385
G1 X129.62 Y144.991 E6.6636
G1 X129.625 Y144.531 E6.68809
G1 X129.639 Y144.093 E6.71141
G1 X129.68 Y143.117 E6.76339
G1 X129.709 Y142.582 E6.7919
G1 X129.721 Y142.299 E6.80698
G1 X129.79 Y141.622 E6.84319
G1 X129.938 Y140.958 E6.87939
G1 X130.047 Y140.618 E6.89839
G1 X130.122 Y140.406 E6.91036
G1 X130.386 Y139.778 E6.94661
G1 X130.723 Y139.186 E6.98286
G1 X131.126 Y138.637 E7.01911
G1 X131.59 Y138.14 E7.05529
G0 F9000 X131.934 Y138.366
G1 F2400 X132.337 Y138.03 E7.08321
G1 X132.553 Y137.867 E7.09761
G1 X133.101 Y137.504 E7.13259
G1 X133.981 Y137.095 E7.18423
G1 X134.226 Y137.007 E7.19809
G1 X134.856 Y136.823 E7.23301
G1 X135.505 Y136.717 E7.26801
G1 X135.985 Y136.689 E7.2936
G1 X139.063 Y136.652 E7.45741
G1 X141.621 Y136.635 E7.59354
G1 X158.39 Y136.635 E8.48592
G1 X158.69 Y136.628 E8.50189
G1 X158.961 Y136.629 E8.51631
G1 X159.191 Y136.635 E8.52856
G1 X159.687 Y136.658 E8.55498
G1 X159.847 Y136.668 E8.56351
G1 X160.241 Y136.698 E8.58454
G1 X160.892 Y136.787 E8.6195
G1 X161.407 Y136.917 E8.64777
G1 X161.643 Y136.989 E8.6609
G1 X162.258 Y137.219 E8.69584
G1 X162.841 Y137.521 E8.73078
G1 X163.274 Y137.809 E8.75846
G1 X163.503 Y137.978 E8.7736
G1 X164.006 Y138.4 E8.80854
G1 X164.455 Y138.879 E8.84348
G1 X164.843 Y139.41 E8.87848
G1 X165.163 Y139.983 E8.91341
G1 X165.411 Y140.592 E8.9484
G1 X165.636 Y141.519 E8.99916
G1 X165.714 Y142.037 E9.02704
G1 X165.74 Y142.234 E9.03761
G1 X165.788 Y142.658 E9.06032
G1 X165.822 Y143.314 E9.09528
G1 X165.792 Y143.747 E9.11838
G1 X165.981 Y144.19 E9.14401
G1 X166.164 Y144.821 E9.17897
G1 X166.254 Y145.336 E9.20679
G1 X166.282 Y145.56 E9.2188
G1 X166.316 Y145.944 E9.23932
G1 X166.33 Y146.208 E9.25339
G1 X166.325 Y146.865 E9.28835
G1 X166.273 Y147.263 E9.30971
G1 X166.309 Y147.755 E9.33596
G1 X166.275 Y148.423 E9.37156
G1 X166.24 Y148.752 E9.38917
G1 X166.198 Y149.077 E9.40661
G1 X166.166 Y149.276 E9.41733
G1 X166.112 Y149.658 E9.43786
G1 X166.045 Y150.059 E9.4595
G1 X165.989 Y150.409 E9.47836
G1 X165.933 Y150.707 E9.4945
G1 X165.873 Y151.071 E9.51413
G1 X165.833 Y151.406 E9.53208
G1 X165.765 Y151.779 E9.55226
G1 X165.729 Y152.113 E9.57014
G1 X165.619 Y152.76 E9.60506
G1 X165.431 Y153.39 E9.64005
G1 X165.168 Y153.992 E9.67501
G1 X164.834 Y154.558 E9.70998
G1 X164.427 Y155.086 E9.74546
G1 X164.223 Y155.314 E9.76174
G1 X163.999 Y155.552 E9.77913
G1 X163.521 Y156.002 E9.81407
G1 X163.414 Y156.081 E9.82115
G1 X163.414 Y170.769 E10.60279
G1 X163.374 Y171.425 E10.63776
G1 X163.255 Y172.071 E10.67272
G1 X163.058 Y172.698 E10.70769
G1 X162.786 Y173.296 E10.74265
G1 X162.444 Y173.857 E10.77762
G1 X162.036 Y174.372 E10.81258
G1 X161.569 Y174.834 E10.84754
G1 X161.049 Y175.235 E10.88249
G1 X160.485 Y175.571 E10.91742
G1 X159.883 Y175.835 E10.9524
G1 X159.254 Y176.025 E10.98737
G1 X158.607 Y176.136 E11.0223
G1 X158.014 Y176.169 E11.05391
G1 X153.837 Y176.169 E11.27619
G1 X153.181 Y176.129 E11.31117
G1 X152.535 Y176.01 E11.34612
G1 X151.908 Y175.813 E11.3811
G1 X151.31 Y175.541 E11.41606
G1 X150.749 Y175.199 E11.45102
G1 X150.234 Y174.791 E11.48599
G1 X149.772 Y174.324 E11.52095
G1 X149.322 Y173.731 E11.56056
G1 X146.97 Y170.145 E11.78878
G1 X146.441 Y169.385 E11.83806
G1 X145.91 Y168.661 E11.88584
G1 X145.449 Y168.07 E11.92573
G1 X144.997 Y167.522 E11.96353
G1 X144.511 Y166.966 E12.00283
G1 X144.051 Y166.475 E12.03863
G1 X143.696 Y166.119 E12.06539
G1 X143.233 Y165.683 E12.09923
G1 X142.817 Y165.319 E12.12865
G1 X142.451 Y165.02 E12.1538
G1 X141.646 Y164.431 E12.20688
G1 X140.877 Y163.942 E12.25537
G1 X140.082 Y163.504 E12.30368
G1 X139.305 Y163.133 E12.3495
G1 X138.444 Y162.772 E12.39918
G1 X137.636 Y162.478 E12.44494
G1 X136.738 Y162.191 E12.49511
G1 X135.823 Y161.936 E12.54566
G1 X134.823 Y161.697 E12.60037
G1 X134.195 Y161.506 E12.6353
G1 X133.594 Y161.239 E12.6703
G1 X133.031 Y160.902 E12.70522
G1 X132.512 Y160.498 E12.74022
G1 X132.046 Y160.035 E12.77518
G1 X131.64 Y159.519 E12.81012
G1 X131.3 Y158.957 E12.84507
G1 X131.031 Y158.357 E12.88006
G1 X130.836 Y157.73 E12.91501
G1 X130.719 Y157.084 E12.94994
G1 X130.681 Y156.446 E12.98396
G1 X130.681 Y155.659 E13.02584
G1 X130.721 Y155.003 E13.06081
G1 X130.758 Y154.802 E13.07169
G1 X130.602 Y154.49 E13.09025
G1 X130.371 Y153.836 E13.12716
G1 X130.315 Y153.653 E13.13735
G1 X130.157 Y153.016 E13.17227
G1 X130.068 Y152.127 E13.21982
G1 X130.064 Y151.874 E13.23328
G1 X130.055 Y151.616 E13.24702
G1 X130.045 Y151.09 E13.27502
G1 X130.045 Y148.671 E13.40375
G1 X130.027 Y148.219 E13.42782
G1 X130.018 Y147.761 E13.4522
G1 X130.02 Y147.459 E13.46827
G1 X130.019 Y146.052 E13.54315
G1 X130.021 Y145.74 E13.55975
G1 X130.02 Y144.995 E13.59939
G1 X130.025 Y144.535 E13.62388
G1 X130.039 Y144.109 E13.64656
G1 X130.079 Y143.139 E13.69822
G1 X130.105 Y142.653 E13.72412
G1 X130.12 Y142.317 E13.74202
G1 X130.189 Y141.663 E13.77702
G1 X130.424 Y140.751 E13.82714
G1 X130.499 Y140.539 E13.8391
G1 X130.756 Y139.934 E13.87408
G1 X131.083 Y139.365 E13.90901
G1 X131.478 Y138.84 E13.94397
G1 X131.934 Y138.366 E13.97897
G0 F9000 X132.275 Y138.597
G1 F2400 X132.578 Y138.349 E13.99981
G1 X132.794 Y138.186 E14.01421
G1 X133.322 Y137.838 E14.04786
G1 X134.116 Y137.471 E14.09441
G1 X134.361 Y137.383 E14.10826
G1 X134.968 Y137.208 E14.14188
G1 X135.593 Y137.11 E14.17555
G1 X135.99 Y137.089 E14.1967
G1 X139.066 Y137.052 E14.36041
G1 X141.624 Y137.035 E14.49654
G1 X158.377 Y137.035 E15.38807
G1 X158.688 Y137.028 E15.40463
G1 X158.959 Y137.029 E15.41905
G1 X159.173 Y137.034 E15.43044
G1 X159.669 Y137.057 E15.45686
G1 X159.817 Y137.066 E15.46475
G1 X160.211 Y137.096 E15.48578
G1 X160.837 Y137.184 E15.51942
G1 X161.29 Y137.3 E15.54431
G1 X161.526 Y137.372 E15.55744
G1 X162.118 Y137.594 E15.59108
G1 X162.677 Y137.889 E15.62472
G1 X163.036 Y138.131 E15.64776
G1 X163.265 Y138.3 E15.6629
G1 X163.749 Y138.707 E15.69656
G1 X164.178 Y139.171 E15.73019
G1 X164.544 Y139.686 E15.76381
G1 X164.843 Y140.243 E15.79745
G1 X165.069 Y140.834 E15.83112
G1 X165.24 Y141.578 E15.87175
G1 X165.318 Y142.096 E15.89963
G1 X165.342 Y142.279 E15.90945
G1 X165.39 Y142.703 E15.93215
G1 X165.422 Y143.334 E15.96578
G1 X165.385 Y143.812 E15.99129
G1 X165.418 Y143.872 E15.99493
G1 X165.651 Y144.46 E16.02859
G1 X165.808 Y145.072 E16.06222
G1 X165.857 Y145.386 E16.07913
G1 X165.885 Y145.61 E16.09114
G1 X165.917 Y145.965 E16.11011
G1 X165.931 Y146.229 E16.12418
G1 X165.924 Y146.861 E16.15781
G1 X165.874 Y147.223 E16.17726
G1 X165.909 Y147.855 E16.21094
G1 X165.877 Y148.378 E16.23883
G1 X165.842 Y148.713 E16.25675
G1 X165.803 Y149.014 E16.27291
G1 X165.771 Y149.213 E16.28363
G1 X165.714 Y149.609 E16.30492
G1 X165.653 Y149.978 E16.32483
G1 X165.607 Y150.238 E16.33888
G1 X165.592 Y150.359 E16.34537
G1 X165.536 Y150.657 E16.3615
G1 X165.531 Y150.699 E16.36375
G1 X165.478 Y151.008 E16.38044
G1 X165.436 Y151.359 E16.39925
G1 X165.367 Y151.736 E16.41964
G1 X165.331 Y152.07 E16.43752
G1 X165.224 Y152.693 E16.47116
G1 X165.039 Y153.297 E16.50478
G1 X164.779 Y153.873 E16.53841
G1 X164.448 Y154.412 E16.57207
G1 X164.126 Y154.823 E16.59985
G1 X163.932 Y155.04 E16.61534
G1 X163.708 Y155.278 E16.63274
G1 X163.247 Y155.71 E16.66636
G1 X163.014 Y155.868 E16.68134
G1 X163.014 Y170.769 E17.47431
G1 X162.974 Y171.4 E17.50796
G1 X162.855 Y172.021 E17.54161
G1 X162.658 Y172.621 E17.57521
G1 X162.387 Y173.193 E17.6089
G1 X162.047 Y173.725 E17.6425
G1 X161.641 Y174.21 E17.67616
G1 X161.178 Y174.64 E17.70978
G1 X160.664 Y175.009 E17.74345
G1 X160.108 Y175.309 E17.77707
G1 X159.519 Y175.537 E17.81069
G1 X158.905 Y175.689 E17.84435
G1 X158.014 Y175.769 E17.89195
G1 X153.837 Y175.769 E18.11424
G1 X153.206 Y175.729 E18.14788
G1 X152.585 Y175.61 E18.18153
G1 X151.985 Y175.413 E18.21514
G1 X151.413 Y175.142 E18.24882
G1 X150.881 Y174.802 E18.28242
G1 X150.396 Y174.396 E18.31608
G1 X149.966 Y173.933 E18.34971
G1 X149.656 Y173.511 E18.37757
G1 X147.3 Y169.918 E18.60622
G1 X146.771 Y169.159 E18.65545
G1 X146.228 Y168.419 E18.7043
G1 X145.798 Y167.865 E18.74162
G1 X145.322 Y167.286 E18.78151
G1 X144.807 Y166.697 E18.82314
G1 X144.343 Y166.202 E18.85925
G1 X143.97 Y165.828 E18.88736
G1 X143.501 Y165.387 E18.92162
G1 X143.051 Y164.993 E18.95344
G1 X142.694 Y164.702 E18.97795
G1 X141.861 Y164.093 E19.03287
G1 X141.082 Y163.597 E19.08201
G1 X140.269 Y163.15 E19.13139
G1 X139.478 Y162.771 E19.17806
G1 X138.61 Y162.408 E19.22813
G1 X137.731 Y162.087 E19.27793
G1 X136.845 Y161.805 E19.32741
G1 X135.905 Y161.545 E19.37931
G1 X134.916 Y161.308 E19.43343
G1 X134.312 Y161.123 E19.46705
G1 X133.736 Y160.862 E19.5007
G1 X133.198 Y160.531 E19.53432
G1 X132.705 Y160.134 E19.568
G1 X132.267 Y159.679 E19.60161
G1 X131.889 Y159.172 E19.63526
G1 X131.579 Y158.621 E19.66891
G1 X131.341 Y158.036 E19.70252
G1 X131.178 Y157.425 E19.73617
G1 X131.093 Y156.799 E19.76979
G1 X131.081 Y156.446 E19.78858
G1 X131.081 Y155.659 E19.83047
G1 X131.121 Y155.028 E19.86411
G1 X131.176 Y154.743 E19.87956
G1 X130.961 Y154.311 E19.90524
G1 X130.756 Y153.727 E19.93818
G1 X130.697 Y153.534 E19.94892
G1 X130.546 Y152.92 E19.98256
G1 X130.468 Y152.12 E20.02534
G1 X130.46 Y151.774 E20.04376
G1 X130.445 Y151.09 E20.08017
G1 X130.445 Y148.655 E20.20975
G1 X130.424 Y148.091 E20.23978
G1 X130.418 Y147.754 E20.25772
G1 X130.42 Y147.459 E20.27342
G1 X130.419 Y146.055 E20.34813
G1 X130.421 Y145.743 E20.36474
G1 X130.42 Y145 E20.40428
G1 X130.425 Y144.54 E20.42876
G1 X130.438 Y144.126 E20.4508
G1 X130.478 Y143.16 E20.50225
G1 X130.507 Y142.625 E20.53076
G1 X130.52 Y142.334 E20.54626
G1 X130.587 Y141.706 E20.57987
G1 X130.801 Y140.884 E20.62508
G1 X130.876 Y140.672 E20.63704
G1 X131.124 Y140.091 E20.67066
G1 X131.444 Y139.546 E20.70429
G1 X131.83 Y139.045 E20.73795
G1 X132.275 Y138.597 E20.77155
G0 F9000 X132.18 Y139.253
G1 F2400 X132.819 Y138.668 E20.81766
G1 X133.035 Y138.505 E20.83206
G1 X133.542 Y138.173 E20.86431
G1 X134.251 Y137.848 E20.90581
G1 X134.496 Y137.76 E20.91967
G1 X135.079 Y137.593 E20.95194
G1 X135.679 Y137.504 E20.98422
G1 X135.995 Y137.489 E21.00105
G1 X139.068 Y137.452 E21.1646
G1 X141.626 Y137.435 E21.30073
G1 X158.392 Y137.435 E22.19295
G1 X158.687 Y137.428 E22.20866
G1 X158.958 Y137.429 E22.22308
G1 X159.154 Y137.434 E22.23351
G1 X159.786 Y137.465 E22.26718
G1 X160.18 Y137.495 E22.28821
G1 X160.78 Y137.581 E22.32047
G1 X161.173 Y137.682 E22.34206
G1 X161.409 Y137.754 E22.35519
G1 X161.976 Y137.969 E22.38746
G1 X162.51 Y138.256 E22.41972
G1 X162.798 Y138.453 E22.43829
G1 X163.027 Y138.622 E22.45344
G1 X163.491 Y139.013 E22.48573
G1 X163.898 Y139.462 E22.51798
G1 X164.243 Y139.961 E22.55026
G1 X164.519 Y140.5 E22.58249
G1 X164.722 Y141.072 E22.61479
G1 X164.845 Y141.638 E22.64561
G1 X164.923 Y142.156 E22.67349
G1 X164.945 Y142.324 E22.6825
G1 X164.993 Y142.748 E22.70521
G1 X165.021 Y143.353 E22.73744
G1 X164.975 Y143.901 E22.76671
G1 X165.107 Y144.156 E22.78199
G1 X165.314 Y144.726 E22.81426
G1 X165.46 Y145.435 E22.85278
G1 X165.488 Y145.659 E22.86479
G1 X165.518 Y145.986 E22.88227
G1 X165.532 Y146.25 E22.89634
G1 X165.524 Y146.857 E22.92864
G1 X165.467 Y147.242 E22.94935
G1 X165.485 Y147.345 E22.95492
G1 X165.507 Y147.951 E22.98719
G1 X165.48 Y148.333 E23.00757
G1 X165.444 Y148.673 E23.02576
G1 X165.408 Y148.95 E23.04063
G1 X165.386 Y149.089 E23.04812
G1 X165.329 Y149.497 E23.07004
G1 X165.261 Y149.897 E23.09163
G1 X165.211 Y150.182 E23.10703
G1 X165.195 Y150.31 E23.11389
G1 X165.138 Y150.614 E23.13035
G1 X165.08 Y150.967 E23.14939
G1 X165.039 Y151.311 E23.16783
G1 X164.97 Y151.693 E23.18848
G1 X164.934 Y152.027 E23.20636
G1 X164.829 Y152.624 E23.23862
G1 X164.647 Y153.202 E23.27087
G1 X164.39 Y153.752 E23.30317
G1 X164.063 Y154.263 E23.33546
G1 X163.825 Y154.56 E23.35571
G1 X163.641 Y154.766 E23.37041
