;FLAVOR:Marlin
;TIME:3769
;Filament used: 5.29436m
;Layer height: 0.32
;MINX:96.7
;MINY:135.05
;MINZ:0.32
;MAXX:203.3
;MAXY:164.95
;MAXZ:15.36
;Generated with Cura_SteamEngine master
M140 S70
M105
M190 S70
M104 S240
M105
M109 S240
M82 ;absolute extrusion mode
G28 ;Home
G1 Z15.0 F2000 ;Move the platform
G92 E0
G92 E0
;LAYER_COUNT:48
;LAYER:0
M107 P2
G0 F9000 X101.098 Y137.158 Z0.32
;TYPE:SKIRT
G1 F2400 X101.668 Y136.766 E0.03681
G1 X102.183 Y136.455 E0.06883
G1 X102.808 Y136.127 E0.10639
G1 X103.359 Y135.88 E0.13853
G1 X104.02 Y135.632 E0.1761
G1 X104.596 Y135.454 E0.20818
G1 X105.266 Y135.289 E0.2449
G1 X105.863 Y135.18 E0.27719
G1 X106.555 Y135.097 E0.31428
G1 X107.15 Y135.061 E0.34601
G1 X107.5 Y135.05 E0.36464
G1 X127.506 Y135.05 E1.42928
G1 X127.862 Y135.061 E1.44824
G1 X128.463 Y135.098 E1.48028
G1 X129.167 Y135.185 E1.51803
G1 X129.764 Y135.296 E1.55034
G1 X130.434 Y135.462 E1.58708
G1 X131.01 Y135.642 E1.61919
G1 X131.663 Y135.89 E1.65636
G1 X132.211 Y136.137 E1.68835
G1 X132.843 Y136.47 E1.72637
G1 X133.359 Y136.784 E1.75851
G1 X133.917 Y137.17 E1.79462
G1 X134.394 Y137.543 E1.82684
G1 X134.927 Y138.016 E1.86477
G1 X135.352 Y138.442 E1.89679
G1 X135.819 Y138.97 E1.9343
G1 X136.192 Y139.448 E1.96657
G1 X136.584 Y140.018 E2.00338
G1 X136.895 Y140.533 E2.0354
G1 X137.223 Y141.158 E2.07296
G1 X137.47 Y141.709 E2.10509
G1 X137.718 Y142.37 E2.14266
G1 X137.896 Y142.946 E2.17474
G1 X138.002 Y143.375 E2.19826
G1 X161.998 Y143.375 E3.47524
G1 X162.111 Y142.919 E3.50024
G1 X162.29 Y142.345 E3.53223
G1 X162.54 Y141.688 E3.56964
G1 X162.788 Y141.138 E3.60175
G1 X163.12 Y140.507 E3.63969
G1 X163.434 Y139.991 E3.67184
G1 X163.818 Y139.436 E3.70775
G1 X164.189 Y138.961 E3.73983
G1 X164.664 Y138.425 E3.77794
G1 X165.092 Y137.998 E3.81011
G1 X165.62 Y137.531 E3.84762
G1 X166.098 Y137.158 E3.87989
G1 X166.668 Y136.766 E3.9167
G1 X167.183 Y136.455 E3.94872
G1 X167.808 Y136.127 E3.98628
G1 X168.359 Y135.88 E4.01842
G1 X169.02 Y135.632 E4.05599
G1 X169.596 Y135.454 E4.08807
G1 X170.266 Y135.289 E4.12479
G1 X170.863 Y135.18 E4.15708
G1 X171.555 Y135.097 E4.19417
G1 X172.15 Y135.061 E4.2259
G1 X172.5 Y135.05 E4.24453
G1 X192.506 Y135.05 E5.30917
G1 X192.862 Y135.061 E5.32813
G1 X193.463 Y135.098 E5.36017
G1 X194.167 Y135.185 E5.39792
G1 X194.764 Y135.296 E5.43024
G1 X195.434 Y135.462 E5.46697
G1 X196.01 Y135.642 E5.49908
G1 X196.663 Y135.89 E5.53625
G1 X197.211 Y136.137 E5.56824
G1 X197.843 Y136.47 E5.60626
G1 X198.359 Y136.784 E5.6384
G1 X198.917 Y137.17 E5.67451
G1 X199.394 Y137.543 E5.70673
G1 X199.927 Y138.016 E5.74466
G1 X200.352 Y138.442 E5.77668
G1 X200.819 Y138.97 E5.81419
G1 X201.192 Y139.448 E5.84646
G1 X201.584 Y140.018 E5.88327
G1 X201.895 Y140.533 E5.91529
G1 X202.223 Y141.158 E5.95285
G1 X202.47 Y141.709 E5.98498
G1 X202.718 Y142.37 E6.02255
G1 X202.896 Y142.946 E6.05463
G1 X203.061 Y143.616 E6.09135
G1 X203.17 Y144.213 E6.12365
G1 X203.253 Y144.904 E6.16069
G1 X203.289 Y145.498 E6.19235
G1 X203.3 Y145.849 E6.21104
G1 X203.3 Y154.156 E6.65311
G1 X203.289 Y154.512 E6.67206
G1 X203.252 Y155.113 E6.70411
G1 X203.165 Y155.817 E6.74186
G1 X203.054 Y156.414 E6.77417
G1 X202.889 Y157.081 E6.81074
G1 X202.71 Y157.655 E6.84273
G1 X202.46 Y158.312 E6.88014
G1 X202.212 Y158.862 E6.91225
G1 X201.88 Y159.493 E6.95019
G1 X201.566 Y160.009 E6.98234
G1 X201.182 Y160.564 E7.01825
G1 X200.811 Y161.039 E7.05033
G1 X200.336 Y161.575 E7.08844
G1 X199.908 Y162.002 E7.12061
G1 X199.38 Y162.469 E7.15812
G1 X198.902 Y162.842 E7.19039
G1 X198.332 Y163.234 E7.2272
G1 X197.817 Y163.545 E7.25922
G1 X197.192 Y163.873 E7.29678
G1 X196.641 Y164.12 E7.32892
G1 X195.98 Y164.368 E7.36649
G1 X195.404 Y164.546 E7.39857
G1 X194.734 Y164.711 E7.43529
G1 X194.137 Y164.82 E7.46758
G1 X193.445 Y164.903 E7.50467
G1 X192.85 Y164.939 E7.53639
G1 X192.5 Y164.95 E7.55503
G1 X107.494 Y164.95 E12.07873
G1 X107.138 Y164.939 E12.09768
G1 X106.537 Y164.902 E12.12972
G1 X105.833 Y164.815 E12.16747
G1 X105.236 Y164.704 E12.19979
G1 X104.566 Y164.538 E12.23652
G1 X103.99 Y164.358 E12.26864
G1 X103.336 Y164.109 E12.30588
G1 X102.786 Y163.861 E12.33798
G1 X102.153 Y163.528 E12.37605
G1 X101.639 Y163.215 E12.40807
G1 X101.083 Y162.83 E12.44406
G1 X100.606 Y162.457 E12.47628
G1 X100.073 Y161.984 E12.51421
G1 X99.646 Y161.556 E12.54638
G1 X99.177 Y161.026 E12.58404
G1 X98.806 Y160.55 E12.61616
G1 X98.415 Y159.981 E12.6529
G1 X98.103 Y159.464 E12.68503
G1 X97.776 Y158.84 E12.72252
G1 X97.529 Y158.289 E12.75466
G1 X97.28 Y157.625 E12.7924
G1 X97.103 Y157.051 E12.82436
G1 X96.939 Y156.384 E12.86091
G1 X96.83 Y155.787 E12.89321
G1 X96.747 Y155.096 E12.93025
G1 X96.711 Y154.502 E12.96191
G1 X96.7 Y154.151 E12.9806
G1 X96.7 Y145.844 E13.42267
G1 X96.711 Y145.488 E13.44162
G1 X96.748 Y144.887 E13.47367
G1 X96.835 Y144.183 E13.51142
G1 X96.946 Y143.586 E13.54373
G1 X97.111 Y142.919 E13.5803
G1 X97.29 Y142.345 E13.61229
G1 X97.54 Y141.688 E13.6497
G1 X97.788 Y141.138 E13.68181
G1 X98.12 Y140.507 E13.71975
G1 X98.434 Y139.991 E13.7519
G1 X98.818 Y139.436 E13.78781
G1 X99.189 Y138.961 E13.81989
G1 X99.664 Y138.425 E13.858
G1 X100.092 Y137.998 E13.89017
G1 X100.62 Y137.531 E13.92768
G1 X101.098 Y137.158 E13.95995
G0 F9000 X101.344 Y137.474
G1 F2400 X101.875 Y137.108 E13.99427
G1 X102.39 Y136.797 E14.02628
G1 X102.972 Y136.492 E14.06125
G1 X103.523 Y136.245 E14.09338
G1 X104.138 Y136.014 E14.12835
G1 X104.714 Y135.836 E14.16043
G1 X105.338 Y135.683 E14.19462
G1 X105.935 Y135.574 E14.22691
G1 X106.579 Y135.496 E14.26144
G1 X107.174 Y135.46 E14.29316
G1 X107.5 Y135.45 E14.31051
G1 X127.506 Y135.45 E15.37516
G1 X127.838 Y135.46 E15.39283
G1 X128.439 Y135.497 E15.42488
G1 X129.094 Y135.578 E15.46
G1 X129.691 Y135.689 E15.49231
G1 X130.315 Y135.844 E15.52653
G1 X130.891 Y136.024 E15.55864
G1 X131.499 Y136.255 E15.59326
G1 X132.047 Y136.502 E15.62524
G1 X132.635 Y136.812 E15.66062
G1 X133.151 Y137.126 E15.69276
G1 X133.67 Y137.485 E15.72634
G1 X134.147 Y137.858 E15.75857
G1 X134.644 Y138.298 E15.79389
G1 X135.069 Y138.724 E15.82591
G1 X135.503 Y139.216 E15.86083
G1 X135.876 Y139.694 E15.89309
G1 X136.242 Y140.225 E15.92741
G1 X136.553 Y140.74 E15.95943
G1 X136.858 Y141.322 E15.9944
G1 X137.105 Y141.873 E16.02653
G1 X137.336 Y142.488 E16.06149
G1 X137.514 Y143.064 E16.09357
G1 X137.667 Y143.688 E16.12776
G1 X137.683 Y143.775 E16.13247
G1 X162.317 Y143.775 E17.4434
G1 X162.339 Y143.659 E17.44968
G1 X162.493 Y143.038 E17.48373
G1 X162.672 Y142.464 E17.51573
G1 X162.904 Y141.852 E17.55056
G1 X163.152 Y141.302 E17.58266
G1 X163.462 Y140.715 E17.61799
G1 X163.776 Y140.199 E17.65014
G1 X164.133 Y139.682 E17.68357
G1 X164.504 Y139.207 E17.71564
G1 X164.946 Y138.708 E17.75112
G1 X165.374 Y138.281 E17.78329
G1 X165.866 Y137.847 E17.81821
G1 X166.344 Y137.474 E17.85047
G1 X166.875 Y137.108 E17.88479
G1 X167.39 Y136.797 E17.91681
G1 X167.972 Y136.492 E17.95177
G1 X168.523 Y136.245 E17.98391
G1 X169.138 Y136.014 E18.01887
G1 X169.714 Y135.836 E18.05095
G1 X170.338 Y135.683 E18.08514
G1 X170.935 Y135.574 E18.11744
G1 X171.579 Y135.496 E18.15196
G1 X172.174 Y135.46 E18.18368
G1 X172.5 Y135.45 E18.20104
G1 X192.506 Y135.45 E19.26568
G1 X192.838 Y135.46 E19.28336
G1 X193.439 Y135.497 E19.3154
G1 X194.094 Y135.578 E19.35052
G1 X194.691 Y135.689 E19.38284
G1 X195.315 Y135.844 E19.41705
G1 X195.891 Y136.024 E19.44917
G1 X196.499 Y136.255 E19.48378
G1 X197.047 Y136.502 E19.51577
G1 X197.635 Y136.812 E19.55114
G1 X198.151 Y137.126 E19.58328
G1 X198.67 Y137.485 E19.61687
G1 X199.147 Y137.858 E19.64909
G1 X199.644 Y138.298 E19.68441
G1 X200.069 Y138.724 E19.71644
G1 X200.503 Y139.216 E19.75135
G1 X200.876 Y139.694 E19.78362
G1 X201.242 Y140.225 E19.81794
G1 X201.553 Y140.74 E19.84995
G1 X201.858 Y141.322 E19.88492
G1 X202.105 Y141.873 E19.91705
G1 X202.336 Y142.488 E19.95201
G1 X202.514 Y143.064 E19.9841
G1 X202.667 Y143.688 E20.01829
G1 X202.776 Y144.285 E20.05058
G1 X202.854 Y144.928 E20.08505
G1 X202.89 Y145.522 E20.11672
G1 X202.9 Y145.849 E20.13413
G1 X202.9 Y154.156 E20.5762
G1 X202.89 Y154.488 E20.59387
G1 X202.853 Y155.089 E20.62592
G1 X202.772 Y155.744 E20.66104
G1 X202.661 Y156.341 E20.69335
G1 X202.507 Y156.962 E20.7274
G1 X202.328 Y157.536 E20.7594
G1 X202.096 Y158.148 E20.79423
G1 X201.848 Y158.698 E20.82633
G1 X201.538 Y159.285 E20.86166
G1 X201.224 Y159.801 E20.8938
G1 X200.867 Y160.318 E20.92724
G1 X200.496 Y160.793 E20.95931
G1 X200.054 Y161.292 E20.99479
G1 X199.626 Y161.719 E21.02696
G1 X199.134 Y162.153 E21.06187
G1 X198.656 Y162.526 E21.09414
G1 X198.125 Y162.892 E21.12846
G1 X197.61 Y163.203 E21.16048
G1 X197.028 Y163.508 E21.19544
G1 X196.477 Y163.755 E21.22758
G1 X195.862 Y163.986 E21.26254
G1 X195.286 Y164.164 E21.29462
G1 X194.662 Y164.317 E21.32881
G1 X194.065 Y164.426 E21.36111
G1 X193.421 Y164.504 E21.39563
G1 X192.826 Y164.54 E21.42735
G1 X192.5 Y164.55 E21.44471
G1 X107.494 Y164.55 E25.9684
G1 X107.162 Y164.54 E25.98608
G1 X106.561 Y164.503 E26.01812
G1 X105.906 Y164.422 E26.05324
G1 X105.309 Y164.311 E26.08556
G1 X104.685 Y164.156 E26.11978
G1 X104.109 Y163.976 E26.15189
G1 X103.5 Y163.745 E26.18655
G1 X102.95 Y163.497 E26.21866
G1 X102.361 Y163.186 E26.2541
G1 X101.847 Y162.873 E26.28613
G1 X101.33 Y162.515 E26.31959
G1 X100.853 Y162.142 E26.35182
G1 X100.356 Y161.702 E26.38714
G1 X99.929 Y161.274 E26.41932
G1 X99.493 Y160.78 E26.45438
G1 X99.122 Y160.304 E26.4865
G1 X98.758 Y159.774 E26.52071
G1 X98.446 Y159.257 E26.55285
G1 X98.141 Y158.676 E26.58777
G1 X97.894 Y158.125 E26.6199
G1 X97.662 Y157.507 E26.65503
G1 X97.485 Y156.933 E26.68699
G1 X97.333 Y156.312 E26.72102
G1 X97.224 Y155.715 E26.75331
G1 X97.146 Y155.072 E26.78778
G1 X97.11 Y154.478 E26.81945
G1 X97.1 Y154.151 E26.83686
G1 X97.1 Y145.844 E27.27893
G1 X97.11 Y145.512 E27.2966
G1 X97.147 Y144.911 E27.32864
G1 X97.228 Y144.256 E27.36377
G1 X97.339 Y143.659 E27.39608
G1 X97.493 Y143.038 E27.43013
G1 X97.672 Y142.464 E27.46213
G1 X97.904 Y141.852 E27.49696
G1 X98.152 Y141.302 E27.52906
G1 X98.462 Y140.715 E27.56439
G1 X98.776 Y140.199 E27.59653
G1 X99.133 Y139.682 E27.62997
G1 X99.504 Y139.207 E27.66204
G1 X99.946 Y138.708 E27.69752
G1 X100.374 Y138.281 E27.72969
G1 X100.866 Y137.847 E27.7646
G1 X101.344 Y137.474 E27.79687
G0 F9000 X101.59 Y137.789
G1 F2400 X102.081 Y137.451 E27.82859
G1 X102.596 Y137.14 E27.86061
G1 X103.136 Y136.857 E27.89305
G1 X103.687 Y136.61 E27.92518
G1 X104.256 Y136.396 E27.95754
G1 X104.832 Y136.218 E27.98962
G1 X105.41 Y136.076 E28.02129
G1 X106.007 Y135.967 E28.05359
G1 X106.603 Y135.895 E28.08553
G1 X107.198 Y135.859 E28.11726
G1 X107.5 Y135.85 E28.13333
G1 X127.506 Y135.85 E29.19798
G1 X127.813 Y135.859 E29.21432
G1 X128.414 Y135.896 E29.24637
G1 X129.021 Y135.971 E29.27891
G1 X129.618 Y136.082 E29.31123
G1 X130.195 Y136.226 E29.34288
G1 X130.771 Y136.406 E29.37499
G1 X131.335 Y136.62 E29.40709
G1 X131.883 Y136.867 E29.43908
G1 X132.427 Y137.154 E29.47181
G1 X132.943 Y137.468 E29.50396
G1 X133.424 Y137.8 E29.53506
G1 X133.901 Y138.173 E29.56728
G1 X134.361 Y138.581 E29.6
G1 X134.786 Y139.007 E29.63203
G1 X135.188 Y139.462 E29.66434
G1 X135.561 Y139.94 E29.6966
G1 X135.899 Y140.431 E29.72832
G1 X136.21 Y140.946 E29.76034
G1 X136.493 Y141.486 E29.79278
G1 X136.74 Y142.037 E29.82492
G1 X136.954 Y142.606 E29.85727
G1 X137.132 Y143.182 E29.88935
G1 X137.274 Y143.76 E29.92102
G1 X137.35 Y144.175 E29.94348
G1 X162.65 Y144.175 E31.28985
G1 X162.732 Y143.732 E31.31382
G1 X162.875 Y143.157 E31.34535
G1 X163.054 Y142.583 E31.37735
G1 X163.269 Y142.017 E31.40957
G1 X163.517 Y141.467 E31.44168
G1 X163.804 Y140.923 E31.47441
G1 X164.118 Y140.407 E31.50655
G1 X164.449 Y139.928 E31.53754
G1 X164.82 Y139.453 E31.56961
G1 X165.229 Y138.991 E31.60245
G1 X165.657 Y138.564 E31.63462
G1 X166.112 Y138.162 E31.66693
G1 X166.59 Y137.789 E31.6992
G1 X167.081 Y137.451 E31.73092
G1 X167.596 Y137.14 E31.76293
G1 X168.136 Y136.857 E31.79538
G1 X168.687 Y136.61 E31.82751
G1 X169.256 Y136.396 E31.85986
G1 X169.832 Y136.218 E31.89194
G1 X170.41 Y136.076 E31.92362
G1 X171.007 Y135.967 E31.95591
G1 X171.603 Y135.895 E31.98786
G1 X172.198 Y135.859 E32.01958
G1 X172.5 Y135.85 E32.03566
G1 X192.506 Y135.85 E33.1003
G1 X192.813 Y135.859 E33.11665
G1 X193.414 Y135.896 E33.14869
G1 X194.021 Y135.971 E33.18124
G1 X194.618 Y136.082 E33.21355
G1 X195.195 Y136.226 E33.2452
G1 X195.771 Y136.406 E33.27732
G1 X196.335 Y136.62 E33.30942
G1 X196.883 Y136.867 E33.34141
G1 X197.427 Y137.154 E33.37414
G1 X197.943 Y137.468 E33.40628
G1 X198.424 Y137.8 E33.43738
G1 X198.901 Y138.173 E33.46961
G1 X199.361 Y138.581 E33.50233
G1 X199.786 Y139.007 E33.53435
G1 X200.188 Y139.462 E33.56666
G1 X200.561 Y139.94 E33.59893
G1 X200.899 Y140.431 E33.63065
G1 X201.21 Y140.946 E33.66267
G1 X201.493 Y141.486 E33.69511
G1 X201.74 Y142.037 E33.72724
G1 X201.954 Y142.606 E33.75959
G1 X202.132 Y143.182 E33.79168
G1 X202.274 Y143.76 E33.82335
G1 X202.383 Y144.357 E33.85565
G1 X202.455 Y144.953 E33.88759
G1 X202.491 Y145.547 E33.91926
G1 X202.5 Y145.849 E33.93534
G1 X202.5 Y154.156 E34.37741
G1 X202.491 Y154.463 E34.39375
G1 X202.454 Y155.064 E34.42579
G1 X202.379 Y155.671 E34.45834
G1 X202.268 Y156.268 E34.49066
G1 X202.125 Y156.843 E34.52219
G1 X201.946 Y157.417 E34.55419
G1 X201.731 Y157.983 E34.58641
G1 X201.483 Y158.533 E34.61851
G1 X201.196 Y159.077 E34.65124
G1 X200.882 Y159.593 E34.68339
G1 X200.551 Y160.072 E34.71437
G1 X200.18 Y160.547 E34.74645
G1 X199.771 Y161.009 E34.77928
G1 X199.343 Y161.436 E34.81146
G1 X198.888 Y161.838 E34.84377
G1 X198.41 Y162.211 E34.87603
G1 X197.919 Y162.549 E34.90775
G1 X197.404 Y162.86 E34.93977
G1 X196.864 Y163.143 E34.97221
G1 X196.313 Y163.39 E35.00435
G1 X195.744 Y163.604 E35.0367
G1 X195.168 Y163.782 E35.06878
G1 X194.59 Y163.924 E35.10045
G1 X193.993 Y164.033 E35.13275
G1 X193.397 Y164.105 E35.1647
G1 X192.802 Y164.141 E35.19642
G1 X192.5 Y164.15 E35.2125
G1 X107.494 Y164.15 E39.73619
G1 X107.187 Y164.141 E39.75254
G1 X106.586 Y164.104 E39.78458
G1 X105.979 Y164.029 E39.81713
G1 X105.382 Y163.918 E39.84944
G1 X104.805 Y163.774 E39.88109
G1 X104.229 Y163.594 E39.91321
G1 X103.665 Y163.38 E39.94531
G1 X103.115 Y163.132 E39.97742
G1 X102.569 Y162.845 E40.01024
G1 X102.055 Y162.532 E40.04227
G1 X101.576 Y162.2 E40.07328
G1 X101.099 Y161.827 E40.10551
G1 X100.639 Y161.419 E40.13823
G1 X100.212 Y160.991 E40.1704
G1 X99.808 Y160.534 E40.20286
G1 X99.437 Y160.058 E40.23498
G1 X99.1 Y159.567 E40.26667
G1 X98.788 Y159.05 E40.2988
G1 X98.506 Y158.512 E40.33113
G1 X98.259 Y157.961 E40.36326
G1 X98.044 Y157.389 E40.39578
G1 X97.867 Y156.815 E40.42774
G1 X97.726 Y156.24 E40.45925
G1 X97.617 Y155.643 E40.49155
G1 X97.545 Y155.047 E40.52349
G1 X97.509 Y154.453 E40.55516
G1 X97.5 Y154.151 E40.57124
G1 X97.5 Y145.844 E41.01331
G1 X97.509 Y145.537 E41.02965
G1 X97.546 Y144.936 E41.0617
G1 X97.621 Y144.329 E41.09424
G1 X97.732 Y143.732 E41.12656
G1 X97.875 Y143.157 E41.15809
G1 X98.054 Y142.583 E41.19009
G1 X98.269 Y142.017 E41.22231
G1 X98.517 Y141.467 E41.25441
G1 X98.804 Y140.923 E41.28714
G1 X99.118 Y140.407 E41.31929
G1 X99.449 Y139.928 E41.35027
G1 X99.82 Y139.453 E41.38235
G1 X100.229 Y138.991 E41.41518
G1 X100.657 Y138.564 E41.44736
G1 X101.112 Y138.162 E41.47967
G1 X101.59 Y137.789 E41.51193
G0 F9000 X101.836 Y138.104
G1 F2400 X102.288 Y137.793 E41.54113
G1 X102.803 Y137.482 E41.57315
G1 X103.299 Y137.222 E41.60295
G1 X103.85 Y136.975 E41.63508
G1 X104.374 Y136.778 E41.66487
G1 X104.95 Y136.6 E41.69695
G1 X105.482 Y136.47 E41.7261
G1 X106.079 Y136.361 E41.75839
G1 X106.627 Y136.294 E41.78777
G1 X107.222 Y136.258 E41.8195
G1 X107.5 Y136.25 E41.8343
G1 X127.506 Y136.25 E42.89894
G1 X127.789 Y136.259 E42.91401
G1 X128.39 Y136.296 E42.94605
G1 X128.948 Y136.365 E42.97597
G1 X129.545 Y136.476 E43.00829
G1 X130.076 Y136.607 E43.03739
G1 X130.652 Y136.787 E43.06951
G1 X131.17 Y136.984 E43.099
G1 X131.718 Y137.231 E43.13099
G1 X132.219 Y137.495 E43.16112
G1 X132.735 Y137.809 E43.19327
G1 X133.178 Y138.115 E43.22192
G1 X133.655 Y138.488 E43.25414
G1 X134.078 Y138.863 E43.28422
G1 X134.503 Y139.289 E43.31625
G1 X134.873 Y139.708 E43.34599
G1 X135.246 Y140.186 E43.37826
G1 X135.557 Y140.638 E43.40746
