;FLAVOR:Marlin
;TIME:14280
;Filament used: 37.0803m
;Layer height: 0.32
;MINX:39.406
;MINY:97.9
;MINZ:0.32
;MAXX:260.594
;MAXY:202.1
;MAXZ:24.96
;Generated with Cura_SteamEngine master
M140 S90
M105
M190 S90
M104 S240
M105
M109 S240
M82 ;absolute extrusion mode
G28 ;Home
G1 Z15.0 F2000 ;Move the platform
G92 E0
G92 E0
G1 F1500 E-4
;LAYER_COUNT:78
;LAYER:0
M107 P2
G0 F7500 X50.569 Y99.784 Z0.32
;TYPE:SKIRT
G1 F1500 E0
G1 X51.569 Y99.287 E0.11885
G1 X52.603 Y98.864 E0.23776
G1 X53.664 Y98.515 E0.35663
G1 X54.747 Y98.243 E0.47548
G1 X55.847 Y98.049 E0.59436
G1 X56.959 Y97.935 E0.71334
G1 X58.001 Y97.9 E0.8243
G1 X241.999 Y97.9 E20.40766
G1 X243.115 Y97.94 E20.52651
G1 X244.226 Y98.06 E20.64544
G1 X245.325 Y98.259 E20.76432
G1 X246.407 Y98.536 E20.88319
G1 X247.466 Y98.889 E21.002
G1 X248.498 Y99.318 E21.12095
G1 X249.496 Y99.82 E21.23985
G1 X250.456 Y100.391 E21.35873
G1 X251.372 Y101.03 E21.4776
G1 X252.24 Y101.732 E21.59642
G1 X253.056 Y102.495 E21.71532
G1 X253.815 Y103.315 E21.83424
G1 X254.514 Y104.186 E21.9531
G1 X255.148 Y105.106 E22.07202
G1 X255.715 Y106.068 E22.19087
G1 X256.212 Y107.068 E22.30972
G1 X256.635 Y108.102 E22.42863
G1 X256.984 Y109.163 E22.5475
G1 X257.256 Y110.246 E22.66635
G1 X257.45 Y111.346 E22.78523
G1 X257.564 Y112.458 E22.90421
G1 X257.584 Y113.044 E22.96661
G1 X257.605 Y113.49 E23.01413
G1 X258.867 Y156.664 E27.61121
G1 X258.96 Y157.258 E27.6752
G1 X258.998 Y157.514 E27.70275
G1 X259.298 Y159.67 E27.93443
G1 X259.328 Y159.897 E27.9588
G1 X259.596 Y162.055 E28.19024
G1 X259.626 Y162.315 E28.2181
G1 X259.858 Y164.479 E28.44974
G1 X259.881 Y164.709 E28.47434
G1 X260.081 Y166.877 E28.70606
G1 X260.103 Y167.134 E28.73352
G1 X260.267 Y169.304 E28.96513
G1 X260.414 Y171.703 E29.22094
G1 X260.428 Y171.961 E29.24844
G1 X260.524 Y174.134 E29.47995
G1 X260.539 Y174.715 E29.5418
G1 X260.542 Y175.202 E29.59364
G1 X260.57 Y175.723 E29.64917
G1 X260.594 Y176.541 E29.73627
G1 X260.566 Y178.049 E29.8968
G1 X260.478 Y179.353 E30.0359
G1 X260.363 Y180.464 E30.15478
G1 X260.215 Y181.337 E30.24902
G1 X259.96 Y182.623 E30.38856
G1 X259.704 Y183.71 E30.50741
G1 X259.438 Y184.579 E30.60414
G1 X259.02 Y185.817 E30.74321
G1 X258.625 Y186.862 E30.86211
G1 X258.226 Y187.737 E30.96447
G1 X257.647 Y188.909 E31.1036
G1 X257.117 Y189.892 E31.22246
G1 X256.621 Y190.683 E31.32183
G1 X255.892 Y191.771 E31.46122
G1 X255.237 Y192.676 E31.58012
G1 X254.678 Y193.353 E31.67356
G1 X253.818 Y194.337 E31.81266
G1 X253.053 Y195.151 E31.93155
G1 X252.345 Y195.811 E32.03456
G1 X251.353 Y196.679 E32.17486
G1 X250.486 Y197.384 E32.29379
G1 X249.742 Y197.913 E32.39095
G1 X248.662 Y198.634 E32.52916
G1 X247.711 Y199.221 E32.64811
G1 X246.891 Y199.656 E32.7469
G1 X245.711 Y200.237 E32.88689
G1 X244.692 Y200.694 E33.00575
G1 X243.834 Y201.013 E33.10318
G1 X243.071 Y201.272 E33.18894
G1 X242.002 Y201.593 E33.30773
G1 X240.911 Y201.837 E33.42672
G1 X239.807 Y202.002 E33.54553
G1 X238.693 Y202.087 E33.66444
G1 X238.057 Y202.1 E33.73214
G1 X224.998 Y202.1 E35.12204
G1 X223.882 Y202.06 E35.2409
G1 X222.771 Y201.94 E35.35983
G1 X221.672 Y201.741 E35.4787
G1 X220.59 Y201.464 E35.59758
G1 X219.531 Y201.111 E35.71639
G1 X218.499 Y200.682 E35.83534
G1 X217.501 Y200.18 E35.95424
G1 X216.857 Y199.807 E36.03345
G1 X215.837 Y199.183 E36.16071
G1 X214.8 Y198.566 E36.28914
G1 X213.894 Y198.037 E36.4008
G1 X212.885 Y197.458 E36.52462
G1 X211.81 Y196.856 E36.65575
G1 X210.829 Y196.319 E36.77478
G1 X209.853 Y195.796 E36.89263
G1 X208.751 Y195.216 E37.02517
G1 X207.731 Y194.694 E37.14712
G1 X206.731 Y194.192 E37.26622
G1 X205.763 Y193.718 E37.38093
G1 X204.634 Y193.179 E37.51408
G1 X203.525 Y192.659 E37.64445
G1 X202.582 Y192.228 E37.7548
G1 X201.549 Y191.77 E37.87507
G1 X200.359 Y191.252 E38.0132
G1 X199.325 Y190.814 E38.13272
G1 X198.294 Y190.386 E38.25153
G1 X197.247 Y189.968 E38.37152
G1 X196.214 Y189.563 E38.48961
G1 X195.029 Y189.113 E38.62452
G1 X194.043 Y188.746 E38.7365
G1 X192.909 Y188.34 E38.86469
G1 X191.822 Y187.958 E38.98732
G1 X190.734 Y187.587 E39.10967
G1 X189.672 Y187.24 E39.22858
G1 X188.547 Y186.879 E39.35433
G1 X187.429 Y186.534 E39.47886
G1 X186.273 Y186.189 E39.60726
G1 X185.147 Y185.862 E39.73205
G1 X184.093 Y185.569 E39.84848
G1 X182.992 Y185.272 E39.96985
G1 X181.86 Y184.978 E40.09433
G1 X180.712 Y184.692 E40.22025
G1 X179.666 Y184.44 E40.33477
G1 X178.693 Y184.216 E40.44103
G1 X178.618 Y184.442 E40.46638
G1 X178.191 Y185.474 E40.58525
G1 X177.691 Y186.473 E40.70415
G1 X177.121 Y187.434 E40.82307
G1 X176.484 Y188.351 E40.9419
G1 X175.783 Y189.221 E41.06082
G1 X175.021 Y190.038 E41.17972
G1 X174.203 Y190.798 E41.29856
G1 X173.332 Y191.498 E41.41749
G1 X172.414 Y192.134 E41.53635
G1 X171.453 Y192.702 E41.65517
G1 X170.453 Y193.2 E41.77407
G1 X169.42 Y193.626 E41.89299
G1 X168.36 Y193.976 E42.0118
G1 X167.277 Y194.25 E42.1307
G1 X166.177 Y194.445 E42.2496
G1 X165.066 Y194.561 E42.36849
G1 X163.999 Y194.598 E42.48212
G1 X136.001 Y194.598 E45.46202
G1 X134.885 Y194.558 E45.58087
G1 X133.774 Y194.438 E45.69981
G1 X132.675 Y194.239 E45.81868
G1 X131.593 Y193.962 E45.93755
G1 X130.534 Y193.609 E46.05636
G1 X129.502 Y193.18 E46.17531
G1 X128.504 Y192.678 E46.29421
G1 X127.544 Y192.107 E46.41309
G1 X126.628 Y191.468 E46.53196
G1 X125.76 Y190.766 E46.65078
G1 X124.944 Y190.003 E46.76968
G1 X124.185 Y189.183 E46.8886
G1 X123.486 Y188.312 E47.00747
G1 X122.852 Y187.392 E47.12638
G1 X122.285 Y186.43 E47.24523
G1 X121.788 Y185.43 E47.36408
G1 X121.365 Y184.396 E47.48299
G1 X121.307 Y184.218 E47.50291
G1 X120.334 Y184.442 E47.60918
G1 X119.295 Y184.692 E47.72292
G1 X118.195 Y184.966 E47.84357
G1 X117.005 Y185.274 E47.9744
G1 X115.865 Y185.582 E48.10009
G1 X114.814 Y185.877 E48.21627
G1 X113.672 Y186.207 E48.34279
G1 X112.622 Y186.521 E48.45943
G1 X111.406 Y186.896 E48.59487
G1 X110.423 Y187.211 E48.70473
G1 X109.189 Y187.617 E48.84299
G1 X108.209 Y187.949 E48.95312
G1 X107.113 Y188.333 E49.07672
G1 X105.922 Y188.762 E49.21146
G1 X104.958 Y189.12 E49.32091
G1 X103.79 Y189.563 E49.45386
G1 X102.767 Y189.965 E49.57084
G1 X101.693 Y190.396 E49.69401
G1 X100.607 Y190.845 E49.81909
G1 X99.618 Y191.264 E49.93341
G1 X98.43 Y191.78 E50.07126
G1 X97.387 Y192.246 E50.19285
G1 X96.437 Y192.678 E50.30392
G1 X95.369 Y193.177 E50.42939
G1 X94.256 Y193.712 E50.56082
G1 X93.288 Y194.185 E50.67549
G1 X92.234 Y194.715 E50.80105
G1 X91.186 Y195.25 E50.92629
G1 X90.125 Y195.807 E51.05383
G1 X89.222 Y196.29 E51.16282
G1 X88.099 Y196.907 E51.2992
G1 X87.202 Y197.411 E51.4087
G1 X86.076 Y198.055 E51.54676
G1 X85.183 Y198.577 E51.65685
G1 X84.157 Y199.187 E51.7839
G1 X83.14 Y199.809 E51.91078
G1 X82.166 Y200.357 E52.02972
G1 X81.157 Y200.834 E52.14851
G1 X80.115 Y201.238 E52.26746
G1 X79.047 Y201.566 E52.38637
G1 X77.959 Y201.817 E52.50521
G1 X76.855 Y201.989 E52.62412
G1 X75.742 Y202.082 E52.743
G1 X75.001 Y202.1 E52.82189
G1 X61.941 Y202.1 E54.21189
G1 X60.825 Y202.06 E54.33075
G1 X59.714 Y201.94 E54.44968
G1 X58.615 Y201.741 E54.56855
G1 X57.533 Y201.464 E54.68743
G1 X56.916 Y201.268 E54.75633
G1 X56.149 Y201.007 E54.84256
G1 X55.105 Y200.61 E54.96144
G1 X54.274 Y200.23 E55.05869
G1 X53.1 Y199.651 E55.19802
G1 X52.116 Y199.121 E55.31697
G1 X51.333 Y198.631 E55.41528
G1 X50.245 Y197.904 E55.55455
G1 X49.339 Y197.25 E55.67348
G1 X48.633 Y196.667 E55.77093
G1 X47.649 Y195.805 E55.91016
G1 X46.835 Y195.04 E56.02905
G1 X46.176 Y194.33 E56.13215
G1 X45.31 Y193.338 E56.2723
G1 X44.606 Y192.471 E56.39117
G1 X44.099 Y191.757 E56.48437
G1 X43.376 Y190.677 E56.6227
G1 X42.788 Y189.727 E56.74161
G1 X42.344 Y188.89 E56.84245
G1 X41.762 Y187.708 E56.98268
G1 X41.304 Y186.689 E57.10158
G1 X40.973 Y185.797 E57.20285
G1 X40.556 Y184.559 E57.34188
G1 X40.238 Y183.488 E57.46079
G1 X40.038 Y182.613 E57.55632
G1 X39.785 Y181.337 E57.69477
G1 X39.607 Y180.234 E57.81369
G1 X39.522 Y179.346 E57.90863
G1 X39.434 Y178.033 E58.04869
G1 X39.406 Y176.528 E58.2089
G1 X39.43 Y175.718 E58.29515
G1 X39.457 Y175.302 E58.33952
G1 X39.462 Y174.671 E58.40668
G1 X39.478 Y174.093 E58.46822
G1 X39.575 Y171.92 E58.69973
G1 X39.588 Y171.669 E58.72648
G1 X39.72 Y169.499 E58.95786
G1 X39.736 Y169.263 E58.98304
G1 X39.901 Y167.093 E59.21466
G1 X39.922 Y166.843 E59.24137
G1 X40.145 Y164.442 E59.49801
G1 X40.376 Y162.291 E59.72826
G1 X40.407 Y162.027 E59.75655
G1 X40.676 Y159.869 E59.98801
G1 X41.002 Y157.515 E60.24095
G1 X41.04 Y157.256 E60.26881
G1 X41.133 Y156.662 E60.3328
G1 X42.394 Y113.491 E64.92955
G1 X42.411 Y113.229 E64.9575
G1 X42.441 Y112.384 E65.04749
G1 X42.561 Y111.273 E65.16642
G1 X42.76 Y110.174 E65.28529
G1 X43.037 Y109.092 E65.40417
G1 X43.39 Y108.033 E65.52298
G1 X43.819 Y107.001 E65.64193
G1 X44.321 Y106.003 E65.76083
G1 X44.892 Y105.043 E65.87971
G1 X45.531 Y104.127 E65.99858
G1 X46.233 Y103.259 E66.11739
G1 X46.996 Y102.443 E66.2363
G1 X47.816 Y101.684 E66.35522
G1 X48.687 Y100.985 E66.47408
G1 X49.607 Y100.351 E66.593
G1 X50.569 Y99.784 E66.71185
G0 F7500 X51.326 Y100.291
G1 F1500 X52.314 Y99.836 E66.82762
G1 X53.333 Y99.455 E66.94341
G1 X54.378 Y99.15 E67.05927
G1 X55.442 Y98.923 E67.17506
G1 X56.519 Y98.774 E67.29078
G1 X58.001 Y98.7 E67.44871
G1 X241.999 Y98.7 E87.03206
G1 X243.086 Y98.74 E87.14784
G1 X244.168 Y98.86 E87.2637
G1 X245.237 Y99.059 E87.37943
G1 X246.289 Y99.335 E87.49519
G1 X247.318 Y99.689 E87.61101
G1 X248.318 Y100.117 E87.72678
G1 X249.284 Y100.617 E87.84255
G1 X250.211 Y101.187 E87.95837
G1 X251.093 Y101.824 E88.07417
G1 X251.927 Y102.523 E88.18998
G1 X252.706 Y103.282 E88.30574
G1 X253.428 Y104.097 E88.42163
G1 X254.088 Y104.961 E88.53735
G1 X254.682 Y105.873 E88.65318
G1 X255.208 Y106.825 E88.76895
G1 X255.663 Y107.813 E88.88472
G1 X256.044 Y108.832 E89.0005
G1 X256.349 Y109.877 E89.11637
G1 X256.576 Y110.941 E89.23216
G1 X256.725 Y112.018 E89.34788
G1 X256.776 Y113.043 E89.45711
G1 X256.806 Y113.513 E89.50723
G1 X258.07 Y156.739 E94.10985
G1 X258.206 Y157.624 E94.20514
G1 X258.506 Y159.78 E94.43682
G1 X258.802 Y162.154 E94.69145
G1 X258.831 Y162.4 E94.71781
G1 X259.063 Y164.564 E94.94945
G1 X259.284 Y166.95 E95.20449
G1 X259.305 Y167.195 E95.23066
G1 X259.484 Y169.581 E95.48532
G1 X259.616 Y171.751 E95.71671
G1 X259.629 Y171.997 E95.74293
G1 X259.725 Y174.17 E95.97443
G1 X259.739 Y174.721 E96.03309
G1 X259.742 Y175.197 E96.08376
G1 X259.771 Y175.747 E96.14237
G1 X259.795 Y176.565 E96.22947
G1 X259.767 Y177.996 E96.38181
G1 X259.679 Y179.3 E96.52091
G1 X259.566 Y180.382 E96.6367
G1 X259.43 Y181.182 E96.72307
G1 X259.175 Y182.468 E96.8626
G1 X258.925 Y183.526 E96.97831
G1 X258.68 Y184.324 E97.06715
G1 X258.262 Y185.562 E97.20623
G1 X257.877 Y186.579 E97.32196
G1 X257.509 Y187.382 E97.41598
G1 X256.93 Y188.554 E97.55511
G1 X256.413 Y189.511 E97.67088
G1 X255.956 Y190.237 E97.76218
G1 X255.227 Y191.325 E97.90157
G1 X254.589 Y192.206 E98.01734
G1 X254.076 Y192.826 E98.10299
G1 X253.216 Y193.81 E98.24208
G1 X252.47 Y194.603 E98.35796
G1 X251.818 Y195.209 E98.4527
G1 X250.826 Y196.077 E98.59299
G1 X249.981 Y196.763 E98.70883
G1 X249.297 Y197.248 E98.79808
G1 X248.217 Y197.969 E98.93628
G1 X247.291 Y198.539 E99.05202
G1 X246.538 Y198.938 E99.14271
G1 X245.358 Y199.519 E99.2827
G1 X244.365 Y199.963 E99.39847
G1 X243.577 Y200.256 E99.48795
G1 X242.814 Y200.515 E99.57371
G1 X241.772 Y200.826 E99.68945
G1 X240.709 Y201.06 E99.8053
G1 X239.633 Y201.216 E99.92101
G1 X238.057 Y201.3 E100.08899
G1 X224.998 Y201.3 E101.47889
G1 X223.911 Y201.26 E101.59466
G1 X222.829 Y201.14 E101.71053
G1 X221.76 Y200.941 E101.82626
G1 X220.708 Y200.665 E101.94201
G1 X219.679 Y200.311 E102.05783
G1 X218.679 Y199.883 E102.1736
G1 X217.275 Y199.125 E102.34342
G1 X216.276 Y198.514 E102.46806
G1 X215.271 Y197.916 E102.59253
G1 X214.194 Y197.287 E102.72527
G1 X213.277 Y196.761 E102.83779
G1 X212.167 Y196.139 E102.97321
G1 X211.23 Y195.626 E103.08691
G1 X210.191 Y195.069 E103.21238
G1 X209.131 Y194.512 E103.33982
G1 X208.097 Y193.982 E103.46349
G1 X207.144 Y193.504 E103.57696
G1 X206.051 Y192.969 E103.70648
G1 X204.936 Y192.436 E103.83802
G1 X203.934 Y191.967 E103.95577
G1 X202.847 Y191.47 E104.08298
G1 X201.838 Y191.023 E104.20043
G1 X200.77 Y190.558 E104.32441
G1 X199.616 Y190.069 E104.45781
G1 X198.641 Y189.664 E104.57017
G1 X197.488 Y189.203 E104.70234
G1 X196.525 Y188.825 E104.81244
G1 X195.408 Y188.401 E104.9396
G1 X194.216 Y187.958 E105.07495
G1 X193.133 Y187.57 E105.19739
G1 X192.134 Y187.219 E105.31009
G1 X190.988 Y186.829 E105.43893
G1 X189.841 Y186.454 E105.56737
G1 X188.774 Y186.111 E105.68665
G1 X187.642 Y185.762 E105.81273
G1 X186.537 Y185.432 E105.93547
G1 X185.452 Y185.118 E106.05569
G1 X184.295 Y184.796 E106.18351
G1 X183.182 Y184.495 E106.30623
G1 X182.06 Y184.204 E106.42959
G1 X180.865 Y183.906 E106.56068
G1 X179.816 Y183.653 E106.67553
G1 X178.665 Y183.388 E106.80123
G1 X178.164 Y183.278 E106.85583
G1 X177.849 Y184.216 E106.96114
G1 X177.428 Y185.219 E107.07691
G1 X176.935 Y186.189 E107.19272
G1 X176.371 Y187.12 E107.30858
G1 X175.741 Y188.007 E107.42437
G1 X175.048 Y188.845 E107.54011
G1 X174.295 Y189.63 E107.65588
G1 X173.486 Y190.358 E107.77171
G1 X172.626 Y191.024 E107.88748
G1 X171.719 Y191.625 E108.00329
G1 X170.771 Y192.158 E108.11904
G1 X169.786 Y192.62 E108.23483
G1 X168.769 Y193.008 E108.35069
G1 X167.727 Y193.321 E108.46648
G1 X166.665 Y193.556 E108.58225
G1 X165.588 Y193.712 E108.69807
G1 X163.999 Y193.798 E108.86744
G1 X136.001 Y193.798 E111.84734
G1 X134.914 Y193.758 E111.96311
G1 X133.832 Y193.638 E112.07897
G1 X132.763 Y193.439 E112.1947
G1 X131.711 Y193.163 E112.31046
G1 X130.682 Y192.809 E112.42628
G1 X129.682 Y192.381 E112.54205
G1 X128.716 Y191.881 E112.65782
G1 X127.789 Y191.311 E112.77364
G1 X126.907 Y190.674 E112.88944
G1 X126.073 Y189.975 E113.00526
G1 X125.294 Y189.216 E113.12102
G1 X124.572 Y188.401 E113.2369
G1 X123.912 Y187.537 E113.35262
G1 X123.318 Y186.625 E113.46846
G1 X122.792 Y185.673 E113.58422
G1 X122.337 Y184.685 E113.69999
G1 X121.956 Y183.666 E113.81578
G1 X121.85 Y183.277 E113.85869
G1 X121.346 Y183.388 E113.91362
G1 X120.268 Y183.636 E114.03135
G1 X119.051 Y183.929 E114.16458
G1 X117.882 Y184.22 E114.29279
G1 X116.881 Y184.479 E114.40284
G1 X115.659 Y184.809 E114.53756
G1 X114.595 Y185.108 E114.65519
G1 X113.382 Y185.459 E114.78959
G1 X112.367 Y185.762 E114.90233
G1 X111.207 Y186.12 E115.03154
G1 X110.173 Y186.451 E115.14709
G1 X109.042 Y186.823 E115.27381
G1 X107.873 Y187.219 E115.40517
G1 X106.831 Y187.585 E115.52272
G1 X105.67 Y188.002 E115.65401
G1 X104.674 Y188.372 E115.7671
G1 X103.495 Y188.819 E115.9013
G1 X102.494 Y189.212 E116.01576
G1 X101.404 Y189.65 E116.14078
G1 X100.347 Y190.088 E116.26256
G1 X99.201 Y190.573 E116.395
G1 X98.228 Y190.995 E116.50788
G1 X97.061 Y191.516 E116.6439
G1 X96.034 Y191.983 E116.76398
G1 X95.043 Y192.446 E116.8804
G1 X93.909 Y192.991 E117.01431
G1 X92.935 Y193.467 E117.12969
G1 X91.823 Y194.026 E117.26216
G1 X90.876 Y194.509 E117.3753
G1 X89.753 Y195.099 E117.51032
G1 X88.784 Y195.617 E117.62726
G1 X87.767 Y196.176 E117.75078
G1 X86.768 Y196.737 E117.87272
G1 X85.798 Y197.292 E117.99166
G1 X84.677 Y197.947 E118.12985
G1 X83.719 Y198.517 E118.24849
G1 X82.722 Y199.126 E118.37284
G1 X81.774 Y199.659 E118.48859
G1 X80.789 Y200.121 E118.60438
G1 X79.773 Y200.51 E118.72017
G1 X78.731 Y200.822 E118.83594
G1 X77.668 Y201.058 E118.95183
G1 X76.592 Y201.214 E119.06755
G1 X75.001 Y201.3 E119.23713
G1 X61.941 Y201.3 E120.62714
G1 X60.854 Y201.26 E120.74291
G1 X59.772 Y201.14 E120.85878
G1 X58.703 Y200.941 E120.97451
G1 X57.173 Y200.511 E121.14366
G1 X56.406 Y200.25 E121.22989
G1 X55.39 Y199.862 E121.34564
G1 X54.628 Y199.513 E121.43484
G1 X53.454 Y198.934 E121.57417
G1 X52.496 Y198.417 E121.69003
G1 X51.777 Y197.966 E121.78036
G1 X50.689 Y197.239 E121.91963
G1 X49.808 Y196.601 E122.03541
G1 X49.16 Y196.066 E122.12484
G1 X48.176 Y195.204 E122.26407
G1 X47.384 Y194.457 E122.37995
G1 X46.779 Y193.804 E122.47469
G1 X45.913 Y192.812 E122.61484
G1 X45.228 Y191.967 E122.73062
G1 X44.763 Y191.312 E122.81611
G1 X44.04 Y190.232 E122.95444
G1 X43.469 Y189.307 E123.07014
G1 X43.061 Y188.537 E123.16288
G1 X42.479 Y187.355 E123.30311
G1 X42.035 Y186.362 E123.41888
G1 X41.731 Y185.541 E123.51206
