;FLAVOR:Marlin
;TIME:2984
;Filament used: 2.72067m
;Layer height: 0.32
;MINX:133.878
;MINY:135.701
;MINZ:0.32
;MAXX:174.34
;MAXY:178.944
;MAXZ:25.92
;Generated with Cura_SteamEngine master
M140 S70
M105
M190 S70
M104 S240
M105
M109 S240
M82 ;absolute extrusion mode
G28 ;Home
G1 Z15.0 F2000 ;Move the platform
G92 E0
G92 E0
;LAYER_COUNT:81
;LAYER:0
M107 P2
G0 F9000 X138.12 Y139.824 Z0.32
;TYPE:SKIRT
G1 F2400 X138.665 Y139.313 E0.03976
G1 X139.487 Y138.636 E0.09643
G1 X140.06 Y138.22 E0.13411
G1 X140.965 Y137.644 E0.1912
G1 X141.621 Y137.284 E0.23102
G1 X142.587 Y136.832 E0.28777
G1 X143.263 Y136.565 E0.32645
G1 X144.279 Y136.237 E0.38327
G1 X144.978 Y136.059 E0.42165
G1 X146.03 Y135.859 E0.47864
G1 X146.743 Y135.769 E0.51688
G1 X147.808 Y135.701 E0.57367
G1 X148.552 Y135.701 E0.61327
G1 X149.619 Y135.77 E0.67017
G1 X150.339 Y135.862 E0.70879
G1 X151.391 Y136.064 E0.7658
G1 X152.083 Y136.242 E0.80383
G1 X153.09 Y136.568 E0.86015
G1 X153.775 Y136.839 E0.89935
G1 X154.516 Y137.188 E0.94294
G1 X154.81 Y137.337 E0.96048
G1 X160.918 Y140.65 E1.33026
G1 X161.017 Y140.659 E1.33555
G1 X161.683 Y140.8 E1.37178
G1 X162.328 Y141.018 E1.40801
G1 X162.943 Y141.311 E1.44427
G1 X163.52 Y141.674 E1.48054
G1 X164.049 Y142.101 E1.51672
G1 X164.525 Y142.588 E1.55296
G1 X164.941 Y143.127 E1.58919
G1 X165.291 Y143.711 E1.62542
G1 X165.57 Y144.333 E1.6617
G1 X165.774 Y144.982 E1.69791
G1 X165.926 Y145.888 E1.74679
G1 X166.1 Y147.88 E1.8532
G1 X166.119 Y148.561 E1.88946
G1 X166.059 Y149.239 E1.92568
G1 X165.919 Y149.905 E1.9619
G1 X165.702 Y150.551 E1.99816
G1 X165.408 Y151.172 E2.03473
G1 X165.406 Y151.388 E2.04622
G1 X165.644 Y151.482 E2.05984
G1 X166.615 Y151.938 E2.11693
G1 X167.271 Y152.299 E2.15677
G1 X168.175 Y152.876 E2.21384
G1 X168.75 Y153.296 E2.25174
G1 X169.571 Y153.975 E2.30843
G1 X170.112 Y154.483 E2.34793
G1 X170.843 Y155.265 E2.40489
G1 X171.296 Y155.813 E2.44273
G1 X171.924 Y156.676 E2.49953
G1 X172.323 Y157.306 E2.53921
G1 X172.837 Y158.246 E2.59623
G1 X173.14 Y158.893 E2.63424
G1 X173.533 Y159.885 E2.69103
G1 X173.758 Y160.575 E2.72965
G1 X174.024 Y161.608 E2.78641
G1 X174.162 Y162.333 E2.82569
G1 X174.295 Y163.394 E2.88259
G1 X174.34 Y164.12 E2.9213
G1 X174.339 Y165.19 E2.97824
G1 X174.294 Y165.903 E3.01626
G1 X174.163 Y166.953 E3.07257
G1 X174.024 Y167.685 E3.11222
G1 X173.754 Y168.731 E3.16971
G1 X173.527 Y169.427 E3.20867
G1 X173.132 Y170.419 E3.26549
G1 X172.826 Y171.066 E3.30358
G1 X172.31 Y172.005 E3.3606
G1 X171.912 Y172.631 E3.40007
G1 X171.283 Y173.493 E3.45686
G1 X170.83 Y174.04 E3.49466
G1 X170.098 Y174.821 E3.55162
G1 X169.553 Y175.332 E3.59138
G1 X168.731 Y176.009 E3.64805
G1 X168.158 Y176.425 E3.68573
G1 X167.253 Y177.001 E3.74282
G1 X166.597 Y177.361 E3.78264
G1 X165.631 Y177.813 E3.83939
G1 X164.955 Y178.08 E3.87807
G1 X163.939 Y178.408 E3.93489
G1 X163.24 Y178.586 E3.97327
G1 X162.188 Y178.786 E4.03026
G1 X161.475 Y178.876 E4.0685
G1 X160.41 Y178.944 E4.12529
G1 X159.666 Y178.944 E4.16489
G1 X158.599 Y178.875 E4.22179
G1 X157.879 Y178.783 E4.26041
G1 X156.827 Y178.581 E4.31742
G1 X156.135 Y178.403 E4.35544
G1 X155.128 Y178.077 E4.41177
G1 X154.443 Y177.806 E4.45097
G1 X153.702 Y177.457 E4.49456
G1 X153.408 Y177.308 E4.5121
G1 X147.3 Y173.995 E4.88188
G1 X147.201 Y173.986 E4.88717
G1 X146.535 Y173.845 E4.9234
G1 X145.89 Y173.627 E4.95963
G1 X145.275 Y173.334 E4.99588
G1 X144.698 Y172.971 E5.03216
G1 X144.169 Y172.544 E5.06834
G1 X143.693 Y172.057 E5.10458
G1 X143.277 Y171.518 E5.14081
G1 X142.927 Y170.934 E5.17704
G1 X142.648 Y170.312 E5.21332
G1 X142.444 Y169.663 E5.24953
G1 X142.292 Y168.757 E5.29841
G1 X142.118 Y166.765 E5.40482
G1 X142.099 Y166.084 E5.44108
G1 X142.159 Y165.406 E5.4773
G1 X142.299 Y164.74 E5.51352
G1 X142.516 Y164.094 E5.54978
G1 X142.81 Y163.473 E5.58635
G1 X142.812 Y163.257 E5.59784
G1 X142.574 Y163.163 E5.61146
G1 X141.603 Y162.707 E5.66855
G1 X140.947 Y162.346 E5.70839
G1 X140.043 Y161.769 E5.76546
G1 X139.468 Y161.349 E5.80336
G1 X138.647 Y160.67 E5.86005
G1 X138.106 Y160.162 E5.89955
G1 X137.375 Y159.38 E5.95651
G1 X136.922 Y158.832 E5.99435
G1 X136.294 Y157.969 E6.05115
G1 X135.895 Y157.339 E6.09083
G1 X135.381 Y156.399 E6.14784
G1 X135.078 Y155.752 E6.18586
G1 X134.685 Y154.76 E6.24265
G1 X134.46 Y154.07 E6.28127
G1 X134.194 Y153.037 E6.33803
G1 X134.056 Y152.312 E6.37731
G1 X133.923 Y151.251 E6.43421
G1 X133.878 Y150.525 E6.47292
G1 X133.879 Y149.455 E6.52986
G1 X133.924 Y148.742 E6.56788
G1 X134.055 Y147.692 E6.62419
G1 X134.194 Y146.96 E6.66384
G1 X134.464 Y145.914 E6.72133
G1 X134.691 Y145.218 E6.76029
G1 X135.086 Y144.226 E6.81711
G1 X135.392 Y143.579 E6.8552
G1 X135.908 Y142.64 E6.91222
G1 X136.306 Y142.014 E6.95169
G1 X136.935 Y141.152 E7.00848
G1 X137.388 Y140.605 E7.04627
G1 X138.12 Y139.824 E7.10324
G0 F9000 X138.412 Y140.097
G1 F2400 X138.919 Y139.622 E7.14021
G1 X139.741 Y138.945 E7.19688
G1 X140.275 Y138.557 E7.23201
G1 X141.18 Y137.981 E7.28909
G1 X141.79 Y137.646 E7.32613
G1 X142.756 Y137.194 E7.38289
G1 X143.386 Y136.946 E7.41892
G1 X144.402 Y136.618 E7.47573
G1 X145.052 Y136.452 E7.51143
G1 X146.104 Y136.252 E7.56842
G1 X146.769 Y136.168 E7.60409
G1 X147.834 Y136.1 E7.66088
G1 X148.526 Y136.1 E7.6977
G1 X149.593 Y136.169 E7.75461
G1 X150.263 Y136.255 E7.79055
G1 X151.315 Y136.457 E7.84756
G1 X151.96 Y136.623 E7.883
G1 X152.967 Y136.949 E7.93933
G1 X153.605 Y137.201 E7.97583
G1 X154.346 Y137.55 E8.01942
G1 X154.62 Y137.688 E8.03575
G1 X160.803 Y141.041 E8.41005
G1 X161.003 Y141.061 E8.42075
G1 X161.644 Y141.204 E8.4557
G1 X162.263 Y141.425 E8.49067
G1 X162.851 Y141.718 E8.52564
G1 X163.399 Y142.081 E8.56062
G1 X163.898 Y142.508 E8.59557
G1 X164.342 Y142.992 E8.63052
G1 X164.724 Y143.526 E8.66546
G1 X165.038 Y144.103 E8.70042
G1 X165.28 Y144.714 E8.73539
G1 X165.446 Y145.35 E8.77037
G1 X165.528 Y145.923 E8.80117
G1 X165.702 Y147.915 E8.90758
G1 X165.719 Y148.572 E8.94256
G1 X165.656 Y149.226 E8.97752
G1 X165.515 Y149.867 E9.01245
G1 X165.296 Y150.487 E9.04744
G1 X165.004 Y151.075 E9.08238
G1 X164.994 Y151.09 E9.08334
G1 X165.023 Y151.43 E9.1015
G1 X165.016 Y151.663 E9.1139
G1 X165.474 Y151.844 E9.14011
G1 X166.445 Y152.3 E9.1972
G1 X167.055 Y152.636 E9.23426
G1 X167.959 Y153.213 E9.29133
G1 X168.496 Y153.604 E9.32668
G1 X169.317 Y154.283 E9.38337
G1 X169.82 Y154.756 E9.42012
G1 X170.551 Y155.538 E9.47708
G1 X170.972 Y156.049 E9.51232
G1 X171.6 Y156.912 E9.56912
G1 X171.972 Y157.498 E9.60605
G1 X172.486 Y158.438 E9.66307
G1 X172.768 Y159.04 E9.69844
G1 X173.161 Y160.032 E9.75523
G1 X173.37 Y160.674 E9.79116
G1 X173.636 Y161.707 E9.84792
G1 X173.765 Y162.382 E9.88449
G1 X173.898 Y163.443 E9.9414
G1 X173.94 Y164.12 E9.97749
G1 X173.939 Y165.19 E10.03444
G1 X173.897 Y165.854 E10.06984
G1 X173.766 Y166.904 E10.12615
G1 X173.637 Y167.585 E10.16304
G1 X173.367 Y168.631 E10.22052
G1 X173.155 Y169.279 E10.25681
G1 X172.76 Y170.271 E10.31363
G1 X172.476 Y170.874 E10.3491
G1 X171.96 Y171.813 E10.40612
G1 X171.589 Y172.395 E10.44285
G1 X170.96 Y173.257 E10.49963
G1 X170.538 Y173.767 E10.53486
G1 X169.806 Y174.548 E10.59182
G1 X169.299 Y175.023 E10.6288
G1 X168.477 Y175.7 E10.68547
G1 X167.943 Y176.088 E10.72059
G1 X167.038 Y176.664 E10.77768
G1 X166.428 Y176.999 E10.81471
G1 X165.462 Y177.451 E10.87147
G1 X164.832 Y177.699 E10.9075
G1 X163.816 Y178.027 E10.96432
G1 X163.166 Y178.193 E11.00002
G1 X162.114 Y178.393 E11.057
G1 X161.449 Y178.477 E11.09267
G1 X160.384 Y178.545 E11.14946
G1 X159.692 Y178.545 E11.18629
G1 X158.625 Y178.476 E11.24319
G1 X157.955 Y178.39 E11.27914
G1 X156.903 Y178.188 E11.33614
G1 X156.258 Y178.022 E11.37159
G1 X155.251 Y177.696 E11.42791
G1 X154.613 Y177.444 E11.46442
G1 X153.872 Y177.095 E11.50801
G1 X153.598 Y176.957 E11.52433
G1 X147.415 Y173.604 E11.89864
G1 X147.215 Y173.584 E11.90933
G1 X146.574 Y173.441 E11.94428
G1 X145.955 Y173.22 E11.97926
G1 X145.367 Y172.927 E12.01422
G1 X144.819 Y172.564 E12.0492
G1 X144.32 Y172.137 E12.08415
G1 X143.876 Y171.653 E12.1191
G1 X143.494 Y171.119 E12.15404
G1 X143.18 Y170.542 E12.189
G1 X142.938 Y169.931 E12.22397
G1 X142.772 Y169.295 E12.25895
G1 X142.69 Y168.722 E12.28976
G1 X142.516 Y166.73 E12.39617
G1 X142.499 Y166.073 E12.43114
G1 X142.562 Y165.419 E12.46611
G1 X142.703 Y164.778 E12.50103
G1 X142.922 Y164.158 E12.53603
G1 X143.214 Y163.57 E12.57096
G1 X143.224 Y163.555 E12.57192
G1 X143.195 Y163.215 E12.59008
G1 X143.202 Y162.982 E12.60249
G1 X142.744 Y162.801 E12.62869
G1 X141.773 Y162.345 E12.68578
G1 X141.163 Y162.009 E12.72284
G1 X140.259 Y161.432 E12.77991
G1 X139.722 Y161.041 E12.81526
G1 X138.901 Y160.362 E12.87196
G1 X138.398 Y159.889 E12.9087
G1 X137.667 Y159.107 E12.96567
G1 X137.246 Y158.596 E13.0009
G1 X136.618 Y157.733 E13.0577
G1 X136.246 Y157.147 E13.09464
G1 X135.732 Y156.207 E13.15165
G1 X135.45 Y155.605 E13.18703
G1 X135.057 Y154.613 E13.24381
G1 X134.848 Y153.971 E13.27974
G1 X134.582 Y152.938 E13.33651
G1 X134.453 Y152.263 E13.37308
G1 X134.32 Y151.202 E13.42998
G1 X134.278 Y150.525 E13.46608
G1 X134.279 Y149.455 E13.52302
G1 X134.321 Y148.791 E13.55843
G1 X134.452 Y147.741 E13.61474
G1 X134.581 Y147.06 E13.65162
G1 X134.851 Y146.014 E13.70911
G1 X135.063 Y145.366 E13.74539
G1 X135.458 Y144.374 E13.80221
G1 X135.742 Y143.771 E13.83768
G1 X136.258 Y142.832 E13.8947
G1 X136.629 Y142.25 E13.93143
G1 X137.258 Y141.388 E13.98822
G1 X137.68 Y140.878 E14.02345
G1 X138.412 Y140.097 E14.08041
G0 F9000 X138.704 Y140.371
G1 F2400 X139.173 Y139.93 E14.11467
G1 X139.995 Y139.253 E14.17134
G1 X140.489 Y138.895 E14.2038
G1 X141.394 Y138.319 E14.26089
G1 X141.96 Y138.008 E14.29526
G1 X142.926 Y137.556 E14.35202
G1 X143.509 Y137.327 E14.38535
G1 X144.525 Y136.999 E14.44216
G1 X145.127 Y136.845 E14.47523
G1 X146.179 Y136.645 E14.53222
G1 X146.794 Y136.567 E14.56521
G1 X147.859 Y136.499 E14.622
G1 X148.501 Y136.499 E14.65616
G1 X149.568 Y136.568 E14.71306
G1 X150.188 Y136.648 E14.74633
G1 X151.24 Y136.85 E14.80334
G1 X151.837 Y137.003 E14.83613
G1 X152.844 Y137.329 E14.89246
G1 X153.434 Y137.563 E14.92624
G1 X154.175 Y137.912 E14.96983
G1 X154.429 Y138.04 E14.98496
G1 X160.682 Y141.431 E15.3635
G1 X160.987 Y141.464 E15.37983
G1 X161.602 Y141.609 E15.41346
G1 X162.194 Y141.831 E15.4471
G1 X162.753 Y142.125 E15.48071
G1 X163.271 Y142.488 E15.51437
G1 X163.739 Y142.914 E15.54805
G1 X164.149 Y143.394 E15.58165
G1 X164.495 Y143.923 E15.61528
G1 X164.772 Y144.491 E15.64891
G1 X164.975 Y145.09 E15.68257
G1 X165.129 Y145.958 E15.72948
G1 X165.303 Y147.95 E15.83589
G1 X165.318 Y148.582 E15.86954
G1 X165.253 Y149.211 E15.90319
G1 X165.11 Y149.826 E15.93679
G1 X164.89 Y150.419 E15.97045
G1 X164.597 Y150.979 E16.00408
G1 X164.603 Y151.093 E16.01016
G1 X164.605 Y151.938 E16.05512
G1 X164.719 Y151.975 E16.0615
G1 X165.304 Y152.206 E16.09497
G1 X166.275 Y152.662 E16.15206
G1 X166.84 Y152.973 E16.18638
G1 X167.744 Y153.55 E16.24345
G1 X168.241 Y153.912 E16.27617
G1 X169.062 Y154.591 E16.33287
G1 X169.528 Y155.03 E16.36694
G1 X170.259 Y155.812 E16.42391
G1 X170.649 Y156.284 E16.45649
G1 X171.277 Y157.147 E16.51329
G1 X171.621 Y157.69 E16.54749
G1 X172.135 Y158.63 E16.60451
G1 X172.396 Y159.187 E16.63724
G1 X172.789 Y160.179 E16.69402
G1 X172.983 Y160.774 E16.72733
G1 X173.249 Y161.807 E16.78409
G1 X173.368 Y162.432 E16.81795
G1 X173.501 Y163.493 E16.87486
G1 X173.54 Y164.12 E16.90829
G1 X173.539 Y165.19 E16.96523
G1 X173.501 Y165.804 E16.99797
G1 X173.37 Y166.854 E17.05428
G1 X173.249 Y167.485 E17.08847
G1 X172.979 Y168.531 E17.14596
G1 X172.783 Y169.131 E17.17955
G1 X172.388 Y170.123 E17.23637
G1 X172.125 Y170.681 E17.2692
G1 X171.609 Y171.62 E17.32621
G1 X171.266 Y172.159 E17.36021
G1 X170.637 Y173.021 E17.417
G1 X170.246 Y173.493 E17.44962
G1 X169.514 Y174.274 E17.50658
G1 X169.045 Y174.715 E17.54084
G1 X168.223 Y175.392 E17.59751
G1 X167.729 Y175.75 E17.62997
G1 X166.824 Y176.326 E17.68706
G1 X166.258 Y176.637 E17.72143
G1 X165.292 Y177.089 E17.77819
G1 X164.709 Y177.318 E17.81152
G1 X163.693 Y177.646 E17.86833
G1 X163.091 Y177.8 E17.9014
G1 X162.039 Y178 E17.95839
G1 X161.424 Y178.078 E17.99138
G1 X160.359 Y178.146 E18.04817
G1 X159.717 Y178.146 E18.08233
G1 X158.65 Y178.077 E18.13923
G1 X158.03 Y177.997 E18.1725
G1 X156.978 Y177.795 E18.22951
G1 X156.381 Y177.642 E18.2623
G1 X155.374 Y177.316 E18.31863
G1 X154.784 Y177.082 E18.35241
G1 X154.043 Y176.733 E18.396
G1 X153.789 Y176.605 E18.41113
G1 X147.536 Y173.214 E18.78968
G1 X147.231 Y173.181 E18.806
G1 X146.616 Y173.036 E18.83963
G1 X146.024 Y172.814 E18.87327
G1 X145.465 Y172.52 E18.90688
G1 X144.947 Y172.157 E18.94054
G1 X144.479 Y171.731 E18.97422
G1 X144.069 Y171.251 E19.00782
G1 X143.723 Y170.722 E19.04145
G1 X143.446 Y170.154 E19.07508
G1 X143.243 Y169.555 E19.10874
G1 X143.089 Y168.687 E19.15565
G1 X142.915 Y166.695 E19.26206
G1 X142.9 Y166.063 E19.29571
G1 X142.965 Y165.434 E19.32936
G1 X143.108 Y164.819 E19.36296
G1 X143.328 Y164.226 E19.39662
G1 X143.621 Y163.666 E19.43025
G1 X143.615 Y163.552 E19.43633
G1 X143.613 Y162.707 E19.48129
G1 X143.499 Y162.67 E19.48767
G1 X142.914 Y162.439 E19.52114
G1 X141.943 Y161.983 E19.57823
G1 X141.378 Y161.672 E19.61255
G1 X140.474 Y161.095 E19.66962
G1 X139.977 Y160.733 E19.70234
G1 X139.156 Y160.054 E19.75904
G1 X138.69 Y159.615 E19.79311
G1 X137.959 Y158.833 E19.85008
G1 X137.569 Y158.361 E19.88266
G1 X136.941 Y157.498 E19.93946
G1 X136.597 Y156.955 E19.97367
G1 X136.083 Y156.015 E20.03068
G1 X135.822 Y155.458 E20.06341
G1 X135.429 Y154.466 E20.12019
G1 X135.235 Y153.871 E20.1535
G1 X134.969 Y152.838 E20.21026
G1 X134.85 Y152.213 E20.24412
G1 X134.717 Y151.152 E20.30103
G1 X134.678 Y150.525 E20.33446
G1 X134.679 Y149.455 E20.3914
G1 X134.717 Y148.841 E20.42414
G1 X134.848 Y147.791 E20.48045
G1 X134.969 Y147.16 E20.51464
G1 X135.239 Y146.114 E20.57213
G1 X135.435 Y145.514 E20.60572
G1 X135.83 Y144.522 E20.66254
G1 X136.093 Y143.964 E20.69537
G1 X136.609 Y143.025 E20.75238
G1 X136.952 Y142.486 E20.78638
G1 X137.581 Y141.624 E20.84317
G1 X137.972 Y141.152 E20.87579
G1 X138.704 Y140.371 E20.93275
G0 F9000 X138.996 Y140.644
G1 F2400 X139.428 Y140.239 E20.96426
G1 X140.25 Y139.562 E21.02093
G1 X140.704 Y139.232 E21.0508
G1 X141.609 Y138.656 E21.10789
G1 X142.129 Y138.371 E21.13944
G1 X143.095 Y137.919 E21.1962
G1 X143.632 Y137.707 E21.22692
G1 X144.648 Y137.379 E21.28374
G1 X145.202 Y137.238 E21.31416
G1 X146.254 Y137.038 E21.37115
G1 X146.82 Y136.966 E21.40151
G1 X147.885 Y136.898 E21.4583
G1 X148.475 Y136.899 E21.4897
G1 X149.542 Y136.968 E21.5466
G1 X150.112 Y137.041 E21.57718
G1 X151.164 Y137.243 E21.63419
G1 X151.714 Y137.384 E21.6644
G1 X152.721 Y137.71 E21.72073
G1 X153.264 Y137.924 E21.75179
G1 X154.005 Y138.273 E21.79538
G1 X154.238 Y138.391 E21.80927
G1 X160.56 Y141.82 E22.19201
G1 X160.969 Y141.867 E22.21392
G1 X161.557 Y142.014 E22.24617
G1 X162.12 Y142.237 E22.2784
G1 X162.65 Y142.533 E22.3107
G1 X163.136 Y142.895 E22.34295
G1 X163.57 Y143.319 E22.37524
G1 X163.944 Y143.795 E22.40745
G1 X164.253 Y144.317 E22.43974
G1 X164.49 Y144.875 E22.472
G1 X164.652 Y145.46 E22.5043
G1 X164.731 Y145.993 E22.53297
G1 X164.905 Y147.985 E22.63939
G1 X164.917 Y148.591 E22.67164
G1 X164.85 Y149.193 E22.70387
G1 X164.705 Y149.782 E22.73615
G1 X164.483 Y150.346 E22.76841
G1 X164.189 Y150.876 E22.80066
G1 X164.172 Y150.899 E22.80219
G1 X164.222 Y151.402 E22.82908
G1 X164.207 Y151.953 E22.85842
G1 X164.183 Y152.222 E22.87279
G1 X164.596 Y152.356 E22.8959
G1 X165.134 Y152.568 E22.92667
G1 X166.105 Y153.024 E22.98376
G1 X166.625 Y153.311 E23.01536
G1 X167.529 Y153.888 E23.07244
G1 X167.986 Y154.22 E23.1025
G1 X168.807 Y154.899 E23.15919
G1 X169.235 Y155.303 E23.19051
G1 X169.966 Y156.085 E23.24748
G1 X170.325 Y156.519 E23.27745
G1 X170.953 Y157.382 E23.33425
G1 X171.27 Y157.882 E23.36576
G1 X171.784 Y158.822 E23.42277
G1 X172.025 Y159.335 E23.45293
G1 X172.418 Y160.327 E23.50971
G1 X172.596 Y160.874 E23.54033
G1 X172.862 Y161.907 E23.59709
G1 X172.971 Y162.482 E23.62824
G1 X173.104 Y163.543 E23.68514
G1 X173.14 Y164.119 E23.71585
G1 X173.139 Y165.189 E23.77279
G1 X173.104 Y165.754 E23.80292
G1 X172.973 Y166.804 E23.85923
G1 X172.862 Y167.385 E23.89071
G1 X172.592 Y168.431 E23.94819
