;FLAVOR:Marlin
;TIME:3061
;Filament used: 3.33748m
;Layer height: 0.32
;MINX:129.788
;MINY:128.902
;MINZ:0.32
;MAXX:170.212
;MAXY:171.262
;MAXZ:24.32
;Generated with Cura_SteamEngine master
M140 S70
M105
M190 S70
M104 S240
M105
M109 S240
M82 ;absolute extrusion mode
G28 ;Home
G1 Z15.0 F2000 ;Move the platform
G92 E0
G92 E0
;LAYER_COUNT:76
;LAYER:0
M107 P2
G0 F9000 X131.641 Y130.453 Z0.32
;TYPE:SKIRT
G1 F2400 X132.166 Y130.019 E0.03625
G1 X132.738 Y129.65 E0.07247
G1 X133.35 Y129.351 E0.10872
G1 X133.992 Y129.126 E0.14492
G1 X134.657 Y128.977 E0.18119
G1 X135.588 Y128.902 E0.23089
G1 X164.412 Y128.902 E1.7648
G1 X165.092 Y128.942 E1.80105
G1 X165.762 Y129.061 E1.83726
G1 X166.414 Y129.258 E1.87351
G1 X167.038 Y129.53 E1.90973
G1 X167.626 Y129.874 E1.94598
G1 X168.17 Y130.284 E1.98223
G1 X168.661 Y130.755 E2.01844
G1 X169.095 Y131.28 E2.05469
G1 X169.464 Y131.852 E2.09091
G1 X169.763 Y132.464 E2.12716
G1 X169.988 Y133.106 E2.16336
G1 X170.137 Y133.771 E2.19963
G1 X170.212 Y134.702 E2.24934
G1 X170.212 Y165.462 E3.88627
G1 X170.172 Y166.142 E3.92252
G1 X170.053 Y166.812 E3.95873
G1 X169.856 Y167.464 E3.99498
G1 X169.584 Y168.088 E4.0312
G1 X169.24 Y168.676 E4.06745
G1 X168.83 Y169.22 E4.1037
G1 X168.359 Y169.711 E4.13991
G1 X167.834 Y170.145 E4.17616
G1 X167.262 Y170.514 E4.21238
G1 X166.65 Y170.813 E4.24863
G1 X166.008 Y171.038 E4.28483
G1 X165.343 Y171.187 E4.3211
G1 X164.412 Y171.262 E4.3708
G1 X135.588 Y171.262 E5.90471
G1 X134.908 Y171.222 E5.94096
G1 X134.238 Y171.103 E5.97717
G1 X133.586 Y170.906 E6.01342
G1 X132.962 Y170.634 E6.04964
G1 X132.374 Y170.29 E6.08589
G1 X131.83 Y169.88 E6.12215
G1 X131.339 Y169.409 E6.15835
G1 X130.905 Y168.884 E6.1946
G1 X130.536 Y168.312 E6.23083
G1 X130.237 Y167.7 E6.26707
G1 X130.012 Y167.058 E6.30328
G1 X129.863 Y166.393 E6.33954
G1 X129.788 Y165.462 E6.38925
G1 X129.788 Y134.702 E8.02618
G1 X129.828 Y134.022 E8.06243
G1 X129.947 Y133.352 E8.09864
G1 X130.144 Y132.7 E8.13489
G1 X130.416 Y132.076 E8.17111
G1 X130.76 Y131.488 E8.20736
G1 X131.17 Y130.944 E8.24361
G1 X131.641 Y130.453 E8.27982
G0 F9000 X132.033 Y130.637
G1 F2400 X132.553 Y130.236 E8.31477
G1 X133.117 Y129.9 E8.3497
G1 X133.719 Y129.636 E8.38468
G1 X134.348 Y129.446 E8.41965
G1 X134.995 Y129.335 E8.45458
G1 X135.588 Y129.302 E8.48619
G1 X164.412 Y129.302 E10.0201
G1 X165.068 Y129.342 E10.05507
G1 X165.714 Y129.461 E10.09003
G1 X166.341 Y129.658 E10.125
G1 X166.939 Y129.93 E10.15996
G1 X167.5 Y130.272 E10.19493
G1 X168.015 Y130.68 E10.22989
G1 X168.477 Y131.147 E10.26485
G1 X168.878 Y131.667 E10.29979
G1 X169.214 Y132.231 E10.33473
G1 X169.478 Y132.833 E10.36971
G1 X169.668 Y133.462 E10.40468
G1 X169.779 Y134.109 E10.43961
G1 X169.812 Y134.702 E10.47122
G1 X169.812 Y165.462 E12.10815
G1 X169.772 Y166.118 E12.14312
G1 X169.653 Y166.764 E12.17808
G1 X169.456 Y167.391 E12.21305
G1 X169.184 Y167.989 E12.24802
G1 X168.842 Y168.55 E12.28298
G1 X168.434 Y169.065 E12.31794
G1 X167.967 Y169.527 E12.3529
G1 X167.447 Y169.928 E12.38785
G1 X166.883 Y170.264 E12.42278
G1 X166.281 Y170.528 E12.45777
G1 X165.652 Y170.718 E12.49273
G1 X165.005 Y170.829 E12.52767
G1 X164.412 Y170.862 E12.55927
G1 X135.588 Y170.862 E14.09318
G1 X134.932 Y170.822 E14.12815
G1 X134.286 Y170.703 E14.16311
G1 X133.659 Y170.506 E14.19808
G1 X133.061 Y170.234 E14.23304
G1 X132.5 Y169.892 E14.26801
G1 X131.985 Y169.484 E14.30297
G1 X131.523 Y169.017 E14.33793
G1 X131.122 Y168.497 E14.37287
G1 X130.786 Y167.933 E14.40781
G1 X130.522 Y167.331 E14.44279
G1 X130.332 Y166.702 E14.47776
G1 X130.221 Y166.055 E14.51269
G1 X130.188 Y165.462 E14.5443
G1 X130.188 Y134.702 E16.18123
G1 X130.228 Y134.046 E16.2162
G1 X130.347 Y133.4 E16.25116
G1 X130.544 Y132.773 E16.28614
G1 X130.816 Y132.175 E16.3211
G1 X131.158 Y131.614 E16.35606
G1 X131.566 Y131.099 E16.39103
G1 X132.033 Y130.637 E16.42598
G0 F9000 X131.961 Y131.261
G1 F2400 X132.424 Y130.831 E16.45961
G1 X132.938 Y130.462 E16.49328
G1 X133.494 Y130.162 E16.5269
G1 X134.083 Y129.934 E16.56051
G1 X134.697 Y129.782 E16.59417
G1 X135.588 Y129.702 E16.64178
G1 X164.412 Y129.702 E18.17568
G1 X165.043 Y129.742 E18.20933
G1 X165.664 Y129.861 E18.24298
G1 X166.264 Y130.058 E18.27659
G1 X166.836 Y130.329 E18.31027
G1 X167.368 Y130.669 E18.34387
G1 X167.853 Y131.075 E18.37753
G1 X168.283 Y131.538 E18.41115
G1 X168.652 Y132.052 E18.44483
G1 X168.952 Y132.608 E18.47845
G1 X169.18 Y133.197 E18.51206
G1 X169.332 Y133.811 E18.54572
G1 X169.412 Y134.702 E18.59333
G1 X169.412 Y165.462 E20.23026
G1 X169.372 Y166.093 E20.2639
G1 X169.253 Y166.714 E20.29755
G1 X169.056 Y167.314 E20.33116
G1 X168.785 Y167.886 E20.36484
G1 X168.445 Y168.418 E20.39844
G1 X168.039 Y168.903 E20.4321
G1 X167.576 Y169.333 E20.46573
G1 X167.062 Y169.702 E20.4994
G1 X166.506 Y170.002 E20.53302
G1 X165.917 Y170.23 E20.56663
G1 X165.303 Y170.382 E20.60029
G1 X164.412 Y170.462 E20.6479
G1 X135.588 Y170.462 E22.1818
G1 X134.957 Y170.422 E22.21545
G1 X134.336 Y170.303 E22.2491
G1 X133.736 Y170.106 E22.2827
G1 X133.164 Y169.835 E22.31639
G1 X132.632 Y169.495 E22.34999
G1 X132.147 Y169.089 E22.38364
G1 X131.717 Y168.626 E22.41727
G1 X131.348 Y168.112 E22.45094
G1 X131.048 Y167.556 E22.48456
G1 X130.82 Y166.967 E22.51817
G1 X130.668 Y166.353 E22.55184
G1 X130.588 Y165.462 E22.59944
G1 X130.588 Y134.702 E24.23637
G1 X130.628 Y134.071 E24.27002
G1 X130.747 Y133.45 E24.30367
G1 X130.944 Y132.85 E24.33727
G1 X131.215 Y132.278 E24.37096
G1 X131.555 Y131.746 E24.40456
G1 X131.961 Y131.261 E24.43822
G0 F9000 X132.355 Y131.43
G1 F2400 X132.813 Y131.033 E24.47047
G1 X133.32 Y130.7 E24.50275
G1 X133.866 Y130.436 E24.53503
G1 X134.442 Y130.247 E24.56729
G1 X135.038 Y130.135 E24.59956
G1 X135.588 Y130.102 E24.62888
G1 X164.412 Y130.102 E26.16278
G1 X165.017 Y130.142 E26.19505
G1 X165.611 Y130.261 E26.22729
G1 X166.185 Y130.457 E26.25957
G1 X166.728 Y130.728 E26.29186
G1 X167.231 Y131.067 E26.32414
G1 X167.684 Y131.469 E26.35637
G1 X168.081 Y131.927 E26.38863
G1 X168.414 Y132.434 E26.42091
G1 X168.678 Y132.98 E26.45318
G1 X168.867 Y133.556 E26.48544
G1 X168.979 Y134.152 E26.51771
G1 X169.012 Y134.702 E26.54703
G1 X169.012 Y165.462 E28.18397
G1 X168.972 Y166.067 E28.21623
G1 X168.853 Y166.661 E28.24847
G1 X168.657 Y167.235 E28.28075
G1 X168.386 Y167.778 E28.31304
G1 X168.047 Y168.281 E28.34532
G1 X167.645 Y168.734 E28.37755
G1 X167.187 Y169.131 E28.40981
G1 X166.68 Y169.464 E28.44209
G1 X166.134 Y169.728 E28.47436
G1 X165.558 Y169.917 E28.50662
G1 X164.962 Y170.029 E28.53889
G1 X164.412 Y170.062 E28.56822
G1 X135.588 Y170.062 E30.10212
G1 X134.983 Y170.022 E30.13439
G1 X134.389 Y169.903 E30.16662
G1 X133.815 Y169.707 E30.1989
G1 X133.272 Y169.436 E30.2312
G1 X132.769 Y169.097 E30.26348
G1 X132.316 Y168.695 E30.29571
G1 X131.919 Y168.237 E30.32796
G1 X131.586 Y167.73 E30.36024
G1 X131.322 Y167.184 E30.39252
G1 X131.133 Y166.608 E30.42478
G1 X131.021 Y166.012 E30.45705
G1 X130.988 Y165.462 E30.48637
G1 X130.988 Y134.702 E32.1233
G1 X131.028 Y134.097 E32.15557
G1 X131.147 Y133.503 E32.18781
G1 X131.343 Y132.929 E32.22008
G1 X131.614 Y132.386 E32.25238
G1 X131.953 Y131.883 E32.28466
G1 X132.355 Y131.43 E32.31689
G0 F9000 X132.748 Y131.608
G1 F2400 X133.201 Y131.246 E32.34775
G1 X133.699 Y130.951 E32.37855
G1 X134.233 Y130.726 E32.40939
G1 X134.793 Y130.578 E32.44021
G1 X135.588 Y130.502 E32.48271
G1 X164.412 Y130.502 E34.01662
G1 X164.99 Y130.542 E34.04745
G1 X165.557 Y130.661 E34.07828
G1 X166.102 Y130.857 E34.1091
G1 X166.615 Y131.126 E34.13993
G1 X167.086 Y131.463 E34.17075
G1 X167.506 Y131.862 E34.20158
G1 X167.868 Y132.315 E34.23243
G1 X168.163 Y132.813 E34.26324
G1 X168.388 Y133.347 E34.29407
G1 X168.536 Y133.907 E34.3249
G1 X168.612 Y134.702 E34.3674
G1 X168.612 Y165.462 E36.00433
G1 X168.572 Y166.04 E36.03516
G1 X168.453 Y166.607 E36.06599
G1 X168.257 Y167.152 E36.09681
G1 X167.988 Y167.665 E36.12764
G1 X167.651 Y168.136 E36.15846
G1 X167.252 Y168.556 E36.18929
G1 X166.799 Y168.918 E36.22015
G1 X166.301 Y169.213 E36.25095
G1 X165.767 Y169.438 E36.28179
G1 X165.207 Y169.586 E36.31261
G1 X164.412 Y169.662 E36.35511
G1 X135.588 Y169.662 E37.88901
G1 X135.01 Y169.622 E37.91985
G1 X134.443 Y169.503 E37.95068
G1 X133.898 Y169.307 E37.9815
G1 X133.385 Y169.038 E38.01232
G1 X132.914 Y168.701 E38.04314
G1 X132.494 Y168.302 E38.07397
G1 X132.132 Y167.849 E38.10483
G1 X131.837 Y167.351 E38.13563
G1 X131.612 Y166.817 E38.16647
G1 X131.464 Y166.257 E38.19729
G1 X131.388 Y165.462 E38.23979
G1 X131.388 Y134.702 E39.87673
G1 X131.428 Y134.124 E39.90756
G1 X131.547 Y133.557 E39.93839
G1 X131.743 Y133.012 E39.96921
G1 X132.012 Y132.499 E40.00004
G1 X132.349 Y132.028 E40.03086
G1 X132.748 Y131.608 E40.06168
G0 F9000 X133.14 Y131.796
G1 F2400 X133.586 Y131.472 E40.09102
G1 X134.074 Y131.217 E40.12032
G1 X134.594 Y131.034 E40.14966
G1 X135.135 Y130.929 E40.17899
G1 X135.588 Y130.902 E40.20313
G1 X164.412 Y130.902 E41.73704
G1 X164.962 Y130.942 E41.76639
G1 X165.5 Y131.061 E41.79571
G1 X166.015 Y131.257 E41.82503
G1 X166.496 Y131.525 E41.85433
G1 X166.934 Y131.859 E41.88365
G1 X167.318 Y132.254 E41.91296
G1 X167.642 Y132.7 E41.9423
G1 X167.897 Y133.188 E41.9716
G1 X168.08 Y133.708 E42.00094
G1 X168.185 Y134.249 E42.03026
G1 X168.212 Y134.702 E42.05441
G1 X168.212 Y165.462 E43.69134
G1 X168.172 Y166.012 E43.72069
G1 X168.053 Y166.55 E43.75001
G1 X167.857 Y167.065 E43.77934
G1 X167.589 Y167.546 E43.80864
G1 X167.255 Y167.984 E43.83795
G1 X166.86 Y168.368 E43.86727
G1 X166.414 Y168.692 E43.8966
G1 X165.926 Y168.947 E43.9259
G1 X165.406 Y169.13 E43.95524
G1 X164.865 Y169.235 E43.98457
G1 X164.412 Y169.262 E44.00872
G1 X135.588 Y169.262 E45.54262
G1 X135.038 Y169.222 E45.57197
G1 X134.5 Y169.103 E45.60129
G1 X133.985 Y168.907 E45.63061
G1 X133.504 Y168.639 E45.65992
G1 X133.066 Y168.305 E45.68923
G1 X132.682 Y167.91 E45.71855
G1 X132.358 Y167.464 E45.74788
G1 X132.103 Y166.976 E45.77718
G1 X131.92 Y166.456 E45.80652
G1 X131.815 Y165.915 E45.83585
G1 X131.788 Y165.462 E45.86
G1 X131.788 Y134.702 E47.49693
G1 X131.828 Y134.152 E47.52627
G1 X131.947 Y133.614 E47.55559
G1 X132.143 Y133.099 E47.58492
G1 X132.411 Y132.618 E47.61422
G1 X132.745 Y132.18 E47.64353
G1 X133.14 Y131.796 E47.67285
G0 F9000 X133.14 Y132.342
G1 F2400 X133.53 Y131.996 E47.70059
G1 X133.968 Y131.713 E47.72835
G1 X134.443 Y131.5 E47.75605
G1 X134.946 Y131.363 E47.78379
G1 X135.588 Y131.302 E47.81811
G1 X164.412 Y131.302 E49.35201
G1 X164.932 Y131.342 E49.37977
G1 X165.439 Y131.461 E49.40748
G1 X165.922 Y131.656 E49.4352
G1 X166.37 Y131.922 E49.46293
G1 X166.772 Y132.254 E49.49067
G1 X167.118 Y132.644 E49.51842
G1 X167.401 Y133.082 E49.54617
G1 X167.614 Y133.557 E49.57387
G1 X167.751 Y134.06 E49.60161
G1 X167.812 Y134.702 E49.63593
G1 X167.812 Y165.462 E51.27286
G1 X167.772 Y165.982 E51.30062
G1 X167.653 Y166.489 E51.32833
G1 X167.458 Y166.972 E51.35605
G1 X167.192 Y167.42 E51.38378
G1 X166.86 Y167.822 E51.41152
G1 X166.47 Y168.168 E51.43927
G1 X166.032 Y168.451 E51.46702
G1 X165.557 Y168.664 E51.49472
G1 X165.054 Y168.801 E51.52246
G1 X164.412 Y168.862 E51.55678
G1 X135.588 Y168.862 E53.09069
G1 X135.068 Y168.822 E53.11844
G1 X134.561 Y168.703 E53.14616
G1 X134.078 Y168.508 E53.17387
G1 X133.63 Y168.242 E53.2016
G1 X133.228 Y167.91 E53.22935
G1 X132.882 Y167.52 E53.25709
G1 X132.599 Y167.082 E53.28484
G1 X132.386 Y166.607 E53.31254
G1 X132.249 Y166.104 E53.34029
G1 X132.188 Y165.462 E53.37461
G1 X132.188 Y134.702 E55.01154
G1 X132.228 Y134.182 E55.03929
G1 X132.347 Y133.675 E55.06701
G1 X132.542 Y133.192 E55.09472
G1 X132.808 Y132.744 E55.12245
G1 X133.14 Y132.342 E55.1502
G0 F9000 X133.534 Y132.515
G1 F2400 X133.917 Y132.21 E55.17625
G1 X134.345 Y131.972 E55.20231
G1 X134.805 Y131.806 E55.22834
G1 X135.286 Y131.717 E55.25437
G1 X135.588 Y131.702 E55.27046
G1 X164.412 Y131.702 E56.80436
G1 X164.9 Y131.742 E56.83042
G1 X165.375 Y131.861 E56.85648
G1 X165.824 Y132.055 E56.88251
G1 X166.236 Y132.32 E56.90858
G1 X166.599 Y132.648 E56.93461
G1 X166.904 Y133.031 E56.96067
G1 X167.142 Y133.459 E56.98673
G1 X167.308 Y133.919 E57.01275
G1 X167.397 Y134.4 E57.03878
G1 X167.412 Y134.702 E57.05488
G1 X167.412 Y165.462 E58.69181
G1 X167.372 Y165.95 E58.71786
G1 X167.253 Y166.425 E58.74392
G1 X167.059 Y166.874 E58.76995
G1 X166.794 Y167.286 E58.79602
G1 X166.466 Y167.649 E58.82206
G1 X166.083 Y167.954 E58.84811
G1 X165.655 Y168.192 E58.87417
G1 X165.195 Y168.358 E58.9002
G1 X164.714 Y168.447 E58.92623
G1 X164.412 Y168.462 E58.94232
G1 X135.588 Y168.462 E60.47622
G1 X135.1 Y168.422 E60.50228
G1 X134.625 Y168.303 E60.52834
G1 X134.176 Y168.109 E60.55437
G1 X133.764 Y167.844 E60.58044
G1 X133.401 Y167.516 E60.60647
G1 X133.096 Y167.133 E60.63253
G1 X132.858 Y166.705 E60.65859
G1 X132.692 Y166.245 E60.68461
G1 X132.603 Y165.764 E60.71064
G1 X132.588 Y165.462 E60.72674
G1 X132.588 Y134.702 E62.36367
G1 X132.628 Y134.214 E62.38972
G1 X132.747 Y133.739 E62.41578
G1 X132.941 Y133.29 E62.44181
G1 X133.206 Y132.878 E62.46788
G1 X133.534 Y132.515 E62.49391
G0 F9000 X133.926 Y132.702
G1 F2400 X134.301 Y132.443 E62.51817
G1 X134.715 Y132.253 E62.54241
G1 X135.156 Y132.138 E62.56666
G1 X135.588 Y132.102 E62.58973
G1 X164.412 Y132.102 E64.12364
G1 X164.866 Y132.142 E64.14789
G1 X165.306 Y132.26 E64.17213
G1 X165.718 Y132.454 E64.19637
G1 X166.091 Y132.717 E64.22065
G1 X166.412 Y133.04 E64.24489
G1 X166.671 Y133.415 E64.26914
G1 X166.861 Y133.829 E64.29338
G1 X166.976 Y134.27 E64.31763
G1 X167.012 Y134.702 E64.3407
G1 X167.012 Y165.462 E65.97763
G1 X166.972 Y165.916 E66.00189
G1 X166.854 Y166.356 E66.02613
G1 X166.66 Y166.768 E66.05036
G1 X166.397 Y167.141 E66.07465
G1 X166.074 Y167.462 E66.09889
G1 X165.699 Y167.721 E66.12314
G1 X165.285 Y167.911 E66.14738
G1 X164.844 Y168.026 E66.17163
G1 X164.412 Y168.062 E66.1947
G1 X135.588 Y168.062 E67.72861
G1 X135.134 Y168.022 E67.75286
G1 X134.694 Y167.904 E67.7771
G1 X134.282 Y167.71 E67.80134
G1 X133.909 Y167.447 E67.82562
G1 X133.588 Y167.124 E67.84986
G1 X133.329 Y166.749 E67.87411
G1 X133.139 Y166.335 E67.89835
G1 X133.024 Y165.894 E67.92261
G1 X132.988 Y165.462 E67.94567
G1 X132.988 Y134.702 E69.58261
G1 X133.028 Y134.248 E69.60686
G1 X133.146 Y133.808 E69.6311
G1 X133.34 Y133.396 E69.65534
G1 X133.603 Y133.023 E69.67962
G1 X133.926 Y132.702 E69.70386
G0 F9000 X133.998 Y133.182
G1 F2400 X134.315 Y132.908 E69.72615
G1 X134.678 Y132.699 E69.74845
G1 X135.075 Y132.563 E69.77078
G1 X135.588 Y132.502 E69.79827
G1 X164.412 Y132.502 E71.33217
G1 X164.829 Y132.542 E71.35447
G1 X165.231 Y132.66 E71.37676
G1 X165.603 Y132.853 E71.39906
G1 X165.932 Y133.112 E71.42135
G1 X166.206 Y133.429 E71.44364
G1 X166.415 Y133.792 E71.46594
G1 X166.551 Y134.189 E71.48827
G1 X166.612 Y134.702 E71.51576
G1 X166.612 Y165.462 E73.15269
G1 X166.572 Y165.879 E73.17498
G1 X166.454 Y166.281 E73.19728
G1 X166.261 Y166.653 E73.21958
G1 X166.002 Y166.982 E73.24186
G1 X165.685 Y167.256 E73.26416
G1 X165.322 Y167.465 E73.28645
G1 X164.925 Y167.601 E73.30878
G1 X164.412 Y167.662 E73.33628
G1 X135.588 Y167.662 E74.87018
G1 X135.171 Y167.622 E74.89247
G1 X134.769 Y167.504 E74.91477
G1 X134.397 Y167.311 E74.93707
G1 X134.068 Y167.052 E74.95935
G1 X133.794 Y166.735 E74.98165
G1 X133.585 Y166.372 E75.00394
G1 X133.449 Y165.975 E75.02627
G1 X133.388 Y165.462 E75.05377
G1 X133.388 Y134.702 E76.6907
G1 X133.428 Y134.285 E76.71299
G1 X133.546 Y133.883 E76.73529
G1 X133.739 Y133.511 E76.75759
G1 X133.998 Y133.182 E76.77987
G0 F9000 X134.391 Y133.357
G1 F2400 X134.7 Y133.137 E76.80006
G1 X135.047 Y132.985 E76.82022
G1 X135.588 Y132.902 E76.84934
G1 X164.412 Y132.902 E78.38325
G1 X164.789 Y132.942 E78.40342
G1 X165.149 Y133.06 E78.42358
G1 X165.476 Y133.25 E78.44371
G1 X165.757 Y133.505 E78.4639
G1 X165.977 Y133.814 E78.48409
G1 X166.129 Y134.161 E78.50425
G1 X166.212 Y134.702 E78.53337
G1 X166.212 Y165.462 E80.17031
G1 X166.172 Y165.839 E80.19048
G1 X166.054 Y166.199 E80.21064
G1 X165.864 Y166.526 E80.23077
G1 X165.609 Y166.807 E80.25096
G1 X165.3 Y167.027 E80.27115
G1 X164.953 Y167.179 E80.29131
G1 X164.412 Y167.262 E80.32043
G1 X135.588 Y167.262 E81.85434
G1 X135.211 Y167.222 E81.87451
G1 X134.851 Y167.104 E81.89467
