;FLAVOR:Marlin
;TIME:9396
;Filament used: 15.5109m
;Layer height: 0.32
;MINX:121.15
;MINY:117.412
;MINZ:0.32
;MAXX:178.834
;MAXY:182.588
;MAXZ:79.04
;Generated with Cura_SteamEngine master
M140 S60
M105
M190 S60
M104 S240
M105
M109 S240
M82 ;absolute extrusion mode
G28 ;Home
G1 Z15.0 F2000 ;Move the platform
G92 E0
G92 E0
;LAYER_COUNT:247
;LAYER:0
M107 P2
G0 F7500 X123.578 Y119.729 Z0.32
;TYPE:SKIRT
G1 F1500 X124.18 Y119.195 E0.06424
G1 X124.832 Y118.723 E0.12849
G1 X125.528 Y118.318 E0.19277
G1 X126.26 Y117.984 E0.25699
G1 X127.022 Y117.725 E0.32124
G1 X127.805 Y117.542 E0.38542
G1 X128.603 Y117.438 E0.44966
G1 X129.25 Y117.412 E0.50135
G1 X152.416 Y117.412 E2.35056
G1 X153.22 Y117.452 E2.41482
G1 X154.016 Y117.572 E2.47908
G1 X154.796 Y117.769 E2.54329
G1 X155.552 Y118.044 E2.60751
G1 X156.237 Y118.372 E2.66814
G1 X156.507 Y118.331 E2.68994
G1 X157.311 Y118.288 E2.75421
G1 X158.114 Y118.325 E2.81837
G1 X158.911 Y118.442 E2.88267
G1 X159.691 Y118.637 E2.94685
G1 X160.157 Y118.794 E2.98611
G1 X160.254 Y118.83 E2.99437
G1 X160.727 Y119.023 E3.03514
G1 X161.523 Y119.377 E3.10468
G1 X162.043 Y119.63 E3.15085
G1 X162.812 Y120.04 E3.22041
G1 X163.291 Y120.317 E3.26458
G1 X164.031 Y120.779 E3.33422
G1 X164.501 Y121.096 E3.37947
G1 X165.206 Y121.608 E3.44902
G1 X165.655 Y121.959 E3.49451
G1 X166.323 Y122.52 E3.56415
G1 X166.739 Y122.894 E3.6088
G1 X167.367 Y123.5 E3.67846
G1 X167.763 Y123.911 E3.72402
G1 X168.347 Y124.56 E3.79371
G1 X168.711 Y124.994 E3.83893
G1 X169.248 Y125.682 E3.9086
G1 X169.575 Y126.132 E3.953
G1 X170.064 Y126.856 E4.02274
G1 X170.369 Y127.343 E4.06861
G1 X170.805 Y128.099 E4.13827
G1 X171.072 Y128.602 E4.18373
G1 X171.453 Y129.385 E4.25324
G1 X171.679 Y129.894 E4.2977
G1 X172.006 Y130.703 E4.36735
G1 X172.199 Y131.232 E4.4123
G1 X172.469 Y132.062 E4.48197
G1 X172.625 Y132.608 E4.5273
G1 X172.836 Y133.454 E4.5969
G1 X172.955 Y134.013 E4.64252
G1 X173.106 Y134.873 E4.71222
G1 X173.183 Y135.42 E4.75631
G1 X173.275 Y136.288 E4.82599
G1 X173.315 Y136.863 E4.872
G1 X173.345 Y137.732 E4.94141
G1 X173.345 Y138.29 E4.98595
G1 X173.315 Y139.162 E5.0556
G1 X173.275 Y139.736 E5.10153
G1 X173.183 Y140.605 E5.17128
G1 X173.106 Y141.153 E5.21546
G1 X172.955 Y142.013 E5.28516
G1 X172.836 Y142.572 E5.33078
G1 X172.625 Y143.418 E5.40038
G1 X172.468 Y143.966 E5.44588
G1 X172.198 Y144.795 E5.51548
G1 X172.004 Y145.327 E5.56068
G1 X171.676 Y146.137 E5.63044
G1 X171.589 Y146.333 E5.64755
G1 X171.761 Y146.476 E5.66541
G1 X172.907 Y147.552 E5.79089
G1 X173.603 Y148.292 E5.87198
G1 X174.602 Y149.499 E5.99705
G1 X175.198 Y150.32 E6.07804
G1 X176.04 Y151.645 E6.20335
G1 X176.534 Y152.543 E6.28516
G1 X177.202 Y153.964 E6.4105
G1 X177.577 Y154.912 E6.49188
G1 X178.061 Y156.405 E6.61717
G1 X178.312 Y157.383 E6.69776
G1 X178.607 Y158.927 E6.82324
G1 X178.735 Y159.935 E6.90435
G1 X178.834 Y161.499 E7.02945
G1 X178.834 Y162.522 E7.11111
G1 X178.735 Y164.089 E7.23644
G1 X178.607 Y165.098 E7.31763
G1 X178.312 Y166.642 E7.44311
G1 X178.061 Y167.62 E7.52371
G1 X177.578 Y169.11 E7.64874
G1 X177.203 Y170.058 E7.73012
G1 X176.535 Y171.479 E7.85545
G1 X176.044 Y172.374 E7.93694
G1 X175.201 Y173.702 E8.0625
G1 X174.602 Y174.526 E8.14382
G1 X173.603 Y175.733 E8.26889
G1 X172.907 Y176.473 E8.34998
G1 X171.761 Y177.549 E8.47546
G1 X170.977 Y178.198 E8.55671
G1 X169.709 Y179.119 E8.6818
G1 X168.853 Y179.662 E8.76272
G1 X167.475 Y180.42 E8.88826
G1 X166.554 Y180.854 E8.96954
G1 X165.095 Y181.432 E9.09481
G1 X164.126 Y181.747 E9.17614
G1 X162.607 Y182.137 E9.30133
G1 X161.608 Y182.327 E9.3825
G1 X160.048 Y182.524 E9.50801
G1 X159.033 Y182.588 E9.5892
G1 X157.467 Y182.588 E9.7142
G1 X156.452 Y182.524 E9.79538
G1 X154.892 Y182.327 E9.9209
G1 X153.893 Y182.137 E10.00207
G1 X152.374 Y181.747 E10.12726
G1 X151.405 Y181.432 E10.20859
G1 X149.946 Y180.854 E10.33386
G1 X149.025 Y180.42 E10.41514
G1 X147.647 Y179.662 E10.54068
G1 X146.791 Y179.119 E10.62159
G1 X146.093 Y178.612 E10.69046
G1 X129.25 Y178.612 E12.03494
G1 X128.446 Y178.572 E12.0992
G1 X127.65 Y178.452 E12.16346
G1 X126.87 Y178.255 E12.22767
G1 X126.114 Y177.98 E12.29189
G1 X125.388 Y177.632 E12.35616
G1 X124.701 Y177.214 E12.42035
G1 X124.058 Y176.729 E12.48464
G1 X123.467 Y176.184 E12.54881
G1 X122.933 Y175.582 E12.61305
G1 X122.461 Y174.93 E12.6773
G1 X122.056 Y174.234 E12.74158
G1 X121.722 Y173.502 E12.80581
G1 X121.463 Y172.74 E12.87005
G1 X121.28 Y171.957 E12.93424
G1 X121.176 Y171.159 E12.99848
G1 X121.15 Y170.512 E13.05016
G1 X121.15 Y125.512 E16.64226
G1 X121.19 Y124.708 E16.70652
G1 X121.31 Y123.912 E16.77077
G1 X121.507 Y123.132 E16.83499
G1 X121.782 Y122.376 E16.89921
G1 X122.13 Y121.65 E16.96347
G1 X122.548 Y120.963 E17.02767
G1 X123.033 Y120.32 E17.09196
G1 X123.578 Y119.729 E17.15613
G0 F7500 X124.168 Y119.996
G1 F1500 X124.764 Y119.502 E17.21792
G1 X125.408 Y119.071 E17.27978
G1 X126.092 Y118.709 E17.34156
G1 X126.81 Y118.42 E17.40334
G1 X127.555 Y118.206 E17.46521
G1 X128.317 Y118.07 E17.527
G1 X129.25 Y118.012 E17.60162
G1 X152.416 Y118.012 E19.45083
G1 X153.189 Y118.052 E19.51262
G1 X153.954 Y118.171 E19.57442
G1 X154.703 Y118.369 E19.63626
G1 X155.427 Y118.643 E19.69805
G1 X156.12 Y118.99 E19.75992
G1 X156.178 Y118.978 E19.76465
G1 X156.948 Y118.898 E19.82644
G1 X157.722 Y118.898 E19.88822
G1 X158.492 Y118.977 E19.95001
G1 X159.25 Y119.136 E20.01184
G1 X159.949 Y119.357 E20.07036
G1 X160.046 Y119.393 E20.07861
G1 X160.484 Y119.571 E20.11635
G1 X161.28 Y119.925 E20.18589
G1 X161.761 Y120.16 E20.22863
G1 X162.53 Y120.57 E20.29819
G1 X162.973 Y120.826 E20.33903
G1 X163.713 Y121.288 E20.40867
G1 X164.148 Y121.582 E20.45058
G1 X164.853 Y122.094 E20.52013
G1 X165.269 Y122.419 E20.56227
G1 X165.937 Y122.98 E20.63191
G1 X166.322 Y123.326 E20.67322
G1 X166.95 Y123.932 E20.74289
G1 X167.317 Y124.312 E20.78506
G1 X167.901 Y124.961 E20.85475
G1 X168.238 Y125.363 E20.89662
G1 X168.775 Y126.051 E20.96629
G1 X169.078 Y126.468 E21.00744
G1 X169.567 Y127.192 E21.07718
G1 X169.849 Y127.643 E21.11964
G1 X170.285 Y128.399 E21.1893
G1 X170.532 Y128.864 E21.23133
G1 X170.913 Y129.647 E21.30084
G1 X171.122 Y130.118 E21.34197
G1 X171.449 Y130.927 E21.41163
G1 X171.628 Y131.418 E21.45334
G1 X171.898 Y132.248 E21.52301
G1 X172.043 Y132.753 E21.56495
G1 X172.254 Y133.599 E21.63455
G1 X172.364 Y134.117 E21.67683
G1 X172.515 Y134.977 E21.74653
G1 X172.586 Y135.483 E21.78731
G1 X172.678 Y136.351 E21.85699
G1 X172.716 Y136.883 E21.89956
G1 X172.746 Y137.752 E21.96897
G1 X172.746 Y138.269 E22.01024
G1 X172.716 Y139.141 E22.07989
G1 X172.678 Y139.673 E22.12246
G1 X172.586 Y140.542 E22.19222
G1 X172.515 Y141.049 E22.23308
G1 X172.364 Y141.909 E22.30278
G1 X172.254 Y142.427 E22.34505
G1 X172.043 Y143.273 E22.41465
G1 X171.897 Y143.781 E22.45685
G1 X171.627 Y144.61 E22.52644
G1 X171.448 Y145.102 E22.56823
G1 X171.12 Y145.912 E22.63799
G1 X170.914 Y146.375 E22.67844
G1 X170.853 Y146.501 E22.68962
G1 X171.351 Y146.913 E22.74121
G1 X172.497 Y147.989 E22.86669
G1 X173.141 Y148.675 E22.9418
G1 X174.14 Y149.882 E23.06687
G1 X174.692 Y150.641 E23.14178
G1 X175.534 Y151.966 E23.2671
G1 X175.991 Y152.798 E23.34287
G1 X176.659 Y154.219 E23.46821
G1 X177.006 Y155.097 E23.54357
G1 X177.49 Y156.59 E23.66886
G1 X177.723 Y157.495 E23.74345
G1 X178.018 Y159.039 E23.86893
G1 X178.136 Y159.973 E23.94408
G1 X178.235 Y161.537 E24.06918
G1 X178.235 Y162.484 E24.14477
G1 X178.136 Y164.051 E24.2701
G1 X178.018 Y164.986 E24.34533
G1 X177.723 Y166.53 E24.47081
G1 X177.491 Y167.435 E24.54539
G1 X177.008 Y168.925 E24.67042
G1 X176.66 Y169.803 E24.74581
G1 X175.992 Y171.224 E24.87115
G1 X175.537 Y172.052 E24.94656
G1 X174.694 Y173.38 E25.07212
G1 X174.14 Y174.143 E25.14739
G1 X173.141 Y175.35 E25.27246
G1 X172.497 Y176.036 E25.34757
G1 X171.351 Y177.112 E25.47305
G1 X170.625 Y177.712 E25.54823
G1 X169.357 Y178.633 E25.67333
G1 X168.564 Y179.136 E25.74829
G1 X167.186 Y179.894 E25.87383
G1 X166.333 Y180.296 E25.94911
G1 X164.874 Y180.874 E26.07438
G1 X163.977 Y181.165 E26.14965
G1 X162.458 Y181.555 E26.27484
G1 X161.533 Y181.732 E26.35002
G1 X159.973 Y181.929 E26.47553
G1 X159.033 Y181.988 E26.55071
G1 X157.467 Y181.988 E26.67572
G1 X156.527 Y181.929 E26.7509
G1 X154.967 Y181.732 E26.87642
G1 X154.042 Y181.555 E26.95159
G1 X152.523 Y181.165 E27.07678
G1 X151.626 Y180.874 E27.15205
G1 X150.167 Y180.296 E27.27732
G1 X149.314 Y179.894 E27.3526
G1 X147.936 Y179.136 E27.47814
G1 X147.143 Y178.633 E27.5531
G1 X146.285 Y178.01 E27.63774
G1 X146.25 Y178.012 E27.64054
G1 X129.25 Y178.012 E28.99755
G1 X128.477 Y177.972 E29.05934
G1 X127.712 Y177.853 E29.12114
G1 X126.963 Y177.655 E29.18298
G1 X126.239 Y177.381 E29.24477
G1 X125.546 Y177.034 E29.30664
G1 X124.894 Y176.617 E29.36842
G1 X124.288 Y176.135 E29.43023
G1 X123.734 Y175.594 E29.49204
G1 X123.24 Y174.998 E29.55383
G1 X122.809 Y174.354 E29.61569
G1 X122.447 Y173.67 E29.67746
G1 X122.158 Y172.952 E29.73925
G1 X121.944 Y172.207 E29.80112
G1 X121.808 Y171.445 E29.86291
G1 X121.75 Y170.512 E29.93753
G1 X121.75 Y125.512 E33.52962
G1 X121.79 Y124.739 E33.59141
G1 X121.909 Y123.974 E33.65321
G1 X122.107 Y123.225 E33.71505
G1 X122.381 Y122.501 E33.77684
G1 X122.728 Y121.808 E33.83871
G1 X123.145 Y121.156 E33.90049
G1 X123.627 Y120.55 E33.9623
G1 X124.168 Y119.996 E34.02411
G0 F7500 X124.219 Y120.789
G1 F1500 X124.756 Y120.276 E34.08339
G1 X125.345 Y119.823 E34.1427
G1 X125.979 Y119.437 E34.20196
G1 X126.651 Y119.12 E34.26127
G1 X127.353 Y118.878 E34.32054
G1 X128.077 Y118.712 E34.37983
G1 X128.815 Y118.626 E34.43914
G1 X129.25 Y118.612 E34.47388
G1 X152.416 Y118.612 E36.32309
G1 X153.158 Y118.652 E36.38241
G1 X153.891 Y118.771 E36.44168
G1 X154.607 Y118.969 E36.50098
G1 X155.297 Y119.242 E36.56022
G1 X155.954 Y119.588 E36.61949
G1 X156.006 Y119.623 E36.62449
G1 X156.632 Y119.524 E36.67508
G1 X157.373 Y119.488 E36.7343
G1 X158.115 Y119.532 E36.79364
G1 X158.847 Y119.655 E36.85289
G1 X159.74 Y119.919 E36.92722
G1 X159.837 Y119.955 E36.93548
G1 X160.24 Y120.119 E36.97021
G1 X161.036 Y120.473 E37.03975
G1 X161.478 Y120.689 E37.07902
G1 X162.247 Y121.099 E37.14859
G1 X162.655 Y121.335 E37.18621
G1 X163.395 Y121.797 E37.25585
G1 X163.796 Y122.067 E37.29444
G1 X164.501 Y122.579 E37.36399
G1 X164.883 Y122.878 E37.40271
G1 X165.551 Y123.439 E37.47234
G1 X165.905 Y123.758 E37.51038
G1 X166.533 Y124.364 E37.58005
G1 X166.871 Y124.714 E37.61888
G1 X167.455 Y125.363 E37.68858
G1 X167.765 Y125.733 E37.72711
G1 X168.302 Y126.421 E37.79678
G1 X168.581 Y126.804 E37.8346
G1 X169.07 Y127.528 E37.90434
G1 X169.329 Y127.943 E37.94339
G1 X169.765 Y128.699 E38.01305
G1 X169.992 Y129.127 E38.05173
G1 X170.373 Y129.91 E38.12124
G1 X170.566 Y130.343 E38.15908
G1 X170.893 Y131.152 E38.22873
G1 X171.058 Y131.604 E38.26714
G1 X171.328 Y132.434 E38.33681
G1 X171.461 Y132.898 E38.37534
G1 X171.672 Y133.744 E38.44494
G1 X171.773 Y134.221 E38.48386
G1 X171.924 Y135.081 E38.55356
G1 X171.99 Y135.547 E38.59113
G1 X172.082 Y136.415 E38.66081
G1 X172.116 Y136.904 E38.69993
G1 X172.146 Y137.773 E38.76934
G1 X172.146 Y138.248 E38.80726
G1 X172.116 Y139.12 E38.87691
G1 X172.082 Y139.609 E38.91604
G1 X171.99 Y140.478 E38.98579
G1 X171.924 Y140.945 E39.02344
G1 X171.773 Y141.805 E39.09314
G1 X171.672 Y142.282 E39.13206
G1 X171.461 Y143.128 E39.20166
G1 X171.327 Y143.595 E39.24044
G1 X171.057 Y144.424 E39.31004
G1 X170.892 Y144.877 E39.34852
G1 X170.564 Y145.687 E39.41828
G1 X170.374 Y146.113 E39.45551
G1 X170.101 Y146.674 E39.50532
G1 X170.275 Y146.8 E39.52246
G1 X170.94 Y147.351 E39.5914
G1 X172.086 Y148.427 E39.71688
G1 X172.678 Y149.058 E39.78595
G1 X173.677 Y150.265 E39.91102
G1 X174.186 Y150.963 E39.97998
G1 X175.028 Y152.288 E40.10529
G1 X175.448 Y153.054 E40.17503
G1 X176.116 Y154.475 E40.30037
G1 X176.436 Y155.282 E40.36966
G1 X176.92 Y156.775 E40.49495
G1 X177.133 Y157.608 E40.56358
G1 X177.428 Y159.152 E40.68906
G1 X177.537 Y160.011 E40.75818
G1 X177.636 Y161.575 E40.88327
G1 X177.636 Y162.446 E40.9528
G1 X177.537 Y164.013 E41.07813
G1 X177.428 Y164.873 E41.14733
G1 X177.133 Y166.417 E41.27281
G1 X176.92 Y167.25 E41.34144
G1 X176.437 Y168.74 E41.46647
G1 X176.117 Y169.547 E41.53577
G1 X175.449 Y170.968 E41.66111
G1 X175.03 Y171.731 E41.7306
G1 X174.187 Y173.059 E41.85616
G1 X173.677 Y173.76 E41.92536
G1 X172.678 Y174.967 E42.05042
G1 X172.086 Y175.598 E42.11949
G1 X170.94 Y176.674 E42.24497
G1 X170.272 Y177.227 E42.3142
G1 X169.004 Y178.148 E42.43929
G1 X168.275 Y178.611 E42.50823
G1 X166.897 Y179.369 E42.63377
G1 X166.112 Y179.738 E42.70301
G1 X164.653 Y180.316 E42.82828
G1 X163.828 Y180.584 E42.89752
G1 X162.309 Y180.974 E43.02271
G1 X161.457 Y181.137 E43.09195
G1 X159.897 Y181.334 E43.21747
G1 X159.033 Y181.388 E43.28657
G1 X157.467 Y181.388 E43.41158
G1 X156.603 Y181.334 E43.48068
G1 X155.043 Y181.137 E43.60619
G1 X154.191 Y180.974 E43.67544
G1 X152.672 Y180.584 E43.80062
G1 X151.847 Y180.316 E43.86987
G1 X150.388 Y179.738 E43.99514
G1 X149.603 Y179.369 E44.06438
G1 X148.225 Y178.611 E44.18992
G1 X147.496 Y178.148 E44.25885
G1 X146.473 Y177.405 E44.35978
G1 X146.25 Y177.412 E44.37759
G1 X129.25 Y177.412 E45.7346
G1 X128.508 Y177.372 E45.79392
G1 X127.775 Y177.253 E45.8532
G1 X127.059 Y177.055 E45.9125
G1 X126.369 Y176.782 E45.97173
G1 X125.712 Y176.436 E46.031
G1 X125.095 Y176.021 E46.09036
G1 X124.527 Y175.543 E46.14962
G1 X124.014 Y175.006 E46.2089
G1 X123.561 Y174.417 E46.26821
G1 X123.175 Y173.783 E46.32746
G1 X122.858 Y173.111 E46.38677
G1 X122.616 Y172.409 E46.44605
G1 X122.45 Y171.685 E46.50534
G1 X122.364 Y170.947 E46.56465
G1 X122.35 Y170.512 E46.59939
G1 X122.35 Y125.512 E50.19148
G1 X122.39 Y124.77 E50.2508
G1 X122.509 Y124.037 E50.31008
G1 X122.707 Y123.321 E50.36938
G1 X122.98 Y122.631 E50.42861
G1 X123.326 Y121.974 E50.48788
G1 X123.741 Y121.357 E50.54724
G1 X124.219 Y120.789 E50.6065
G0 F7500 X124.811 Y121.042
G1 F1500 X125.342 Y120.571 E50.66316
G1 X125.922 Y120.163 E50.71976
G1 X126.545 Y119.822 E50.77645
G1 X127.202 Y119.554 E50.83309
G1 X127.885 Y119.362 E50.88973
G1 X128.586 Y119.247 E50.94643
G1 X129.25 Y119.212 E50.99951
G1 X152.416 Y119.212 E52.84872
G1 X153.125 Y119.252 E52.9054
G1 X153.824 Y119.371 E52.962
G1 X154.506 Y119.569 E53.01869
G1 X155.161 Y119.841 E53.07531
G1 X155.781 Y120.186 E53.13194
G1 X155.892 Y120.265 E53.14282
G1 X156.365 Y120.164 E53.18143
G1 X157.071 Y120.094 E53.23806
G1 X157.781 Y120.103 E53.29474
G1 X158.485 Y120.193 E53.35139
G1 X159.174 Y120.361 E53.408
G1 X159.531 Y120.482 E53.43809
G1 X159.628 Y120.518 E53.44635
G1 X159.996 Y120.668 E53.47807
G1 X160.792 Y121.022 E53.54761
G1 X161.196 Y121.219 E53.58349
G1 X161.965 Y121.629 E53.65306
G1 X162.337 Y121.844 E53.68736
G1 X163.077 Y122.306 E53.75699
G1 X163.443 Y122.552 E53.79219
G1 X164.148 Y123.064 E53.86175
G1 X164.498 Y123.338 E53.89723
G1 X165.166 Y123.899 E53.96686
G1 X165.489 Y124.19 E54.00156
G1 X166.117 Y124.796 E54.07123
G1 X166.425 Y125.115 E54.10662
G1 X167.009 Y125.764 E54.17632
G1 X167.292 Y126.102 E54.2115
G1 X167.829 Y126.79 E54.28117
G1 X168.084 Y127.14 E54.31574
G1 X168.573 Y127.864 E54.38548
G1 X168.809 Y128.243 E54.42112
G1 X169.245 Y128.999 E54.49078
G1 X169.453 Y129.389 E54.52606
G1 X169.834 Y130.172 E54.59557
G1 X170.01 Y130.568 E54.63017
G1 X170.337 Y131.377 E54.69982
G1 X170.487 Y131.789 E54.73482
G1 X170.757 Y132.619 E54.80449
G1 X170.879 Y133.043 E54.83971
G1 X171.09 Y133.889 E54.90931
G1 X171.182 Y134.325 E54.94488
G1 X171.333 Y135.185 E55.01458
G1 X171.393 Y135.61 E55.04884
G1 X171.485 Y136.478 E55.11852
G1 X171.516 Y136.925 E55.15428
G1 X171.546 Y137.794 E55.22369
G1 X171.546 Y138.228 E55.25833
G1 X171.516 Y139.1 E55.32798
G1 X171.485 Y139.546 E55.36367
G1 X171.393 Y140.415 E55.43343
G1 X171.333 Y140.841 E55.46777
G1 X171.182 Y141.701 E55.53747
G1 X171.09 Y142.137 E55.57304
G1 X170.879 Y142.983 E55.64264
G1 X170.756 Y143.409 E55.67803
G1 X170.486 Y144.238 E55.74763
G1 X170.335 Y144.652 E55.7828
G1 X170.007 Y145.462 E55.85256
G1 X169.834 Y145.851 E55.88654
G1 X169.453 Y146.635 E55.95612
G1 X169.335 Y146.859 E55.97633
G1 X169.922 Y147.286 E56.03428
G1 X170.529 Y147.788 E56.09715
G1 X171.675 Y148.864 E56.22264
G1 X172.216 Y149.44 E56.28571
G1 X173.215 Y150.647 E56.41078
