;FLAVOR:Marlin
;TIME:12625
;Filament used: 21.5022m
;Layer height: 0.32
;MINX:115.166
;MINY:96.3
;MINZ:0.32
;MAXX:176.45
;MAXY:212.1
;MAXZ:79.04
;Generated with Cura_SteamEngine master
M140 S60
M105
M190 S60
M104 S240
M105
M109 S240
M82 ;absolute extrusion mode
G28 ;Home
G1 Z15.0 F2000 ;Move the platform
G92 E0
G92 E0
;LAYER_COUNT:247
;LAYER:0
M107 P2
G0 F7500 X141.048 Y102.061 Z0.32
;TYPE:SKIRT
G1 F1500 X141.533 Y101.418 E0.06429
G1 X142.078 Y100.827 E0.12846
G1 X142.68 Y100.293 E0.1927
G1 X143.332 Y99.821 E0.25695
G1 X144.028 Y99.416 E0.32123
G1 X144.76 Y99.082 E0.38546
G1 X145.522 Y98.823 E0.4497
G1 X146.305 Y98.64 E0.51389
G1 X147.103 Y98.536 E0.57813
G1 X147.75 Y98.51 E0.62981
G1 X164.75 Y98.509 E1.98683
G1 X165.553 Y98.549 E2.05101
G1 X166.349 Y98.668 E2.11525
G1 X167.129 Y98.866 E2.17949
G1 X167.886 Y99.141 E2.24378
G1 X168.611 Y99.489 E2.30798
G1 X169.299 Y99.907 E2.37224
G1 X169.941 Y100.391 E2.43641
G1 X170.533 Y100.937 E2.5007
G1 X171.067 Y101.539 E2.56494
G1 X171.539 Y102.191 E2.62919
G1 X171.944 Y102.886 E2.6934
G1 X172.278 Y103.618 E2.75763
G1 X172.537 Y104.38 E2.82187
G1 X172.72 Y105.164 E2.88613
G1 X172.824 Y105.962 E2.95037
G1 X172.85 Y106.609 E3.00206
G1 X172.85 Y181.5 E8.98018
G1 X172.81 Y182.304 E9.04444
G1 X172.69 Y183.1 E9.1087
G1 X172.493 Y183.88 E9.17292
G1 X172.218 Y184.636 E9.23713
G1 X171.87 Y185.362 E9.3014
G1 X171.452 Y186.049 E9.36559
G1 X170.967 Y186.692 E9.42988
G1 X170.422 Y187.283 E9.49406
G1 X169.82 Y187.817 E9.55829
G1 X169.168 Y188.289 E9.62254
G1 X168.472 Y188.694 E9.68682
G1 X167.74 Y189.028 E9.75105
G1 X166.978 Y189.287 E9.81529
G1 X166.195 Y189.47 E9.87948
G1 X165.397 Y189.574 E9.94372
G1 X164.75 Y189.6 E9.99541
G1 X157.85 Y189.6 E10.54619
G1 X157.85 Y204 E11.69566
G1 X157.81 Y204.804 E11.75992
G1 X157.69 Y205.6 E11.82418
G1 X157.493 Y206.38 E11.8884
G1 X157.218 Y207.136 E11.95261
G1 X156.87 Y207.862 E12.01688
G1 X156.452 Y208.549 E12.08107
G1 X155.967 Y209.192 E12.14536
G1 X155.422 Y209.783 E12.20954
G1 X154.82 Y210.317 E12.27377
G1 X154.168 Y210.789 E12.33802
G1 X153.472 Y211.194 E12.4023
G1 X152.74 Y211.528 E12.46653
G1 X151.978 Y211.787 E12.53077
G1 X151.195 Y211.97 E12.59496
G1 X150.397 Y212.074 E12.6592
G1 X149.75 Y212.1 E12.71089
G1 X140.75 Y212.1 E13.42931
G1 X139.946 Y212.06 E13.49356
G1 X139.15 Y211.94 E13.55782
G1 X138.37 Y211.743 E13.62204
G1 X137.614 Y211.468 E13.68626
G1 X136.888 Y211.12 E13.75052
G1 X136.201 Y210.702 E13.81472
G1 X135.558 Y210.217 E13.87901
G1 X134.967 Y209.672 E13.94318
G1 X134.433 Y209.07 E14.00741
G1 X133.961 Y208.418 E14.07167
G1 X133.556 Y207.722 E14.13595
G1 X133.222 Y206.99 E14.20017
G1 X132.963 Y206.228 E14.26442
G1 X132.78 Y205.445 E14.3286
G1 X132.676 Y204.647 E14.39284
G1 X132.65 Y204 E14.44453
G1 X132.65 Y193.348 E15.29482
G1 X132.396 Y193.316 E15.31525
G1 X131.386 Y193.123 E15.39734
G1 X129.868 Y192.732 E15.52246
G1 X128.905 Y192.419 E15.60329
G1 X127.446 Y191.841 E15.72856
G1 X126.529 Y191.409 E15.80948
G1 X125.151 Y190.652 E15.93498
G1 X124.287 Y190.104 E16.01665
G1 X123.019 Y189.182 E16.1418
G1 X122.241 Y188.539 E16.22237
G1 X121.095 Y187.464 E16.34779
G1 X120.395 Y186.718 E16.42945
G1 X119.396 Y185.51 E16.55458
G1 X118.801 Y184.691 E16.63539
G1 X117.958 Y183.364 E16.76088
G1 X117.465 Y182.467 E16.84259
G1 X116.797 Y181.046 E16.96793
G1 X116.422 Y180.098 E17.04931
G1 X115.939 Y178.608 E17.17434
G1 X115.688 Y177.63 E17.25494
G1 X115.393 Y176.086 E17.38041
G1 X115.265 Y175.077 E17.4616
G1 X115.166 Y173.512 E17.58678
G1 X115.166 Y172.49 E17.66836
G1 X115.265 Y170.923 E17.79369
G1 X115.393 Y169.914 E17.87488
G1 X115.688 Y168.37 E18.00036
G1 X115.939 Y167.392 E18.08096
G1 X116.422 Y165.902 E18.20599
G1 X116.797 Y164.954 E18.28737
G1 X117.465 Y163.533 E18.4127
G1 X117.958 Y162.636 E18.49441
G1 X118.801 Y161.309 E18.6199
G1 X119.396 Y160.49 E18.70071
G1 X120.395 Y159.282 E18.82584
G1 X121.095 Y158.536 E18.9075
G1 X122.241 Y157.461 E19.03293
G1 X122.411 Y157.32 E19.05056
G1 X122.327 Y157.132 E19.06699
G1 X121.998 Y156.322 E19.13678
G1 X121.798 Y155.774 E19.18335
G1 X121.529 Y154.945 E19.25292
G1 X121.375 Y154.407 E19.29759
G1 X121.164 Y153.562 E19.36711
G1 X121.045 Y153.001 E19.41289
G1 X120.894 Y152.141 E19.48259
G1 X120.817 Y151.593 E19.52676
G1 X120.725 Y150.724 E19.59652
G1 X120.685 Y150.15 E19.64245
G1 X120.655 Y149.278 E19.7121
G1 X120.655 Y148.72 E19.75664
G1 X120.685 Y147.848 E19.82629
G1 X120.725 Y147.274 E19.87222
G1 X120.817 Y146.405 E19.94197
G1 X120.894 Y145.857 E19.98614
G1 X121.045 Y144.997 E20.05584
G1 X121.164 Y144.436 E20.10162
G1 X121.375 Y143.591 E20.17114
G1 X121.535 Y143.036 E20.21725
G1 X121.806 Y142.207 E20.28687
G1 X121.997 Y141.684 E20.33132
G1 X122.325 Y140.874 E20.40107
G1 X122.548 Y140.374 E20.44478
G1 X122.929 Y139.59 E20.51436
G1 X123.197 Y139.083 E20.56013
G1 X123.633 Y138.327 E20.6298
G1 X123.939 Y137.838 E20.67584
G1 X124.427 Y137.116 E20.74541
G1 X124.753 Y136.668 E20.78963
G1 X125.29 Y135.98 E20.8593
G1 X125.658 Y135.541 E20.90503
G1 X126.242 Y134.893 E20.97466
G1 X126.634 Y134.487 E21.01971
G1 X127.262 Y133.881 E21.08937
G1 X127.678 Y133.507 E21.13403
G1 X128.346 Y132.946 E21.20366
G1 X128.798 Y132.593 E21.24944
G1 X129.505 Y132.08 E21.31917
G1 X129.975 Y131.764 E21.36438
G1 X130.714 Y131.303 E21.4339
G1 X131.191 Y131.027 E21.47789
G1 X131.962 Y130.616 E21.54764
G1 X132.477 Y130.364 E21.5934
G1 X133.272 Y130.01 E21.66287
G1 X133.838 Y129.784 E21.71152
G1 X133.933 Y129.75 E21.71958
G1 X134.703 Y129.517 E21.78379
G1 X135.492 Y129.361 E21.84799
G1 X136.293 Y129.284 E21.91223
G1 X137.098 Y129.288 E21.97649
G1 X137.781 Y129.359 E22.0313
G1 X138.035 Y129.219 E22.05445
G1 X138.775 Y128.903 E22.11868
G1 X139.543 Y128.661 E22.18296
G1 X139.65 Y128.639 E22.19168
G1 X139.65 Y106.61 E23.95013
G1 X139.69 Y105.806 E24.01439
G1 X139.81 Y105.01 E24.07864
G1 X140.007 Y104.23 E24.14286
G1 X140.282 Y103.474 E24.20708
G1 X140.63 Y102.748 E24.27135
G1 X141.048 Y102.061 E24.33554
G0 F7500 X141.645 Y102.254
G1 F1500 X142.127 Y101.648 E24.39735
G1 X142.668 Y101.094 E24.45916
G1 X143.264 Y100.6 E24.52095
G1 X143.908 Y100.169 E24.58281
G1 X144.592 Y99.807 E24.64458
G1 X145.31 Y99.518 E24.70637
G1 X146.055 Y99.304 E24.76824
G1 X146.817 Y99.168 E24.83003
G1 X147.75 Y99.11 E24.90465
G1 X164.75 Y99.109 E26.26166
G1 X165.523 Y99.149 E26.32345
G1 X166.288 Y99.268 E26.38525
G1 X167.037 Y99.466 E26.44709
G1 X167.761 Y99.74 E26.50888
G1 X168.453 Y100.087 E26.57068
G1 X169.106 Y100.504 E26.63252
G1 X169.712 Y100.985 E26.69428
G1 X170.266 Y101.527 E26.75615
G1 X170.76 Y102.123 E26.81794
G1 X171.191 Y102.766 E26.87973
G1 X171.553 Y103.451 E26.94158
G1 X171.842 Y104.169 E27.00336
G1 X172.056 Y104.913 E27.06516
G1 X172.192 Y105.676 E27.12702
G1 X172.25 Y106.609 E27.20164
G1 X172.25 Y181.5 E33.17977
G1 X172.21 Y182.273 E33.24155
G1 X172.091 Y183.038 E33.30335
G1 X171.893 Y183.787 E33.3652
G1 X171.619 Y184.511 E33.42699
G1 X171.272 Y185.204 E33.48886
G1 X170.855 Y185.856 E33.55063
G1 X170.373 Y186.462 E33.61244
G1 X169.832 Y187.016 E33.67425
G1 X169.236 Y187.51 E33.73605
G1 X168.592 Y187.941 E33.79791
G1 X167.908 Y188.303 E33.85968
G1 X167.19 Y188.592 E33.92146
G1 X166.445 Y188.806 E33.98334
G1 X165.683 Y188.942 E34.04512
G1 X164.75 Y189 E34.11974
G1 X157.25 Y189 E34.71843
G1 X157.25 Y204 E35.91579
G1 X157.21 Y204.773 E35.97758
G1 X157.091 Y205.538 E36.03938
G1 X156.893 Y206.287 E36.10122
G1 X156.619 Y207.011 E36.16301
G1 X156.272 Y207.704 E36.22488
G1 X155.855 Y208.356 E36.28666
G1 X155.373 Y208.962 E36.34847
G1 X154.832 Y209.516 E36.41028
G1 X154.236 Y210.01 E36.47207
G1 X153.592 Y210.441 E36.53393
G1 X152.908 Y210.803 E36.5957
G1 X152.19 Y211.092 E36.65749
G1 X151.445 Y211.306 E36.71936
G1 X150.683 Y211.442 E36.78115
G1 X149.75 Y211.5 E36.85577
G1 X140.75 Y211.5 E37.57419
G1 X139.977 Y211.46 E37.63597
G1 X139.212 Y211.341 E37.69777
G1 X138.463 Y211.143 E37.75962
G1 X137.739 Y210.869 E37.82141
G1 X137.046 Y210.522 E37.88327
G1 X136.394 Y210.105 E37.94505
G1 X135.788 Y209.623 E38.00686
G1 X135.234 Y209.082 E38.06867
G1 X134.74 Y208.486 E38.13047
G1 X134.309 Y207.842 E38.19232
G1 X133.947 Y207.158 E38.2541
G1 X133.658 Y206.44 E38.31588
G1 X133.444 Y205.695 E38.37775
G1 X133.308 Y204.933 E38.43954
G1 X133.25 Y204 E38.51416
G1 X133.25 Y192.818 E39.40676
G1 X132.471 Y192.72 E39.46943
G1 X131.535 Y192.542 E39.54549
G1 X130.017 Y192.151 E39.67061
G1 X129.126 Y191.861 E39.74541
G1 X127.667 Y191.283 E39.87068
G1 X126.818 Y190.883 E39.9456
G1 X125.44 Y190.126 E40.0711
G1 X124.64 Y189.619 E40.1467
G1 X123.372 Y188.697 E40.27185
G1 X122.652 Y188.101 E40.34646
G1 X121.506 Y187.026 E40.47189
G1 X120.857 Y186.336 E40.5475
G1 X119.858 Y185.128 E40.67263
G1 X119.307 Y184.37 E40.74743
G1 X118.464 Y183.043 E40.87293
G1 X118.008 Y182.212 E40.94859
G1 X117.34 Y180.791 E41.07393
G1 X116.992 Y179.913 E41.14932
G1 X116.509 Y178.423 E41.27435
G1 X116.277 Y177.518 E41.34893
G1 X115.982 Y175.974 E41.47441
G1 X115.864 Y175.039 E41.54963
G1 X115.765 Y173.474 E41.67481
G1 X115.765 Y172.528 E41.75032
G1 X115.864 Y170.961 E41.87566
G1 X115.982 Y170.026 E41.95089
G1 X116.277 Y168.482 E42.07636
G1 X116.509 Y167.577 E42.15094
G1 X116.992 Y166.087 E42.27597
G1 X117.34 Y165.209 E42.35136
G1 X118.008 Y163.788 E42.4767
G1 X118.464 Y162.957 E42.55237
G1 X119.307 Y161.63 E42.67786
G1 X119.858 Y160.872 E42.75266
G1 X120.857 Y159.664 E42.87779
G1 X121.506 Y158.974 E42.95341
G1 X122.652 Y157.899 E43.07883
G1 X123.148 Y157.489 E43.1302
G1 X123.086 Y157.362 E43.14148
G1 X122.883 Y156.906 E43.18133
G1 X122.554 Y156.096 E43.25112
G1 X122.369 Y155.589 E43.2942
G1 X122.1 Y154.76 E43.36377
G1 X121.957 Y154.262 E43.40513
G1 X121.746 Y153.417 E43.47465
G1 X121.636 Y152.897 E43.51708
G1 X121.485 Y152.037 E43.58678
G1 X121.414 Y151.53 E43.62764
G1 X121.322 Y150.661 E43.6974
G1 X121.284 Y150.129 E43.73997
G1 X121.254 Y149.257 E43.80962
G1 X121.254 Y148.741 E43.85081
G1 X121.284 Y147.869 E43.92046
G1 X121.322 Y147.337 E43.96303
G1 X121.414 Y146.468 E44.03279
G1 X121.485 Y145.961 E44.07365
G1 X121.636 Y145.101 E44.14335
G1 X121.746 Y144.581 E44.18578
G1 X121.957 Y143.736 E44.2553
G1 X122.105 Y143.223 E44.29792
G1 X122.376 Y142.394 E44.36754
G1 X122.553 Y141.909 E44.40875
G1 X122.881 Y141.099 E44.47851
G1 X123.087 Y140.636 E44.51896
G1 X123.468 Y139.852 E44.58854
G1 X123.717 Y139.383 E44.63093
G1 X124.153 Y138.627 E44.70059
G1 X124.436 Y138.174 E44.74323
G1 X124.924 Y137.452 E44.81279
G1 X125.226 Y137.037 E44.85376
G1 X125.763 Y136.349 E44.92343
G1 X126.104 Y135.943 E44.96575
G1 X126.688 Y135.295 E45.03539
G1 X127.051 Y134.919 E45.07711
G1 X127.679 Y134.313 E45.14677
G1 X128.064 Y133.967 E45.18809
G1 X128.732 Y133.406 E45.25772
G1 X129.15 Y133.079 E45.30009
G1 X129.857 Y132.566 E45.36981
G1 X130.292 Y132.273 E45.41168
G1 X131.031 Y131.812 E45.48121
G1 X131.473 Y131.557 E45.52194
G1 X132.244 Y131.146 E45.59168
G1 X132.721 Y130.913 E45.63406
G1 X133.516 Y130.559 E45.70353
G1 X134.04 Y130.349 E45.74859
G1 X134.135 Y130.315 E45.75664
G1 X134.876 Y130.092 E45.81841
G1 X135.637 Y129.946 E45.88027
G1 X136.408 Y129.88 E45.94204
G1 X137.183 Y129.894 E46.00391
G1 X137.884 Y129.98 E46.06029
G1 X137.948 Y129.94 E46.06631
G1 X138.644 Y129.6 E46.12814
G1 X139.371 Y129.334 E46.18994
G1 X140.122 Y129.144 E46.25177
G1 X140.25 Y129.125 E46.2621
G1 X140.25 Y106.61 E48.05935
G1 X140.29 Y105.837 E48.12114
G1 X140.409 Y105.072 E48.18294
G1 X140.607 Y104.323 E48.24478
G1 X140.881 Y103.599 E48.30657
G1 X141.228 Y102.906 E48.36844
G1 X141.645 Y102.254 E48.43022
G0 F7500 X142.241 Y102.455
G1 F1500 X142.719 Y101.887 E48.48948
G1 X143.256 Y101.374 E48.54876
G1 X143.845 Y100.921 E48.60807
G1 X144.479 Y100.535 E48.66732
G1 X145.151 Y100.218 E48.72663
G1 X145.853 Y99.976 E48.78591
G1 X146.577 Y99.81 E48.8452
G1 X147.315 Y99.724 E48.90451
G1 X147.75 Y99.71 E48.93925
G1 X164.75 Y99.709 E50.29626
G1 X165.491 Y99.749 E50.3555
G1 X166.224 Y99.868 E50.41477
G1 X166.94 Y100.066 E50.47407
G1 X167.631 Y100.339 E50.53338
G1 X168.288 Y100.685 E50.59265
G1 X168.904 Y101.1 E50.65194
G1 X169.472 Y101.578 E50.7112
G1 X169.986 Y102.115 E50.77054
G1 X170.438 Y102.704 E50.82981
G1 X170.825 Y103.338 E50.8891
G1 X171.142 Y104.01 E50.94841
G1 X171.384 Y104.712 E51.00768
G1 X171.549 Y105.436 E51.06696
G1 X171.636 Y106.173 E51.12619
G1 X171.65 Y106.609 E51.16102
G1 X171.65 Y181.5 E57.13914
G1 X171.61 Y182.242 E57.19846
G1 X171.491 Y182.975 E57.25773
G1 X171.293 Y183.691 E57.31703
G1 X171.02 Y184.381 E57.37626
G1 X170.674 Y185.038 E57.43554
G1 X170.259 Y185.655 E57.49489
G1 X169.781 Y186.223 E57.55415
G1 X169.244 Y186.736 E57.61343
G1 X168.655 Y187.189 E57.67275
G1 X168.021 Y187.575 E57.732
G1 X167.349 Y187.892 E57.79131
G1 X166.647 Y188.134 E57.85058
G1 X165.923 Y188.3 E57.90987
G1 X165.185 Y188.386 E57.96918
G1 X164.75 Y188.4 E58.00393
G1 X156.65 Y188.4 E58.6505
G1 X156.65 Y204 E59.89576
G1 X156.61 Y204.742 E59.95508
G1 X156.491 Y205.475 E60.01435
G1 X156.293 Y206.191 E60.07365
G1 X156.02 Y206.881 E60.13289
G1 X155.674 Y207.538 E60.19216
G1 X155.259 Y208.155 E60.25152
G1 X154.781 Y208.723 E60.31077
G1 X154.244 Y209.236 E60.37006
G1 X153.655 Y209.689 E60.42937
G1 X153.021 Y210.075 E60.48862
G1 X152.349 Y210.392 E60.54793
G1 X151.647 Y210.634 E60.6072
G1 X150.923 Y210.8 E60.6665
G1 X150.185 Y210.886 E60.72581
G1 X149.75 Y210.9 E60.76055
G1 X140.75 Y210.9 E61.47897
G1 X140.008 Y210.86 E61.53828
G1 X139.275 Y210.741 E61.59756
G1 X138.559 Y210.543 E61.65686
G1 X137.869 Y210.27 E61.71609
G1 X137.212 Y209.924 E61.77536
G1 X136.595 Y209.509 E61.83472
G1 X136.027 Y209.031 E61.89398
G1 X135.514 Y208.494 E61.95326
G1 X135.061 Y207.905 E62.01258
G1 X134.675 Y207.271 E62.07183
G1 X134.358 Y206.599 E62.13114
G1 X134.116 Y205.897 E62.19041
G1 X133.95 Y205.173 E62.2497
G1 X133.864 Y204.435 E62.30901
G1 X133.85 Y204 E62.34375
G1 X133.85 Y192.289 E63.27858
G1 X132.546 Y192.125 E63.38349
G1 X131.685 Y191.961 E63.45345
G1 X130.167 Y191.57 E63.57858
G1 X129.347 Y191.303 E63.64742
G1 X127.888 Y190.725 E63.77269
G1 X127.107 Y190.358 E63.84157
G1 X125.729 Y189.601 E63.96707
G1 X124.993 Y189.134 E64.03665
G1 X123.725 Y188.212 E64.1618
G1 X123.062 Y187.663 E64.23051
G1 X121.916 Y186.588 E64.35594
G1 X121.32 Y185.953 E64.42546
G1 X120.321 Y184.745 E64.55059
G1 X119.814 Y184.048 E64.61939
G1 X118.971 Y182.721 E64.74488
G1 X118.551 Y181.956 E64.81454
G1 X117.883 Y180.535 E64.93988
G1 X117.563 Y179.728 E65.00918
G1 X117.08 Y178.238 E65.13421
G1 X116.867 Y177.405 E65.20284
G1 X116.572 Y175.861 E65.32832
G1 X116.463 Y175.002 E65.39744
G1 X116.364 Y173.437 E65.52262
G1 X116.364 Y172.566 E65.59214
G1 X116.463 Y170.999 E65.71748
G1 X116.572 Y170.139 E65.78668
G1 X116.867 Y168.595 E65.91215
G1 X117.08 Y167.762 E65.98079
G1 X117.563 Y166.272 E66.10582
G1 X117.883 Y165.465 E66.17512
G1 X118.551 Y164.044 E66.30045
G1 X118.971 Y163.279 E66.37012
G1 X119.814 Y161.952 E66.49561
G1 X120.321 Y161.255 E66.56441
G1 X121.32 Y160.047 E66.68954
G1 X121.916 Y159.412 E66.75906
G1 X123.062 Y158.337 E66.88449
G1 X123.725 Y157.788 E66.9532
G1 X123.899 Y157.662 E66.97035
G1 X123.626 Y157.1 E67.02022
G1 X123.439 Y156.681 E67.05685
G1 X123.11 Y155.871 E67.12664
G1 X122.94 Y155.404 E67.16631
G1 X122.671 Y154.575 E67.23588
G1 X122.54 Y154.117 E67.2739
G1 X122.329 Y153.272 E67.34343
G1 X122.227 Y152.793 E67.38252
G1 X122.076 Y151.933 E67.45222
G1 X122.01 Y151.466 E67.48987
G1 X121.918 Y150.597 E67.55962
G1 X121.884 Y150.108 E67.59875
G1 X121.854 Y149.236 E67.6684
G1 X121.854 Y148.762 E67.70623
G1 X121.884 Y147.89 E67.77588
G1 X121.918 Y147.401 E67.81501
G1 X122.01 Y146.532 E67.88477
G1 X122.076 Y146.065 E67.92241
G1 X122.227 Y145.205 E67.99211
G1 X122.329 Y144.726 E68.03121
G1 X122.54 Y143.881 E68.10073
G1 X122.676 Y143.409 E68.13994
G1 X122.947 Y142.58 E68.20956
G1 X123.109 Y142.134 E68.24744
G1 X123.437 Y141.324 E68.31719
G1 X123.627 Y140.898 E68.35443
G1 X124.008 Y140.114 E68.42401
G1 X124.237 Y139.683 E68.46297
G1 X124.673 Y138.927 E68.53263
G1 X124.933 Y138.51 E68.57186
G1 X125.421 Y137.788 E68.64142
G1 X125.699 Y137.407 E68.67907
G1 X126.236 Y136.719 E68.74874
G1 X126.549 Y136.345 E68.78767
G1 X127.133 Y135.697 E68.8573
G1 X127.468 Y135.351 E68.89574
