;FLAVOR:Marlin
;TIME:3664
;Filament used: 5.13173m
;Layer height: 0.3
;MINX:111.412
;MINY:116.063
;MINZ:0.3
;MAXX:189.85
;MAXY:183.936
;MAXZ:7.5
;Generated with Cura_SteamEngine master
M140 S90
M105
M190 S90
M104 S240
M105
M109 S240
M82 ;absolute extrusion mode
G28 ;Home
G1 Z15.0 F2000 ;Move the platform
G92 E0
G92 E0
;LAYER_COUNT:26
;LAYER:0
M107 P2
G0 F7500 X112.401 Y116.969 Z0.3
;TYPE:SKIRT
G1 F1500 X112.791 Y116.648 E0.0252
G1 X113.228 Y116.392 E0.05047
G1 X113.699 Y116.209 E0.07568
G1 X114.193 Y116.102 E0.10089
G1 X114.539 Y116.074 E0.11821
G1 X115.012 Y116.063 E0.14182
G1 X136.898 Y116.067 E1.23371
G1 X137.591 Y116.078 E1.26829
G1 X138.094 Y116.126 E1.2935
G1 X138.584 Y116.253 E1.31876
G1 X139.047 Y116.455 E1.34396
G1 X139.654 Y116.876 E1.38081
G1 X140.243 Y117.394 E1.41994
G1 X188.283 Y161.037 E4.65803
G1 X188.807 Y161.527 E4.69382
G1 X189.147 Y161.9 E4.719
G1 X189.425 Y162.323 E4.74425
G1 X189.633 Y162.783 E4.76944
G1 X189.766 Y163.271 E4.79467
G1 X189.82 Y163.796 E4.821
G1 X189.842 Y164.857 E4.87395
G1 X189.845 Y174.068 E5.33349
G1 X189.85 Y180.11 E5.63492
G1 X189.842 Y180.766 E5.66765
G1 X189.796 Y181.269 E5.69285
G1 X189.671 Y181.759 E5.71808
G1 X189.47 Y182.224 E5.74336
G1 X189.199 Y182.65 E5.76855
G1 X188.865 Y183.029 E5.79375
G1 X188.474 Y183.35 E5.81899
G1 X188.038 Y183.606 E5.84421
G1 X187.567 Y183.79 E5.86944
G1 X187.073 Y183.898 E5.89467
G1 X186.742 Y183.925 E5.91124
G1 X186.354 Y183.936 E5.9306
G1 X115.252 Y183.921 E9.47789
G1 X114.582 Y183.911 E9.51132
G1 X114.079 Y183.863 E9.53653
G1 X113.589 Y183.737 E9.56177
G1 X113.126 Y183.535 E9.58698
G1 X112.7 Y183.263 E9.61219
G1 X112.322 Y182.927 E9.63742
G1 X112.002 Y182.536 E9.66263
G1 X111.747 Y182.099 E9.68787
G1 X111.564 Y181.628 E9.71308
G1 X111.458 Y181.134 E9.73829
G1 X111.431 Y180.796 E9.75521
G1 X111.42 Y180.337 E9.77811
G1 X111.415 Y158.928 E10.84621
G1 X111.412 Y119.911 E12.79278
G1 X111.421 Y119.231 E12.82671
G1 X111.468 Y118.727 E12.85196
G1 X111.593 Y118.237 E12.87719
G1 X111.794 Y117.773 E12.90242
G1 X112.066 Y117.347 E12.92763
G1 X112.401 Y116.969 E12.95283
;MESH:Z-LOWER-BRACE-2-MIRAKO.stl
G0 F7500 X175.253 Y173.732
;TYPE:WALL-OUTER
G1 F1500 X176.055 Y173.839 E12.9932
G1 X176.859 Y173.732 E13.03366
G1 X177.607 Y173.424 E13.07402
G1 X178.25 Y172.93 E13.11448
G1 X178.744 Y172.288 E13.15489
G1 X179.053 Y171.539 E13.19531
G1 X179.159 Y170.735 E13.23577
G1 X179.053 Y169.933 E13.27613
G1 X178.744 Y169.184 E13.31655
G1 X178.25 Y168.54 E13.35705
G1 X177.606 Y168.046 E13.39754
G1 X176.859 Y167.738 E13.43785
G1 X176.055 Y167.631 E13.47832
G1 X175.253 Y167.738 E13.51868
G1 X174.504 Y168.046 E13.55909
G1 X173.86 Y168.54 E13.59958
G1 X173.368 Y169.182 E13.63993
G1 X173.058 Y169.931 E13.68038
G1 X172.951 Y170.735 E13.72084
G1 X173.058 Y171.537 E13.76121
G1 X173.366 Y172.286 E13.80161
G1 X173.86 Y172.93 E13.84211
G1 X174.504 Y173.422 E13.88254
G1 X175.253 Y173.732 E13.92298
G0 F7500 X175.451 Y173.758
G0 X175.392 Y174.194
G0 X128.36 Y133.468
G1 F1500 X129.11 Y133.158 E13.96347
G1 X129.752 Y132.666 E14.00382
G1 X130.244 Y132.022 E14.04425
G1 X130.554 Y131.275 E14.0846
G1 X130.659 Y130.471 E14.12506
G1 X130.554 Y129.669 E14.16541
G1 X130.244 Y128.92 E14.20585
G1 X129.752 Y128.278 E14.2462
G1 X129.11 Y127.786 E14.28656
G1 X128.361 Y127.476 E14.327
G1 X127.559 Y127.369 E14.36737
G1 X126.755 Y127.474 E14.40782
G1 X126.008 Y127.784 E14.44817
G1 X125.364 Y128.278 E14.48866
G1 X124.87 Y128.92 E14.52908
G1 X124.562 Y129.669 E14.56948
G1 X124.455 Y130.471 E14.60985
G1 X124.562 Y131.273 E14.65021
G1 X124.87 Y132.022 E14.69062
G1 X125.364 Y132.664 E14.73103
G1 X126.007 Y133.158 E14.77148
G1 X126.755 Y133.468 E14.81188
G1 X127.558 Y133.573 E14.85228
G1 X128.36 Y133.468 E14.89264
G0 F7500 X128.544 Y133.392
G0 X128.711 Y133.798
G0 X128.359 Y158.722
G1 F1500 X129.108 Y158.412 E14.93308
G1 X129.752 Y157.92 E14.97351
G1 X130.244 Y157.276 E15.01394
G1 X130.554 Y156.529 E15.05429
G1 X130.66 Y155.725 E15.09475
G1 X130.554 Y154.923 E15.13511
G1 X130.244 Y154.172 E15.17565
G1 X129.752 Y153.53 E15.216
G1 X129.108 Y153.036 E15.25649
G1 X128.359 Y152.726 E15.29693
G1 X127.557 Y152.621 E15.33729
G1 X126.753 Y152.726 E15.37774
G1 X126.004 Y153.036 E15.41818
G1 X125.362 Y153.528 E15.45854
G1 X124.868 Y154.172 E15.49903
G1 X124.558 Y154.921 E15.53947
G1 X124.453 Y155.723 E15.57982
G1 X124.558 Y156.527 E15.62028
G1 X124.868 Y157.276 E15.66072
G1 X125.36 Y157.918 E15.70107
G1 X126.004 Y158.412 E15.74156
G1 X126.753 Y158.722 E15.78201
G1 X127.557 Y158.827 E15.82246
G1 X128.359 Y158.722 E15.86281
G0 F7500 X128.543 Y158.646
G0 X128.71 Y159.052
G0 X146.055 Y173.833
G1 F1500 X146.858 Y173.726 E15.90323
G1 X147.608 Y173.416 E15.94372
G1 X148.25 Y172.924 E15.98407
G1 X148.744 Y172.28 E16.02456
G1 X149.054 Y171.531 E16.065
G1 X149.159 Y170.729 E16.10536
G1 X149.054 Y169.925 E16.14581
G1 X148.744 Y169.176 E16.18625
G1 X148.25 Y168.534 E16.22667
G1 X147.608 Y168.04 E16.26708
G1 X146.859 Y167.73 E16.30752
G1 X146.055 Y167.625 E16.34798
G1 X145.253 Y167.73 E16.38833
G1 X144.504 Y168.04 E16.42877
G1 X143.862 Y168.534 E16.46918
G1 X143.368 Y169.176 E16.5096
G1 X143.058 Y169.925 E16.55004
G1 X142.951 Y170.727 E16.59041
G1 X143.058 Y171.531 E16.63087
G1 X143.368 Y172.28 E16.67131
G1 X143.86 Y172.922 E16.71167
G1 X144.504 Y173.416 E16.75216
G1 X145.252 Y173.726 E16.79256
G1 X146.055 Y173.833 E16.83297
G0 F7500 X146.253 Y173.807
G0 X146.31 Y174.243
G0 X114.82 Y180.521
G1 F1500 X114.815 Y158.904 E17.91145
G1 X114.812 Y119.463 E19.87917
G1 X137.468 Y119.467 E21.00948
G1 X186.442 Y163.957 E24.31047
G1 X186.445 Y174.071 E24.81506
G1 X186.451 Y180.537 E25.13765
G1 X114.82 Y180.521 E28.71133
G0 F7500 X114.82 Y180.321
G0 X115.26 Y180.082
G0 X115.21 Y180.131
;TYPE:SKIN
G1 F1500 X115.205 Y158.904 E29.77035
G1 X115.202 Y119.853 E31.71862
G1 X137.317 Y119.857 E32.82194
G1 X186.052 Y164.13 E36.10682
G1 X186.055 Y174.071 E36.60278
G1 X186.061 Y180.147 E36.90591
G1 X115.21 Y180.131 E40.44068
G0 F7500 X125.807 Y158.753
G1 F1500 X126.652 Y159.102 E40.48629
G1 X127.557 Y159.221 E40.53183
G1 X128.461 Y159.102 E40.57732
G1 X129.305 Y158.753 E40.62289
G1 X130.031 Y158.199 E40.66845
G1 X130.585 Y157.473 E40.71401
G1 X130.934 Y156.631 E40.75948
G1 X131.054 Y155.725 E40.80508
G1 X130.934 Y154.821 E40.85057
G1 X130.585 Y153.975 E40.89623
G1 X130.031 Y153.252 E40.94167
G1 X129.305 Y152.695 E40.98733
G1 X128.461 Y152.346 E41.03289
G1 X127.557 Y152.227 E41.07838
G1 X126.652 Y152.346 E41.12392
G1 X125.807 Y152.695 E41.16953
G1 X125.084 Y153.249 E41.21497
G1 X124.527 Y153.975 E41.26063
G1 X124.178 Y154.819 E41.30619
G1 X124.059 Y155.723 E41.35168
G1 X124.178 Y156.628 E41.39722
G1 X124.527 Y157.473 E41.44283
G1 X125.081 Y158.196 E41.48828
G1 X125.807 Y158.753 E41.53393
G0 F7500 X142.678 Y171.633
G1 F1500 X143.027 Y172.477 E41.57949
G1 X143.581 Y173.2 E41.62494
G1 X144.307 Y173.757 E41.67059
G1 X145.15 Y174.106 E41.71611
G1 X146.055 Y174.227 E41.76166
G1 X146.96 Y174.106 E41.80721
G1 X147.805 Y173.757 E41.85282
G1 X148.528 Y173.203 E41.89827
G1 X149.085 Y172.477 E41.94392
G1 X149.434 Y171.633 E41.98948
G1 X149.553 Y170.729 E42.03497
G1 X149.434 Y169.824 E42.08051
G1 X149.085 Y168.979 E42.12612
G1 X148.528 Y168.256 E42.17166
G1 X147.805 Y167.699 E42.21719
G1 X146.96 Y167.35 E42.2628
G1 X146.055 Y167.231 E42.30834
G1 X145.151 Y167.35 E42.35383
G1 X144.307 Y167.699 E42.3994
G1 X143.584 Y168.256 E42.44493
G1 X143.027 Y168.979 E42.49046
G1 X142.678 Y169.823 E42.53603
G1 X142.557 Y170.727 E42.58153
G1 X142.678 Y171.633 E42.62713
G0 F7500 X172.678 Y171.639
G1 F1500 X173.025 Y172.483 E42.67266
G1 X173.582 Y173.209 E42.71831
G1 X174.307 Y173.763 E42.76383
G1 X175.151 Y174.112 E42.8094
G1 X176.055 Y174.233 E42.8549
G1 X176.961 Y174.112 E42.9005
G1 X177.804 Y173.765 E42.94599
G1 X178.528 Y173.209 E42.99153
G1 X179.085 Y172.485 E43.0371
G1 X179.433 Y171.64 E43.08269
G1 X179.553 Y170.735 E43.12824
G1 X179.433 Y169.831 E43.17374
G1 X179.085 Y168.987 E43.21928
G1 X178.529 Y168.261 E43.2649
G1 X177.803 Y167.705 E43.31053
G1 X176.961 Y167.358 E43.35596
G1 X176.055 Y167.237 E43.40156
G1 X175.151 Y167.358 E43.44707
G1 X174.307 Y167.705 E43.49259
G1 X173.581 Y168.262 E43.53825
G1 X173.027 Y168.985 E43.58369
G1 X172.678 Y169.829 E43.62925
G1 X172.557 Y170.735 E43.67486
G1 X172.678 Y171.639 E43.72036
G0 F7500 X126.653 Y133.848
G1 F1500 X127.558 Y133.967 E43.7659
G1 X128.461 Y133.848 E43.81134
G1 X129.307 Y133.499 E43.857
G1 X130.031 Y132.944 E43.90251
G1 X130.585 Y132.219 E43.94803
G1 X130.934 Y131.377 E43.9935
G1 X131.053 Y130.471 E44.03909
G1 X130.934 Y129.567 E44.08458
G1 X130.585 Y128.723 E44.13015
G1 X130.031 Y127.999 E44.17563
G1 X129.307 Y127.445 E44.22111
G1 X128.463 Y127.096 E44.26668
G1 X127.559 Y126.975 E44.31218
G1 X126.653 Y127.094 E44.35777
G1 X125.811 Y127.443 E44.40324
G1 X125.086 Y127.999 E44.44882
G1 X124.529 Y128.723 E44.4944
G1 X124.182 Y129.567 E44.53992
G1 X124.061 Y130.471 E44.58543
G1 X124.182 Y131.375 E44.63093
G1 X124.529 Y132.219 E44.67646
G1 X125.086 Y132.943 E44.72203
G1 X125.81 Y133.499 E44.76757
G1 X126.653 Y133.848 E44.81309
G0 F7500 X115.481 Y179.969
G1 F1500 X115.369 Y179.857 E44.82099
G0 F7500 X115.369 Y179.291
G1 F1500 X116.047 Y179.969 E44.86883
G0 F7500 X116.613 Y179.969
G1 F1500 X115.369 Y178.726 E44.95657
G0 F7500 X115.369 Y178.16
G1 F1500 X117.178 Y179.969 E45.0842
G0 F7500 X117.744 Y179.969
G1 F1500 X115.369 Y177.594 E45.25177
G0 F7500 X115.369 Y177.029
G1 F1500 X118.31 Y179.97 E45.45927
G0 F7500 X118.876 Y179.97
G1 F1500 X115.368 Y176.462 E45.70678
G0 F7500 X115.368 Y175.897
G1 F1500 X119.442 Y179.97 E45.99419
G0 F7500 X120.008 Y179.97
G1 F1500 X115.368 Y175.331 E46.32153
G0 F7500 X115.368 Y174.765
G1 F1500 X120.573 Y179.97 E46.68877
G0 F7500 X121.139 Y179.97
G1 F1500 X115.368 Y174.199 E47.09595
G0 F7500 X115.368 Y173.633
G1 F1500 X121.705 Y179.971 E47.54309
G0 F7500 X122.271 Y179.971
G1 F1500 X115.368 Y173.067 E48.03017
G0 F7500 X115.368 Y172.502
G1 F1500 X122.837 Y179.971 E48.55715
G0 F7500 X123.402 Y179.971
G1 F1500 X115.368 Y171.936 E49.12403
G0 F7500 X115.368 Y171.37
G1 F1500 X123.968 Y179.971 E49.73084
G0 F7500 X124.534 Y179.972
G1 F1500 X115.367 Y170.804 E50.37765
G0 F7500 X115.367 Y170.238
G1 F1500 X125.1 Y179.972 E51.06441
G0 F7500 X125.666 Y179.972
G1 F1500 X115.367 Y169.673 E51.79106
G0 F7500 X115.367 Y169.107
G1 F1500 X126.231 Y179.972 E52.5576
G0 F7500 X126.797 Y179.972
G1 F1500 X115.367 Y168.541 E53.36409
G0 F7500 X115.367 Y167.976
G1 F1500 X127.364 Y179.972 E54.21051
G0 F7500 X127.929 Y179.972
G1 F1500 X115.366 Y167.409 E55.09689
G0 F7500 X115.366 Y166.843
G1 F1500 X128.495 Y179.972 E56.02322
G0 F7500 X129.061 Y179.972
G1 F1500 X115.366 Y166.278 E56.98944
G0 F7500 X115.366 Y165.712
G1 F1500 X129.626 Y179.972 E57.99556
G0 F7500 X130.193 Y179.973
G1 F1500 X115.366 Y165.146 E59.04168
G0 F7500 X115.365 Y164.58
G1 F1500 X130.758 Y179.973 E60.12774
G0 F7500 X131.324 Y179.973
G1 F1500 X115.365 Y164.014 E61.25373
G0 F7500 X115.365 Y163.449
G1 F1500 X131.89 Y179.973 E62.41963
G0 F7500 X132.455 Y179.973
G1 F1500 X115.365 Y162.883 E63.62542
G0 F7500 X115.365 Y162.317
G1 F1500 X133.022 Y179.974 E64.87122
G0 F7500 X133.588 Y179.974
G1 F1500 X115.365 Y161.751 E66.15695
G0 F7500 X115.365 Y161.185
G1 F1500 X134.153 Y179.974 E67.48258
G0 F7500 X134.719 Y179.974
G1 F1500 X115.365 Y160.62 E68.84811
G0 F7500 X115.365 Y160.054
G1 F1500 X135.285 Y179.974 E70.25357
G0 F7500 X135.85 Y179.974
G1 F1500 X115.365 Y159.488 E71.69893
G0 F7500 X115.365 Y158.922
G1 F1500 X136.417 Y179.974 E73.18426
G0 F7500 X136.982 Y179.974
G1 F1500 X115.364 Y158.356 E74.70953
G0 F7500 X115.364 Y157.79
G1 F1500 X137.548 Y179.974 E76.27473
G0 F7500 X138.114 Y179.974
G1 F1500 X115.364 Y157.225 E77.87983
G0 F7500 X115.364 Y156.659
G1 F1500 X138.679 Y179.974 E79.52483
G0 F7500 X139.246 Y179.975
G1 F1500 X115.364 Y156.093 E81.20984
G0 F7500 X115.364 Y155.528
G1 F1500 X139.811 Y179.975 E82.9347
G0 F7500 X140.377 Y179.975
G1 F1500 X115.364 Y154.962 E84.69951
G0 F7500 X115.364 Y154.396
G1 F1500 X140.943 Y179.975 E86.50424
G0 F7500 X141.509 Y179.975
G1 F1500 X115.364 Y153.831 E88.34888
G0 F7500 X115.364 Y153.265
G1 F1500 X142.075 Y179.976 E90.23348
G0 F7500 X142.641 Y179.976
G1 F1500 X115.364 Y152.699 E92.15802
G0 F7500 X115.364 Y152.134
G1 F1500 X143.206 Y179.976 E94.12243
G0 F7500 X143.772 Y179.976
G1 F1500 X115.364 Y151.568 E96.12676
G0 F7500 X115.364 Y151.002
G1 F1500 X144.338 Y179.976 E98.17104
G0 F7500 X144.904 Y179.977
G1 F1500 X115.364 Y150.436 E100.25528
G0 F7500 X115.364 Y149.871
G1 F1500 X145.47 Y179.977 E102.37942
G0 F7500 X146.035 Y179.977
G1 F1500 X115.364 Y149.305 E104.54346
G0 F7500 X115.363 Y148.739
G1 F1500 X146.601 Y179.977 E106.74747
G0 F7500 X147.167 Y179.977
G1 F1500 X126.334 Y159.144 E108.21735
G0 F7500 X127.074 Y159.318
G1 F1500 X147.733 Y179.977 E109.67495
G0 F7500 X148.299 Y179.977
G1 F1500 X127.686 Y159.364 E111.12931
G0 F7500 X128.186 Y159.299
G1 F1500 X148.865 Y179.977 E112.58829
G0 F7500 X149.43 Y179.977
G1 F1500 X128.65 Y159.197 E114.05443
G0 F7500 X129.05 Y159.031
G1 F1500 X149.996 Y179.977 E115.53229
G0 F7500 X150.562 Y179.977
G1 F1500 X144.66 Y174.076 E115.94867
G0 F7500 X145.458 Y174.308
G1 F1500 X151.128 Y179.978 E116.34872
G0 F7500 X151.694 Y179.978
G1 F1500 X146.098 Y174.382 E116.74355
G0 F7500 X146.597 Y174.315
G1 F1500 X152.259 Y179.978 E117.14307
G0 F7500 X152.825 Y179.978
G1 F1500 X147.078 Y174.231 E117.54855
G0 F7500 X147.477 Y174.064
G1 F1500 X153.391 Y179.978 E117.96581
G0 F7500 X153.957 Y179.979
G1 F1500 X147.877 Y173.899 E118.39479
G0 F7500 X148.199 Y173.655
G1 F1500 X154.523 Y179.979 E118.84098
G0 F7500 X155.089 Y179.979
G1 F1500 X148.52 Y173.41 E119.30446
G0 F7500 X148.793 Y173.118
G1 F1500 X155.654 Y179.979 E119.78854
G0 F7500 X156.22 Y179.979
G1 F1500 X149.039 Y172.797 E120.29523
G0 F7500 X149.265 Y172.458
G1 F1500 X156.786 Y179.979 E120.82588
G0 F7500 X157.352 Y179.979
G1 F1500 X149.43 Y172.058 E121.38479
G0 F7500 X149.591 Y171.653
G1 F1500 X157.918 Y179.979 E121.97227
G0 F7500 X158.483 Y179.979
G1 F1500 X149.657 Y171.153 E122.59499
G0 F7500 X149.701 Y170.631
G1 F1500 X159.049 Y179.979 E123.25454
G0 F7500 X159.615 Y179.98
G1 F1500 X149.615 Y169.979 E123.96013
G0 F7500 X149.314 Y169.113
G1 F1500 X160.181 Y179.98 E124.72685
G0 F7500 X160.747 Y179.98
G1 F1500 X115.363 Y134.596 E127.92894
G0 F7500 X115.363 Y134.03
G1 F1500 X161.312 Y179.98 E131.17093
G0 F7500 X161.878 Y179.98
G1 F1500 X115.363 Y133.464 E134.45285
G0 F7500 X115.363 Y132.899
G1 F1500 X162.445 Y179.981 E137.77474
G0 F7500 X163.01 Y179.981
G1 F1500 X115.363 Y132.333 E141.13652
G0 F7500 X115.363 Y131.767
G1 F1500 X163.576 Y179.981 E144.53825
G0 F7500 X164.142 Y179.981
G1 F1500 X115.363 Y131.202 E147.97987
G0 F7500 X115.363 Y130.636
G1 F1500 X164.707 Y179.981 E151.46139
G0 F7500 X165.273 Y179.981
G1 F1500 X115.363 Y130.07 E154.98285
G0 F7500 X115.362 Y129.504
G1 F1500 X165.839 Y179.982 E158.54431
G0 F7500 X166.405 Y179.982
G1 F1500 X115.362 Y128.938 E162.1457
G0 F7500 X115.362 Y128.373
G1 F1500 X166.971 Y179.982 E165.78699
G0 F7500 X167.536 Y179.982
G1 F1500 X115.362 Y127.807 E169.46819
G0 F7500 X115.362 Y127.241
G1 F1500 X168.102 Y179.982 E173.18931
G0 F7500 X168.669 Y179.982
G1 F1500 X115.362 Y126.676 E176.95038
G0 F7500 X115.362 Y126.11
G1 F1500 X169.234 Y179.982 E180.75134
G0 F7500 X169.8 Y179.982
G1 F1500 X115.362 Y125.544 E184.59223
G0 F7500 X115.362 Y124.979
G1 F1500 X170.366 Y179.982 E188.47302
G0 F7500 X170.931 Y179.982
G1 F1500 X115.362 Y124.413 E192.39372
G0 F7500 X115.362 Y123.847
G1 F1500 X171.498 Y179.983 E196.35442
G0 F7500 X172.063 Y179.983
G1 F1500 X125.686 Y133.605 E199.6266
G0 F7500 X126.655 Y134.009
G1 F1500 X172.629 Y179.983 E202.87031
G0 F7500 X173.195 Y179.983
G1 F1500 X127.306 Y134.094 E206.10803
G0 F7500 X127.864 Y134.087
G1 F1500 X173.76 Y179.983 E209.34624
G0 F7500 X174.327 Y179.984
G1 F1500 X128.365 Y134.022 E212.58911
G0 F7500 X128.793 Y133.884
G1 F1500 X174.892 Y179.984 E215.84168
G0 F7500 X175.458 Y179.984
G1 F1500 X129.194 Y133.719 E219.10589
G0 F7500 X129.552 Y133.512
G1 F1500 X176.024 Y179.984 E222.38474
G0 F7500 X176.59 Y179.984
G1 F1500 X129.872 Y133.267 E225.68091
