;FLAVOR:Marlin
;TIME:3758
;Filament used: 5.18018m
;Layer height: 0.3
;MINX:110.05
;MINY:116.061
;MINZ:0.3
;MAXX:188.486
;MAXY:183.939
;MAXZ:7.5
;Generated with Cura_SteamEngine master
M140 S90
M105
M190 S90
M104 S240
M105
M109 S240
M82 ;absolute extrusion mode
G28 ;Home
G1 Z15.0 F2000 ;Move the platform
G92 E0
G92 E0
;LAYER_COUNT:25
;LAYER:0
M107 P2
G0 F7500 X111.874 Y160.805 Z0.3
;TYPE:SKIRT
G1 F1500 X159.719 Y117.337 E3.22501
G1 X160.238 Y116.879 E3.25954
G1 X160.642 Y116.575 E3.28477
G1 X161.089 Y116.339 E3.30999
G1 X161.568 Y116.176 E3.33523
G1 X162.306 Y116.078 E3.37237
G1 X163.078 Y116.067 E3.41089
G1 X184.669 Y116.061 E4.48807
G1 X185.326 Y116.071 E4.52085
G1 X185.829 Y116.119 E4.54606
G1 X186.319 Y116.245 E4.5713
G1 X186.782 Y116.447 E4.59651
G1 X187.208 Y116.719 E4.62172
G1 X187.586 Y117.055 E4.64695
G1 X187.906 Y117.447 E4.6722
G1 X188.161 Y117.883 E4.6974
G1 X188.343 Y118.355 E4.72264
G1 X188.449 Y118.849 E4.74784
G1 X188.476 Y119.175 E4.76416
G1 X188.486 Y119.509 E4.78083
G1 X188.484 Y180.015 E7.79949
G1 X188.475 Y180.748 E7.83606
G1 X188.429 Y181.252 E7.86131
G1 X188.304 Y181.742 E7.88654
G1 X188.103 Y182.206 E7.91177
G1 X187.832 Y182.633 E7.937
G1 X187.497 Y183.011 E7.9622
G1 X187.107 Y183.333 E7.98743
G1 X186.671 Y183.588 E8.01263
G1 X186.2 Y183.772 E8.03786
G1 X185.706 Y183.88 E8.06309
G1 X185.355 Y183.908 E8.08065
G1 X184.874 Y183.919 E8.10466
G1 X113.874 Y183.939 E11.64686
G1 X113.224 Y183.93 E11.67929
G1 X112.72 Y183.883 E11.70455
G1 X112.231 Y183.757 E11.72974
G1 X111.767 Y183.556 E11.75497
G1 X111.34 Y183.284 E11.78023
G1 X110.962 Y182.949 E11.80542
G1 X110.642 Y182.558 E11.83063
G1 X110.297 Y181.918 E11.8669
G1 X110.289 Y181.898 E11.86798
G1 X110.139 Y181.416 E11.89316
G1 X110.062 Y180.808 E11.92374
G1 X110.05 Y180.383 E11.94495
G1 X110.059 Y164.54 E12.73536
G1 X110.069 Y163.843 E12.77014
G1 X110.116 Y163.34 E12.79534
G1 X110.242 Y162.85 E12.82058
G1 X110.444 Y162.386 E12.84583
G1 X110.716 Y161.96 E12.87105
G1 X111.07 Y161.564 E12.89755
G1 X111.874 Y160.805 E12.95271
;MESH:Z-LOWER-BRACE-1-MIRAKO.stl
G0 F7500 X124.65 Y173.734
;TYPE:WALL-OUTER
G1 F1500 X125.397 Y173.424 E12.99306
G1 X126.041 Y172.93 E13.03355
G1 X126.533 Y172.288 E13.07391
G1 X126.843 Y171.537 E13.11444
G1 X126.95 Y170.735 E13.15481
G1 X126.843 Y169.931 E13.19527
G1 X126.533 Y169.184 E13.23562
G1 X126.039 Y168.54 E13.27611
G1 X125.397 Y168.048 E13.31647
G1 X124.648 Y167.738 E13.35691
G1 X123.846 Y167.633 E13.39726
G1 X123.042 Y167.738 E13.43772
G1 X122.293 Y168.048 E13.47816
G1 X121.651 Y168.542 E13.51857
G1 X121.157 Y169.184 E13.55899
G1 X120.847 Y169.933 E13.59943
G1 X120.742 Y170.737 E13.63988
G1 X120.847 Y171.539 E13.68023
G1 X121.157 Y172.288 E13.72068
G1 X121.651 Y172.932 E13.76117
G1 X122.293 Y173.424 E13.80152
G1 X123.042 Y173.734 E13.84196
G1 X123.846 Y173.841 E13.88243
G1 X124.65 Y173.734 E13.92289
G0 F7500 X124.834 Y173.658
G0 X125.001 Y174.064
G0 X171.538 Y133.466
G1 F1500 X172.342 Y133.571 E13.96335
G1 X173.144 Y133.466 E14.0037
G1 X173.893 Y133.156 E14.04414
G1 X174.535 Y132.661 E14.08459
G1 X175.027 Y132.02 E14.1249
G1 X175.337 Y131.271 E14.16534
G1 X175.444 Y130.469 E14.20571
G1 X175.337 Y129.667 E14.24608
G1 X175.027 Y128.918 E14.28652
G1 X174.534 Y128.276 E14.3269
G1 X173.891 Y127.784 E14.36729
G1 X173.144 Y127.474 E14.40764
G1 X172.34 Y127.367 E14.44811
G1 X171.538 Y127.474 E14.48848
G1 X170.789 Y127.784 E14.52892
G1 X170.147 Y128.279 E14.56936
G1 X169.655 Y128.92 E14.60968
G1 X169.345 Y129.667 E14.65003
G1 X169.238 Y130.471 E14.69049
G1 X169.345 Y131.273 E14.73086
G1 X169.655 Y132.022 E14.7713
G1 X170.15 Y132.664 E14.81174
G1 X170.791 Y133.156 E14.85206
G1 X171.538 Y133.466 E14.89241
G0 F7500 X171.736 Y133.491
G0 X171.678 Y133.927
G0 X171.54 Y158.72
G1 F1500 X172.344 Y158.825 E14.93286
G1 X173.146 Y158.72 E14.97321
G1 X173.897 Y158.41 E15.01375
G1 X174.539 Y157.916 E15.05416
G1 X175.032 Y157.274 E15.09455
G1 X175.342 Y156.525 E15.13499
G1 X175.448 Y155.721 E15.17545
G1 X175.341 Y154.919 E15.21581
G1 X175.031 Y154.17 E15.25625
G1 X174.539 Y153.526 E15.29669
G1 X173.895 Y153.034 E15.33712
G1 X173.146 Y152.724 E15.37756
G1 X172.344 Y152.619 E15.41791
G1 X171.54 Y152.726 E15.45838
G1 X170.791 Y153.036 E15.49882
G1 X170.149 Y153.528 E15.53918
G1 X169.657 Y154.172 E15.57961
G1 X169.347 Y154.921 E15.62005
G1 X169.24 Y155.723 E15.66042
G1 X169.347 Y156.527 E15.70088
G1 X169.657 Y157.276 E15.74132
G1 X170.149 Y157.918 E15.78168
G1 X170.793 Y158.412 E15.82217
G1 X171.54 Y158.72 E15.86248
G0 F7500 X171.738 Y158.745
G0 X171.68 Y159.181
G0 X153.846 Y173.831
G1 F1500 X154.648 Y173.726 E15.90284
G1 X155.397 Y173.414 E15.94332
G1 X156.041 Y172.922 E15.98375
G1 X156.534 Y172.278 E16.02421
G1 X156.843 Y171.529 E16.06463
G1 X156.949 Y170.727 E16.10499
G1 X156.843 Y169.925 E16.14535
G1 X156.533 Y169.174 E16.18589
G1 X156.041 Y168.532 E16.22624
G1 X155.397 Y168.04 E16.26667
G1 X154.648 Y167.73 E16.30712
G1 X153.846 Y167.625 E16.34747
G1 X153.042 Y167.73 E16.38792
G1 X152.293 Y168.04 E16.42836
G1 X151.651 Y168.534 E16.46878
G1 X151.157 Y169.176 E16.50919
G1 X150.849 Y169.925 E16.5496
G1 X150.742 Y170.729 E16.59006
G1 X150.849 Y171.531 E16.63043
G1 X151.157 Y172.28 E16.67083
G1 X151.651 Y172.924 E16.71132
G1 X152.295 Y173.416 E16.75176
G1 X153.042 Y173.726 E16.79211
G1 X153.846 Y173.831 E16.83256
G0 F7500 X154.044 Y173.806
G0 X154.1 Y174.242
G0 X113.45 Y180.539
G1 F1500 X113.459 Y163.957 E17.65984
G1 X162.429 Y119.467 E20.96068
G1 X185.087 Y119.461 E22.09109
G1 X185.084 Y180.519 E25.13729
G1 X113.45 Y180.539 E28.71112
G0 F7500 X113.45 Y180.339
G0 X113.891 Y180.098
G0 X113.84 Y180.149
;TYPE:SKIN
G1 F1500 X113.849 Y164.13 E29.51031
G1 X162.58 Y119.857 E32.79505
G1 X184.697 Y119.851 E33.89847
G1 X184.694 Y180.129 E36.90575
G1 X113.84 Y180.149 E40.44067
G0 F7500 X121.373 Y173.211
G1 F1500 X122.096 Y173.765 E40.48611
G1 X122.94 Y174.114 E40.53168
G1 X123.846 Y174.235 E40.57728
G1 X124.752 Y174.114 E40.62288
G1 X125.594 Y173.765 E40.66836
G1 X126.32 Y173.208 E40.71401
G1 X126.874 Y172.485 E40.75945
G1 X127.223 Y171.639 E40.80511
G1 X127.344 Y170.735 E40.85061
G1 X127.223 Y169.829 E40.89621
G1 X126.874 Y168.987 E40.94169
G1 X126.317 Y168.261 E40.98734
G1 X125.594 Y167.707 E41.03278
G1 X124.75 Y167.358 E41.07835
G1 X123.846 Y167.239 E41.12383
G1 X122.941 Y167.358 E41.16937
G1 X122.096 Y167.707 E41.21499
G1 X121.373 Y168.264 E41.26052
G1 X120.816 Y168.987 E41.30605
G1 X120.467 Y169.832 E41.35166
G1 X120.348 Y170.737 E41.3972
G1 X120.467 Y171.641 E41.44269
G1 X120.816 Y172.485 E41.48826
G1 X121.373 Y173.211 E41.53391
G0 F7500 X150.469 Y171.633
G1 F1500 X150.816 Y172.477 E41.57944
G1 X151.373 Y173.203 E41.62509
G1 X152.098 Y173.757 E41.67061
G1 X152.94 Y174.106 E41.71609
G1 X153.846 Y174.225 E41.76167
G1 X154.75 Y174.106 E41.80716
G1 X155.594 Y173.755 E41.85277
G1 X156.319 Y173.201 E41.89829
G1 X156.875 Y172.475 E41.94391
G1 X157.223 Y171.631 E41.98946
G1 X157.343 Y170.727 E42.03495
G1 X157.223 Y169.823 E42.08045
G1 X156.874 Y168.977 E42.12611
G1 X156.319 Y168.253 E42.17162
G1 X155.594 Y167.699 E42.21714
G1 X154.75 Y167.35 E42.26271
G1 X153.846 Y167.231 E42.3082
G1 X152.941 Y167.35 E42.35374
G1 X152.096 Y167.699 E42.39935
G1 X151.373 Y168.256 E42.44488
G1 X150.816 Y168.979 E42.49041
G1 X150.469 Y169.824 E42.53599
G1 X150.348 Y170.729 E42.58154
G1 X150.469 Y171.633 E42.62704
G0 F7500 X169.316 Y157.473
G1 F1500 X169.87 Y158.196 E42.67249
G1 X170.596 Y158.753 E42.71814
G1 X171.439 Y159.1 E42.76362
G1 X172.344 Y159.219 E42.80916
G1 X173.247 Y159.1 E42.8546
G1 X174.094 Y158.751 E42.9003
G1 X174.818 Y158.194 E42.94588
G1 X175.373 Y157.471 E42.99135
G1 X175.722 Y156.627 E43.03691
G1 X175.842 Y155.721 E43.08251
G1 X175.721 Y154.817 E43.12801
G1 X175.372 Y153.973 E43.17358
G1 X174.818 Y153.247 E43.21914
G1 X174.092 Y152.693 E43.2647
G1 X173.248 Y152.344 E43.31026
G1 X172.344 Y152.225 E43.35575
G1 X171.438 Y152.346 E43.40136
G1 X170.594 Y152.695 E43.44692
G1 X169.87 Y153.25 E43.49243
G1 X169.316 Y153.975 E43.53796
G1 X168.967 Y154.819 E43.58352
G1 X168.846 Y155.723 E43.62902
G1 X168.967 Y156.629 E43.67463
G1 X169.316 Y157.473 E43.72019
G0 F7500 X169.873 Y132.943
G1 F1500 X170.594 Y133.497 E43.76555
G1 X171.436 Y133.846 E43.81103
G1 X172.342 Y133.965 E43.85662
G1 X173.246 Y133.846 E43.90211
G1 X174.09 Y133.497 E43.94767
G1 X174.814 Y132.938 E43.99331
G1 X175.368 Y132.217 E44.03867
G1 X175.717 Y131.373 E44.08423
G1 X175.838 Y130.469 E44.12974
G1 X175.717 Y129.565 E44.17524
G1 X175.368 Y128.721 E44.2208
G1 X174.812 Y127.997 E44.26635
G1 X174.088 Y127.443 E44.31183
G1 X173.246 Y127.094 E44.3573
G1 X172.34 Y126.973 E44.4029
G1 X171.436 Y127.094 E44.44841
G1 X170.592 Y127.443 E44.49397
G1 X169.868 Y128.002 E44.53961
G1 X169.314 Y128.723 E44.58497
G1 X168.965 Y129.565 E44.63044
G1 X168.844 Y130.471 E44.67604
G1 X168.965 Y131.375 E44.72155
G1 X169.314 Y132.219 E44.76711
G1 X169.873 Y132.943 E44.81275
G0 F7500 X184.535 Y120.613
G1 F1500 X183.934 Y120.011 E44.85519
G0 F7500 X183.368 Y120.011
G1 F1500 X184.535 Y121.179 E44.93756
G0 F7500 X184.535 Y121.744
G1 F1500 X182.802 Y120.011 E45.05983
G0 F7500 X182.236 Y120.011
G1 F1500 X184.535 Y122.31 E45.22204
G0 F7500 X184.535 Y122.876
G1 F1500 X181.671 Y120.012 E45.42411
G0 F7500 X181.106 Y120.012
G1 F1500 X184.535 Y123.441 E45.66604
G0 F7500 X184.535 Y124.007
G1 F1500 X180.54 Y120.012 E45.94791
G0 F7500 X179.974 Y120.012
G1 F1500 X184.535 Y124.573 E46.26972
G0 F7500 X184.535 Y125.138
G1 F1500 X179.409 Y120.012 E46.63138
G0 F7500 X178.844 Y120.012
G1 F1500 X184.535 Y125.704 E47.03295
G0 F7500 X184.535 Y126.27
G1 F1500 X178.278 Y120.012 E47.47445
G0 F7500 X177.712 Y120.012
G1 F1500 X184.535 Y126.835 E47.95585
G0 F7500 X184.535 Y127.401
G1 F1500 X177.147 Y120.013 E48.47711
G0 F7500 X176.582 Y120.013
G1 F1500 X184.535 Y127.967 E49.03827
G0 F7500 X184.535 Y128.532
G1 F1500 X176.016 Y120.013 E49.63934
G0 F7500 X175.45 Y120.013
G1 F1500 X184.535 Y129.098 E50.28033
G0 F7500 X184.535 Y129.664
G1 F1500 X174.885 Y120.013 E50.96123
G0 F7500 X174.32 Y120.014
G1 F1500 X184.535 Y130.229 E51.68195
G0 F7500 X184.535 Y130.795
G1 F1500 X173.754 Y120.014 E52.44261
G0 F7500 X173.188 Y120.014
G1 F1500 X184.535 Y131.361 E53.2432
G0 F7500 X184.535 Y131.927
G1 F1500 X172.623 Y120.014 E54.08369
G0 F7500 X172.058 Y120.015
G1 F1500 X184.535 Y132.492 E54.96401
G0 F7500 X184.535 Y133.058
G1 F1500 X171.492 Y120.015 E55.88427
G0 F7500 X170.926 Y120.015
G1 F1500 X184.535 Y133.624 E56.84445
G0 F7500 X184.535 Y134.189
G1 F1500 X170.361 Y120.015 E57.84451
G0 F7500 X169.796 Y120.015
G1 F1500 X184.535 Y134.755 E58.88446
G0 F7500 X184.535 Y135.32
G1 F1500 X169.23 Y120.015 E59.96431
G0 F7500 X168.664 Y120.015
G1 F1500 X184.535 Y135.886 E61.08409
G0 F7500 X184.535 Y136.451
G1 F1500 X168.099 Y120.015 E62.24374
G0 F7500 X167.533 Y120.015
G1 F1500 X184.535 Y137.017 E63.44332
G0 F7500 X184.535 Y137.583
G1 F1500 X175.225 Y128.273 E64.1002
G0 F7500 X174.537 Y127.585
G1 F1500 X166.968 Y120.016 E64.63423
G0 F7500 X166.402 Y120.016
G1 F1500 X173.348 Y126.962 E65.12431
G0 F7500 X172.676 Y126.856
G1 F1500 X165.837 Y120.016 E65.60687
G0 F7500 X165.271 Y120.016
G1 F1500 X172.098 Y126.843 E66.08855
G0 F7500 X171.599 Y126.91
G1 F1500 X164.706 Y120.017 E66.57489
G0 F7500 X164.14 Y120.017
G1 F1500 X171.158 Y127.034 E67.07001
G0 F7500 X170.757 Y127.2
G1 F1500 X163.575 Y120.017 E67.57678
G0 F7500 X163.009 Y120.017
G1 F1500 X170.388 Y127.396 E68.09741
G0 F7500 X170.069 Y127.643
G1 F1500 X162.538 Y120.111 E68.62879
G0 F7500 X162.242 Y120.381
G1 F1500 X169.751 Y127.89 E69.15859
G0 F7500 X169.505 Y128.21
G1 F1500 X161.945 Y120.65 E69.69199
G0 F7500 X161.648 Y120.919
G1 F1500 X169.259 Y128.53 E70.22899
G0 F7500 X169.065 Y128.902
G1 F1500 X161.352 Y121.188 E70.77322
G0 F7500 X161.056 Y121.458
G1 F1500 X168.899 Y129.301 E71.32659
G0 F7500 X168.778 Y129.746
G1 F1500 X160.76 Y121.727 E71.89233
G0 F7500 X160.463 Y121.997
G1 F1500 X168.712 Y130.245 E72.47431
G0 F7500 X168.729 Y130.828
G1 F1500 X160.166 Y122.265 E73.07848
G0 F7500 X159.87 Y122.535
G1 F1500 X168.847 Y131.511 E73.71182
G0 F7500 X169.526 Y132.756
G1 F1500 X159.574 Y122.804 E74.41398
G0 F7500 X159.277 Y123.074
G1 F1500 X184.535 Y148.331 E76.19604
G0 F7500 X184.535 Y148.896
G1 F1500 X158.981 Y123.343 E77.99897
G0 F7500 X158.684 Y123.612
G1 F1500 X184.535 Y149.462 E79.82287
G0 F7500 X184.534 Y150.027
G1 F1500 X158.388 Y123.881 E81.66761
G0 F7500 X158.092 Y124.15
G1 F1500 X184.534 Y150.593 E83.53327
G0 F7500 X184.534 Y151.158
G1 F1500 X157.795 Y124.42 E85.41981
G0 F7500 X157.499 Y124.689
G1 F1500 X184.534 Y151.724 E87.32728
G0 F7500 X184.534 Y152.29
G1 F1500 X157.203 Y124.959 E89.25563
G0 F7500 X156.906 Y125.227
G1 F1500 X184.534 Y152.855 E91.20493
G0 F7500 X184.534 Y153.421
G1 F1500 X156.61 Y125.497 E93.17512
G0 F7500 X156.313 Y125.766
G1 F1500 X184.534 Y153.987 E95.16627
G0 F7500 X184.534 Y154.553
G1 F1500 X156.017 Y126.036 E97.1783
G0 F7500 X155.721 Y126.305
G1 F1500 X184.534 Y155.118 E99.21121
G0 F7500 X184.534 Y155.684
G1 F1500 X155.424 Y126.574 E101.26508
G0 F7500 X155.127 Y126.843
G1 F1500 X184.534 Y156.25 E103.3399
G0 F7500 X184.534 Y156.815
G1 F1500 X154.831 Y127.113 E105.43557
G0 F7500 X154.535 Y127.382
G1 F1500 X184.534 Y157.381 E107.55216
G0 F7500 X184.534 Y157.947
G1 F1500 X154.239 Y127.651 E109.68967
G0 F7500 X153.942 Y127.921
G1 F1500 X184.534 Y158.512 E111.84807
G0 F7500 X184.534 Y159.078
G1 F1500 X153.645 Y128.189 E114.02745
G0 F7500 X153.349 Y128.459
G1 F1500 X184.534 Y159.644 E116.22772
G0 F7500 X184.534 Y160.209
G1 F1500 X153.053 Y128.728 E118.44888
G0 F7500 X152.756 Y128.998
G1 F1500 X184.534 Y160.775 E120.69095
G0 F7500 X184.534 Y161.341
G1 F1500 X152.46 Y129.267 E122.95395
G0 F7500 X152.163 Y129.536
G1 F1500 X184.534 Y161.906 E125.23786
G0 F7500 X184.534 Y162.472
G1 F1500 X151.867 Y129.805 E127.54269
G0 F7500 X151.571 Y130.075
G1 F1500 X173.961 Y152.465 E129.12243
G0 F7500 X173.091 Y152.161
G1 F1500 X151.274 Y130.344 E130.66174
G0 F7500 X150.978 Y130.613
G1 F1500 X172.441 Y152.076 E132.17607
G0 F7500 X171.918 Y152.119
G1 F1500 X150.682 Y130.883 E133.67438
G0 F7500 X150.385 Y131.152
G1 F1500 X171.42 Y152.187 E135.15852
G0 F7500 X171.014 Y152.346
G1 F1500 X150.089 Y131.421 E136.63489
G0 F7500 X149.792 Y131.69
G1 F1500 X170.614 Y152.512 E138.10399
G0 F7500 X170.273 Y152.737
G1 F1500 X149.496 Y131.96 E139.56992
G0 F7500 X149.2 Y132.229
G1 F1500 X169.953 Y152.983 E141.03419
G0 F7500 X169.663 Y153.258
G1 F1500 X148.903 Y132.498 E142.49892
G0 F7500 X148.606 Y132.767
G1 F1500 X169.417 Y153.577 E143.96722
G0 F7500 X169.173 Y153.899
G1 F1500 X148.31 Y133.037 E145.43918
G0 F7500 X148.014 Y133.306
G1 F1500 X169.007 Y154.299 E146.92035
G0 F7500 X168.842 Y154.7
G1 F1500 X147.718 Y133.576 E148.41076
G0 F7500 X147.421 Y133.845
G1 F1500 X168.757 Y155.18 E149.91609
G0 F7500 X168.69 Y155.68
G1 F1500 X147.124 Y134.114 E151.43769
G0 F7500 X146.828 Y134.383
G1 F1500 X168.763 Y156.318 E152.98532
G0 F7500 X168.992 Y157.113
G1 F1500 X146.532 Y134.652 E154.57003
G0 F7500 X146.236 Y134.922
G1 F1500 X184.533 Y173.219 E157.27209
G0 F7500 X184.533 Y172.654
G1 F1500 X170.953 Y159.074 E158.23024
G0 F7500 X171.747 Y159.302
G1 F1500 X184.533 Y172.088 E159.13236
G0 F7500 X184.533 Y171.522
G1 F1500 X172.386 Y159.375 E159.98939
G0 F7500 X172.886 Y159.309
G1 F1500 X184.533 Y170.957 E160.81119
G0 F7500 X184.533 Y170.391
G1 F1500 X173.367 Y159.224 E161.59905
G0 F7500 X173.767 Y159.059
G1 F1500 X184.533 Y169.825 E162.35865
G0 F7500 X184.533 Y169.26
G1 F1500 X174.168 Y158.894 E163.08999
G0 F7500 X174.488 Y158.649
G1 F1500 X184.533 Y168.694 E163.79872
G0 F7500 X184.533 Y168.128
G1 F1500 X174.808 Y158.403 E164.48487
G0 F7500 X175.081 Y158.111
G1 F1500 X184.533 Y167.563 E165.15176
G0 F7500 X184.533 Y166.997
G1 F1500 X175.327 Y157.79 E165.80133
G0 F7500 X175.553 Y157.451
G1 F1500 X184.533 Y166.431 E166.43491
G0 F7500 X184.533 Y165.866
G1 F1500 X175.718 Y157.051 E167.05686
G0 F7500 X175.88 Y156.646
G1 F1500 X184.533 Y165.3 E167.66741
G0 F7500 X184.534 Y164.735
G1 F1500 X175.945 Y156.146 E168.27341
G0 F7500 X175.988 Y155.624
G1 F1500 X184.534 Y164.169 E168.87634
G0 F7500 X184.534 Y163.604
G1 F1500 X175.901 Y154.97 E169.48548
