;FLAVOR:Marlin
;TIME:10683
;Filament used: 14.795m
;Layer height: 0.3
;MINX:88.053
;MINY:117.538
;MINZ:0.3
;MAXX:211.932
;MAXY:184.27
;MAXZ:27
;Generated with Cura_SteamEngine master
M140 S90
M105
M190 S90
M104 S240
M105
M109 S240
M82 ;absolute extrusion mode
G28 ;Home
G1 Z15.0 F2000 ;Move the platform
G92 E0
G92 E0
;LAYER_COUNT:90
;LAYER:0
M107 P2
G0 F7500 X95.047 Y126.424 Z0.3
;TYPE:SKIRT
G1 F1500 X95.352 Y126.196 E0.019
G1 X95.69 Y125.966 E0.03939
G1 X95.96 Y125.796 E0.05531
G1 X96.256 Y125.625 E0.07237
G1 X96.503 Y125.493 E0.08634
G1 X96.601 Y125.444 E0.09181
G1 X96.958 Y125.275 E0.11151
G1 X97.258 Y125.148 E0.12776
G1 X97.659 Y124.996 E0.14916
G1 X97.827 Y124.942 E0.15796
G1 X99.279 Y124.519 E0.23342
G1 X103.122 Y123.475 E0.43209
G1 X104.076 Y123.231 E0.48122
G1 X104.424 Y123.15 E0.49905
G1 X111.206 Y121.656 E0.84551
G1 X112.202 Y121.452 E0.89624
G1 X112.485 Y121.401 E0.91058
G1 X119.461 Y120.215 E1.26361
G1 X120.427 Y120.069 E1.31235
G1 X123.278 Y119.721 E1.45564
G1 X123.357 Y119.704 E1.45968
G1 X126.534 Y119.292 E1.6195
G1 X127.432 Y119.16 E1.66479
G1 X128.677 Y118.985 E1.72751
G1 X129.825 Y118.834 E1.78528
G1 X130.994 Y118.689 E1.84405
G1 X132.331 Y118.535 E1.91119
G1 X132.902 Y118.471 E1.93986
G1 X134.472 Y118.308 E2.01861
G1 X134.948 Y118.262 E2.04246
G1 X136.959 Y118.083 E2.14319
G1 X137.879 Y118.009 E2.18924
G1 X138.915 Y117.934 E2.24106
G1 X140.037 Y117.859 E2.29716
G1 X141.017 Y117.8 E2.34614
G1 X141.913 Y117.752 E2.39091
G1 X143.134 Y117.693 E2.45189
G1 X143.904 Y117.661 E2.49034
G1 X144.897 Y117.625 E2.53992
G1 X146.15 Y117.588 E2.60246
G1 X147.033 Y117.568 E2.64652
G1 X148.074 Y117.551 E2.69846
G1 X149.27 Y117.541 E2.75813
G1 X150.19 Y117.538 E2.80403
G1 X151.23 Y117.541 E2.85592
G1 X152.186 Y117.55 E2.90362
G1 X153.203 Y117.565 E2.95436
G1 X154.142 Y117.586 E3.00122
G1 X155.29 Y117.619 E3.05852
G1 X156.003 Y117.642 E3.09411
G1 X157.365 Y117.698 E3.16211
G1 X158.214 Y117.739 E3.20452
G1 X159.56 Y117.811 E3.27177
G1 X160.471 Y117.869 E3.31731
G1 X162.034 Y117.977 E3.39547
G1 X162.537 Y118.013 E3.42063
G1 X163.328 Y118.077 E3.46023
G1 X165.055 Y118.228 E3.54671
G1 X166.383 Y118.359 E3.61329
G1 X167.64 Y118.491 E3.67635
G1 X168.773 Y118.619 E3.73323
G1 X170.219 Y118.793 E3.80589
G1 X170.689 Y118.853 E3.82953
G1 X171.472 Y118.957 E3.86894
G1 X172.731 Y119.131 E3.93235
G1 X174.27 Y119.358 E4.00996
G1 X174.669 Y119.42 E4.03011
G1 X177.738 Y119.842 E4.18466
G1 X179.24 Y120.025 E4.26015
G1 X180.236 Y120.161 E4.3103
G1 X187.313 Y121.366 E4.66845
G1 X188.412 Y121.569 E4.72421
G1 X188.621 Y121.613 E4.73487
G1 X195.492 Y123.129 E5.08591
G1 X196.353 Y123.332 E5.13004
G1 X196.742 Y123.433 E5.15009
G1 X200.875 Y124.56 E5.36382
G1 X202.21 Y124.951 E5.43322
G1 X202.521 Y125.057 E5.44961
G1 X202.678 Y125.117 E5.45799
G1 X203.002 Y125.253 E5.47553
G1 X203.317 Y125.399 E5.49285
G1 X203.69 Y125.592 E5.5138
G1 X203.977 Y125.754 E5.53024
G1 X204.244 Y125.917 E5.54585
G1 X204.501 Y126.087 E5.56122
G1 X204.584 Y126.145 E5.56627
G1 X204.909 Y126.382 E5.58634
G1 X205.153 Y126.574 E5.60183
G1 X205.446 Y126.826 E5.62111
G1 X205.681 Y127.041 E5.637
G1 X205.933 Y127.291 E5.65471
G1 X206.186 Y127.564 E5.67328
G1 X206.455 Y127.878 E5.69391
G1 X206.636 Y128.108 E5.70851
G1 X206.894 Y128.461 E5.73032
G1 X207.058 Y128.704 E5.74495
G1 X207.267 Y129.041 E5.76473
G1 X207.436 Y129.337 E5.78174
G1 X207.597 Y129.65 E5.7993
G1 X207.703 Y129.879 E5.81189
G1 X208.107 Y130.845 E5.86413
G1 X208.185 Y131.052 E5.87516
G1 X208.625 Y132.349 E5.94349
G1 X209.364 Y134.678 E6.0654
G1 X209.482 Y135.067 E6.08568
G1 X209.513 Y135.176 E6.09133
G1 X209.857 Y136.474 E6.15832
G1 X210.435 Y138.845 E6.28008
G1 X210.528 Y139.25 E6.30081
G1 X210.804 Y140.667 E6.37283
G1 X211.225 Y143.104 E6.49622
G1 X211.308 Y143.636 E6.52308
G1 X211.469 Y144.948 E6.58903
G1 X211.722 Y147.408 E6.7124
G1 X211.759 Y147.827 E6.73339
G1 X211.838 Y149.265 E6.80524
G1 X211.923 Y151.722 E6.92789
G1 X211.932 Y152.238 E6.95364
G1 X211.91 Y153.678 E7.02549
G1 X211.828 Y156.032 E7.143
G1 X211.804 Y156.524 E7.16758
G1 X211.797 Y156.632 E7.17298
G1 X211.687 Y157.95 E7.23896
G1 X211.436 Y160.38 E7.36084
G1 X211.389 Y160.782 E7.38103
G1 X211.374 Y160.894 E7.38667
G1 X211.159 Y162.296 E7.45743
G1 X210.752 Y164.638 E7.57603
G1 X210.664 Y165.106 E7.59979
G1 X210.642 Y165.212 E7.60519
G1 X210.353 Y166.507 E7.67138
G1 X209.769 Y168.897 E7.79413
G1 X209.643 Y169.372 E7.81865
G1 X209.245 Y170.715 E7.88853
G1 X208.495 Y173.064 E8.01155
G1 X208.343 Y173.512 E8.03515
G1 X207.851 Y174.83 E8.10534
G1 X206.968 Y177.06 E8.225
G1 X206.688 Y177.737 E8.26155
G1 X206.459 Y178.187 E8.28674
G1 X206.161 Y178.596 E8.31199
G1 X205.803 Y178.953 E8.33721
G1 X205.393 Y179.249 E8.36244
G1 X204.941 Y179.476 E8.38767
G1 X204.425 Y179.638 E8.41466
G1 X203.716 Y179.795 E8.45088
G1 X196.383 Y181.309 E8.82445
G1 X194.523 Y181.658 E8.91886
G1 X187.339 Y182.865 E9.2823
G1 X185.504 Y183.138 E9.37485
G1 X178.309 Y184.076 E9.73685
G1 X176.829 Y184.242 E9.81115
G1 X176.492 Y184.27 E9.82802
G1 X175.986 Y184.27 E9.85326
G1 X175.487 Y184.19 E9.87848
G1 X175.007 Y184.032 E9.90369
G1 X174.583 Y183.816 E9.92743
G1 X174.075 Y183.508 E9.95707
G1 X172.653 Y182.622 E10.04066
G1 X170.288 Y181.24 E10.17731
G1 X167.895 Y179.931 E10.3134
G1 X165.466 Y178.689 E10.4495
G1 X162.961 Y177.497 E10.58791
G1 X160.489 Y176.405 E10.72273
G1 X157.906 Y175.348 E10.86197
G1 X155.364 Y174.397 E10.99738
G1 X152.813 Y173.521 E11.13194
G1 X150.155 Y172.691 E11.27086
G1 X147.555 Y171.958 E11.40563
G1 X144.882 Y171.287 E11.54313
G1 X142.692 Y170.809 E11.65496
G1 X140.704 Y170.342 E11.75684
G1 X140.591 Y170.313 E11.76266
G1 X140.054 Y170.166 E11.79044
G1 X139.783 Y170.079 E11.80464
G1 X138.756 Y169.697 E11.8593
G1 X138.649 Y169.655 E11.86504
G1 X138.093 Y169.425 E11.89506
G1 X137.832 Y169.303 E11.90943
G1 X135.885 Y168.285 E12.01904
G1 X135.079 Y167.86 E12.0645
G1 X132.675 Y166.666 E12.19842
G1 X130.16 Y165.503 E12.33666
G1 X127.662 Y164.435 E12.4722
G1 X125.1 Y163.421 E12.60966
G1 X122.539 Y162.491 E12.74559
G1 X119.921 Y161.625 E12.88317
G1 X117.33 Y160.848 E13.01812
G1 X114.671 Y160.131 E13.15552
G1 X111.955 Y159.479 E13.29487
G1 X109.337 Y158.933 E13.42829
G1 X106.641 Y158.447 E13.56496
G1 X103.929 Y158.036 E13.70181
G1 X100.336 Y157.614 E13.8823
G1 X99.479 Y157.529 E13.92526
G1 X91.537 Y156.629 E14.32403
G1 X90.849 Y156.54 E14.35864
G1 X90.355 Y156.435 E14.38383
G1 X89.883 Y156.254 E14.40905
G1 X89.445 Y156.001 E14.43429
G1 X89.053 Y155.683 E14.45947
G1 X88.715 Y155.306 E14.48473
G1 X88.441 Y154.881 E14.50996
G1 X88.238 Y154.418 E14.53518
G1 X88.11 Y153.929 E14.5604
G1 X88.062 Y153.468 E14.58353
G1 X88.054 Y153.218 E14.596
G1 X88.053 Y153.056 E14.60409
G1 X88.083 Y151.469 E14.68328
G1 X88.173 Y148.903 E14.81137
G1 X88.199 Y148.414 E14.8358
G1 X88.314 Y147.046 E14.90429
G1 X88.569 Y144.607 E15.02664
G1 X88.636 Y144.058 E15.05423
G1 X88.829 Y142.801 E15.11768
G1 X89.242 Y140.41 E15.23873
G1 X89.35 Y139.843 E15.26753
G1 X89.64 Y138.545 E15.33388
G1 X90.233 Y136.125 E15.45819
G1 X90.355 Y135.664 E15.48198
G1 X90.756 Y134.313 E15.55229
G1 X91.476 Y132.054 E15.67058
G1 X91.664 Y131.5 E15.69977
G1 X91.945 Y130.745 E15.73996
G1 X91.99 Y130.63 E15.74612
G1 X92.285 Y129.922 E15.78438
G1 X92.473 Y129.527 E15.80621
G1 X92.544 Y129.392 E15.81382
G1 X92.73 Y129.059 E15.83285
G1 X92.896 Y128.787 E15.84875
G1 X93.149 Y128.407 E15.87152
G1 X93.296 Y128.205 E15.88398
G1 X93.492 Y127.952 E15.89995
G1 X93.669 Y127.737 E15.91385
G1 X93.763 Y127.63 E15.92095
G1 X94.066 Y127.301 E15.94327
G1 X94.236 Y127.131 E15.95526
G1 X94.509 Y126.874 E15.97397
G1 X94.697 Y126.707 E15.98651
G1 X95.047 Y126.424 E16.00897
;MESH:Z-TOP-LEFT-MIRAKO.stl
G0 F7500 X145.721 Y165.7
;TYPE:WALL-OUTER
G1 F1500 X147.167 Y165.517 E16.08168
G1 X148.578 Y165.155 E16.15436
G1 X149.933 Y164.617 E16.22709
G1 X151.209 Y163.917 E16.2997
G1 X152.39 Y163.06 E16.3725
G1 X153.45 Y162.063 E16.4451
G1 X154.38 Y160.94 E16.51785
G1 X155.162 Y159.711 E16.59052
G1 X155.782 Y158.392 E16.66323
G1 X156.234 Y157.006 E16.73597
G1 X156.507 Y155.575 E16.80865
G1 X156.599 Y154.122 E16.88128
G1 X156.508 Y152.672 E16.95376
G1 X156.502 Y152.63 E16.95588
G1 X156.235 Y151.236 E17.02669
G1 X155.786 Y149.85 E17.09938
G1 X155.167 Y148.534 E17.17193
G1 X154.386 Y147.302 E17.24471
G1 X153.458 Y146.181 E17.31731
G1 X152.398 Y145.184 E17.38991
G1 X151.219 Y144.327 E17.46263
G1 X149.943 Y143.625 E17.53529
G1 X148.588 Y143.087 E17.60802
G1 X147.177 Y142.725 E17.6807
G1 X145.732 Y142.544 E17.75335
G1 X144.276 Y142.544 E17.82599
G1 X142.831 Y142.725 E17.89865
G1 X141.418 Y143.087 E17.97142
G1 X140.065 Y143.625 E18.04406
G1 X138.787 Y144.327 E18.11681
G1 X137.608 Y145.184 E18.18953
G1 X136.546 Y146.181 E18.2622
G1 X135.616 Y147.302 E18.33487
G1 X134.834 Y148.533 E18.40763
G1 X134.214 Y149.85 E18.48025
G1 X133.764 Y151.236 E18.55295
G1 X133.489 Y152.667 E18.62565
G1 X133.398 Y154.122 E18.69838
G1 X133.489 Y155.575 E18.77101
G1 X133.76 Y157.006 E18.84367
G1 X134.21 Y158.392 E18.91638
G1 X134.828 Y159.711 E18.98905
G1 X135.61 Y160.94 E19.06172
G1 X136.538 Y162.063 E19.1344
G1 X137.6 Y163.06 E19.20707
G1 X138.779 Y163.917 E19.27979
G1 X140.055 Y164.617 E19.3524
G1 X141.408 Y165.155 E19.42504
G1 X142.819 Y165.517 E19.49772
G1 X144.263 Y165.7 E19.57034
G1 X145.721 Y165.7 E19.64308
G0 F7500 X145.919 Y165.675
G0 X145.973 Y166.111
G0 X187.698 Y172.534
G1 F1500 X188.465 Y172.679 E19.68202
G1 X189.242 Y172.728 E19.72086
G1 X190.021 Y172.679 E19.7598
G1 X190.786 Y172.534 E19.79865
G1 X191.527 Y172.292 E19.83754
G1 X192.239 Y171.955 E19.87684
G1 X192.89 Y171.542 E19.9153
G1 X193.491 Y171.046 E19.95418
G1 X194.024 Y170.478 E19.99304
G1 X194.483 Y169.848 E20.03193
G1 X194.859 Y169.165 E20.07082
G1 X195.147 Y168.44 E20.10974
G1 X195.339 Y167.686 E20.14856
G1 X195.438 Y166.911 E20.18754
G1 X195.438 Y166.131 E20.22646
G1 X195.341 Y165.358 E20.26532
G1 X195.147 Y164.604 E20.30417
G1 X194.861 Y163.879 E20.34305
G1 X194.485 Y163.196 E20.38195
G1 X194.026 Y162.566 E20.42083
G1 X193.493 Y161.998 E20.45969
G1 X192.894 Y161.5 E20.49856
G1 X192.235 Y161.082 E20.53749
G1 X191.53 Y160.75 E20.57637
G1 X190.79 Y160.51 E20.61518
G1 X190.023 Y160.365 E20.65412
G1 X189.246 Y160.314 E20.69297
G1 X188.469 Y160.365 E20.73182
G1 X187.703 Y160.51 E20.77071
G1 X186.96 Y160.75 E20.80967
G1 X186.251 Y161.084 E20.84877
G1 X185.596 Y161.5 E20.88748
G1 X184.997 Y161.998 E20.92634
G1 X184.462 Y162.566 E20.96527
G1 X184.005 Y163.197 E21.00414
G1 X183.629 Y163.879 E21.043
G1 X183.341 Y164.604 E21.08192
G1 X183.147 Y165.358 E21.12076
G1 X183.05 Y166.131 E21.15963
G1 X183.05 Y166.91 E21.19849
G1 X183.147 Y167.686 E21.23751
G1 X183.341 Y168.44 E21.27635
G1 X183.629 Y169.165 E21.31527
G1 X184.003 Y169.847 E21.35407
G1 X184.462 Y170.478 E21.393
G1 X184.993 Y171.046 E21.4318
G1 X185.595 Y171.542 E21.47071
G1 X186.253 Y171.96 E21.5096
G1 X186.958 Y172.292 E21.54848
G1 X187.698 Y172.534 E21.58732
G0 F7500 X187.894 Y172.571
G0 X187.812 Y173.003
G0 X176.389 Y180.875
G1 F1500 X175.189 Y176.495 E21.81389
G1 X175.192 Y166.558 E22.30965
G1 X150.058 Y166.562 E23.56359
G1 X149.142 Y166.867 E23.61176
G1 X147.498 Y167.29 E23.69645
G1 X145.837 Y167.5 E23.77998
G1 X144.145 Y167.5 E23.86439
G1 X142.486 Y167.29 E23.94782
G1 X140.849 Y166.869 E24.03215
G1 X139.281 Y166.249 E24.11627
G1 X137.815 Y165.442 E24.19976
G1 X136.447 Y164.448 E24.28412
G1 X135.219 Y163.295 E24.36816
G1 X134.152 Y162.003 E24.45176
G1 X133.247 Y160.579 E24.53593
G1 X132.532 Y159.056 E24.61987
G1 X132.013 Y157.461 E24.70356
G1 X131.699 Y155.801 E24.78784
G1 X131.594 Y154.122 E24.87177
G1 X131.702 Y152.434 E24.95616
G1 X131.916 Y151.314 E25.01305
G1 X124.807 Y151.316 E25.36772
G1 X124.805 Y151.8 E25.39186
G1 X120.94 Y154.222 E25.61942
G1 X100.518 Y154.224 E26.63828
G1 X91.45 Y153.197 E27.09357
G1 X91.452 Y152.413 E27.13269
G1 X91.593 Y148.382 E27.33392
G1 X92.018 Y144.308 E27.53827
G1 X92.711 Y140.298 E27.7413
G1 X93.683 Y136.328 E27.94521
G1 X94.932 Y132.408 E28.15047
G1 X95.252 Y131.601 E28.19378
G1 X95.435 Y131.181 E28.21664
G1 X95.659 Y130.765 E28.24021
G1 X95.899 Y130.393 E28.2623
G1 X96.179 Y130.022 E28.28549
G1 X96.488 Y129.674 E28.3087
G1 X96.817 Y129.357 E28.3315
G1 X97.169 Y129.067 E28.35425
G1 X97.532 Y128.811 E28.37641
G1 X97.938 Y128.569 E28.39999
G1 X98.336 Y128.373 E28.42213
G1 X98.766 Y128.201 E28.44523
G1 X99.239 Y128.053 E28.46996
G1 X104.658 Y126.58 E28.75012
G1 X112.579 Y124.834 E29.15479
G1 X120.543 Y123.479 E29.55782
G1 X123.794 Y123.084 E29.72121
G1 X125.048 Y122.96 E29.78408
G1 X127.038 Y122.653 E29.88453
G1 X128.03 Y122.509 E29.93454
G1 X129.024 Y122.369 E29.98462
G1 X130.015 Y122.237 E30.0345
G1 X131.008 Y122.112 E30.08443
G1 X132.006 Y121.994 E30.13457
G1 X133.004 Y121.88 E30.18469
G1 X134 Y121.774 E30.23466
G1 X134.998 Y121.672 E30.28471
G1 X135.995 Y121.58 E30.33466
G1 X136.995 Y121.492 E30.38474
G1 X137.995 Y121.41 E30.4348
G1 X138.993 Y121.337 E30.48472
G1 X139.995 Y121.268 E30.53483
G1 X140.993 Y121.206 E30.58472
G1 X141.996 Y121.152 E30.63483
G1 X142.998 Y121.102 E30.68488
G1 X143.997 Y121.06 E30.73477
G1 X145 Y121.024 E30.78484
G1 X146.004 Y120.992 E30.83495
G1 X147.005 Y120.97 E30.88491
G1 X148.01 Y120.952 E30.93505
G1 X149.012 Y120.942 E30.98505
G1 X150.015 Y120.938 E31.03509
G1 X151.014 Y120.94 E31.08493
G1 X152.019 Y120.948 E31.13507
G1 X153.02 Y120.962 E31.18501
G1 X154.022 Y120.984 E31.23501
G1 X155.025 Y121.012 E31.28507
G1 X156.026 Y121.046 E31.33504
G1 X157.028 Y121.086 E31.38507
G1 X158.032 Y121.134 E31.43522
G1 X159.032 Y121.186 E31.48518
G1 X160.032 Y121.247 E31.53516
G1 X162.036 Y121.384 E31.63537
G1 X163.033 Y121.464 E31.68527
G1 X164.033 Y121.55 E31.73535
G1 X165.03 Y121.64 E31.78529
G1 X166.028 Y121.74 E31.83533
G1 X167.026 Y121.844 E31.88539
G1 X168.022 Y121.954 E31.93538
G1 X169.018 Y122.072 E31.98542
G1 X170.014 Y122.193 E32.03548
G1 X171.008 Y122.325 E32.0855
G1 X171.999 Y122.461 E32.13541
G1 X172.991 Y122.604 E32.18541
G1 X173.984 Y122.754 E32.23551
G1 X174.972 Y122.909 E32.28541
G1 X176.247 Y123.086 E32.34963
G1 X179.487 Y123.481 E32.51247
G1 X187.482 Y124.843 E32.91709
G1 X195.375 Y126.585 E33.32035
G1 X200.803 Y128.063 E33.60101
G1 X201.242 Y128.2 E33.62396
G1 X201.677 Y128.375 E33.64735
G1 X202.08 Y128.574 E33.66977
G1 X202.474 Y128.808 E33.69263
G1 X202.844 Y129.07 E33.71525
G1 X203.202 Y129.366 E33.73843
G1 X203.534 Y129.686 E33.76143
G1 X203.829 Y130.022 E33.78374
G1 X204.107 Y130.389 E33.80671
G1 X204.35 Y130.767 E33.82913
G1 X204.572 Y131.181 E33.85257
G1 X204.76 Y131.608 E33.87584
G1 X205.076 Y132.408 E33.91875
G1 X206.321 Y136.33 E34.12405
G1 X207.291 Y140.298 E34.32784
G1 X207.987 Y144.325 E34.53173
G1 X208.408 Y148.417 E34.73695
G1 X208.548 Y152.513 E34.94142
G1 X208.406 Y156.621 E35.1465
G1 X207.985 Y160.701 E35.35113
G1 X207.283 Y164.744 E35.55585
G1 X206.313 Y168.715 E35.75979
G1 X205.064 Y172.633 E35.96495
G1 X203.594 Y176.348 E36.16428
G1 X194.854 Y178.154 E36.60953
G1 X185.957 Y179.651 E37.05964
G1 X177.013 Y180.817 E37.50964
G1 X176.389 Y180.875 E37.5409
G0 F7500 X176.337 Y180.683
G0 X176.747 Y180.4
G0 X176.679 Y180.456
;TYPE:SKIN
G1 F1500 X175.579 Y176.444 E37.74845
G1 X175.582 Y166.168 E38.26112
G1 X149.995 Y166.172 E39.53766
G1 X149.037 Y166.491 E39.58804
G1 X147.415 Y166.908 E39.67159
G1 X145.82 Y167.11 E39.7518
G1 X144.162 Y167.11 E39.83452
G1 X142.569 Y166.908 E39.91463
G1 X140.972 Y166.498 E39.99689
G1 X139.439 Y165.892 E40.07913
G1 X138.034 Y165.118 E40.15916
G1 X136.695 Y164.145 E40.24173
G1 X135.497 Y163.02 E40.32372
G1 X134.47 Y161.777 E40.40417
G1 X133.59 Y160.393 E40.48599
G1 X132.896 Y158.914 E40.5675
G1 X132.392 Y157.368 E40.64862
G1 X132.087 Y155.752 E40.73067
G1 X131.986 Y154.122 E40.81215
G1 X132.091 Y152.477 E40.89438
G1 X132.388 Y150.924 E40.97327
G1 X124.419 Y150.926 E41.37084
G1 X124.416 Y151.584 E41.40367
G1 X120.828 Y153.832 E41.61491
G1 X100.544 Y153.834 E42.62688
G1 X91.841 Y152.848 E43.06385
G1 X91.842 Y152.427 E43.08486
G1 X91.983 Y148.396 E43.28609
G1 X92.406 Y144.349 E43.48909
G1 X93.093 Y140.377 E43.6902
G1 X94.059 Y136.434 E43.89273
G1 X95.3 Y132.539 E44.09668
G1 X95.615 Y131.745 E44.1393
G1 X95.783 Y131.357 E44.16039
