;FLAVOR:Marlin
;TIME:71002
;Filament used: 316.07m
;Layer height: 0.32
;MINX:94.4
;MINY:24.712
;MINZ:0.32
;MAXX:203.987
;MAXY:275.288
;MAXZ:300.16
;Generated with Cura_SteamEngine master
M140 S90
M105
M190 S90
M104 S240
M105
M109 S240
M82 ;absolute extrusion mode
G28 ;Home
G1 Z15.0 F2000 ;Move the platform
G92 E0
G92 E0
G1 F1500 E-4
;LAYER_COUNT:938
;LAYER:0
M107 P2
G0 F7500 X114.633 Y35.904 Z0.32
;TYPE:SKIRT
G1 F1500 E0
G1 X114.986 Y34.845 E0.11881
G1 X115.415 Y33.813 E0.23776
G1 X115.917 Y32.815 E0.35666
G1 X116.488 Y31.855 E0.47554
G1 X117.127 Y30.939 E0.59441
G1 X117.829 Y30.071 E0.71323
G1 X118.592 Y29.255 E0.83213
G1 X119.412 Y28.496 E0.95105
G1 X120.283 Y27.797 E1.06992
G1 X121.203 Y27.163 E1.18883
G1 X122.165 Y26.596 E1.30768
G1 X123.165 Y26.099 E1.42653
G1 X124.199 Y25.676 E1.54544
G1 X125.26 Y25.327 E1.66431
G1 X126.343 Y25.055 E1.78316
G1 X127.443 Y24.861 E1.90204
G1 X128.555 Y24.747 E2.02102
G1 X129.597 Y24.712 E2.13198
G1 X168.79 Y24.712 E6.30339
G1 X169.906 Y24.752 E6.42224
G1 X171.017 Y24.872 E6.54118
G1 X172.116 Y25.071 E6.66005
G1 X173.198 Y25.348 E6.77892
G1 X174.257 Y25.701 E6.89773
G1 X175.289 Y26.13 E7.01668
G1 X176.287 Y26.632 E7.13558
G1 X177.247 Y27.203 E7.25446
G1 X178.163 Y27.842 E7.37333
G1 X179.031 Y28.544 E7.49215
G1 X179.847 Y29.307 E7.61105
G1 X180.606 Y30.127 E7.72997
G1 X181.305 Y30.998 E7.84884
G1 X181.939 Y31.918 E7.96775
G1 X182.506 Y32.88 E8.0866
G1 X183.003 Y33.88 E8.20546
G1 X183.426 Y34.914 E8.32436
G1 X183.775 Y35.975 E8.44324
G1 X184.047 Y37.058 E8.56208
G1 X184.241 Y38.158 E8.68097
G1 X184.355 Y39.27 E8.79994
G1 X184.39 Y40.312 E8.9109
G1 X184.39 Y94.087 E14.63431
G1 X188.387 Y94.087 E15.05972
G1 X189.503 Y94.127 E15.17857
G1 X190.614 Y94.247 E15.29751
G1 X191.713 Y94.446 E15.41638
G1 X192.795 Y94.723 E15.53525
G1 X193.854 Y95.076 E15.65406
G1 X194.886 Y95.505 E15.77301
G1 X195.884 Y96.007 E15.89191
G1 X196.844 Y96.578 E16.0108
G1 X197.76 Y97.217 E16.12967
G1 X198.628 Y97.919 E16.24848
G1 X199.444 Y98.682 E16.36738
G1 X200.203 Y99.502 E16.4863
G1 X200.902 Y100.373 E16.60517
G1 X201.536 Y101.293 E16.72408
G1 X202.103 Y102.255 E16.84293
G1 X202.6 Y103.255 E16.96179
G1 X203.023 Y104.289 E17.08069
G1 X203.372 Y105.35 E17.19957
G1 X203.644 Y106.433 E17.31841
G1 X203.838 Y107.533 E17.4373
G1 X203.952 Y108.645 E17.55627
G1 X203.987 Y109.687 E17.66723
G1 X203.987 Y259.688 E33.63221
G1 X203.947 Y260.804 E33.75106
G1 X203.827 Y261.915 E33.86999
G1 X203.628 Y263.014 E33.98887
G1 X203.351 Y264.096 E34.10774
G1 X202.998 Y265.155 E34.22655
G1 X202.569 Y266.187 E34.3455
G1 X202.067 Y267.185 E34.4644
G1 X201.496 Y268.145 E34.58328
G1 X200.857 Y269.061 E34.70215
G1 X200.155 Y269.929 E34.82097
G1 X199.392 Y270.745 E34.93987
G1 X198.572 Y271.504 E35.05879
G1 X197.701 Y272.203 E35.17766
G1 X196.781 Y272.837 E35.29657
G1 X195.819 Y273.404 E35.41542
G1 X194.819 Y273.901 E35.53427
G1 X193.785 Y274.324 E35.65318
G1 X192.724 Y274.673 E35.77205
G1 X191.641 Y274.945 E35.8909
G1 X190.541 Y275.139 E36.00978
G1 X189.429 Y275.253 E36.12876
G1 X188.387 Y275.288 E36.23972
G1 X170.75 Y275.288 E38.11687
G1 X169.634 Y275.248 E38.23573
G1 X168.523 Y275.128 E38.35466
G1 X167.424 Y274.929 E38.47353
G1 X166.342 Y274.652 E38.5924
G1 X165.283 Y274.299 E38.71121
G1 X164.251 Y273.87 E38.83016
G1 X163.253 Y273.368 E38.94906
G1 X162.293 Y272.797 E39.06795
G1 X161.377 Y272.158 E39.18682
G1 X160.509 Y271.456 E39.30563
G1 X159.693 Y270.693 E39.42453
G1 X158.934 Y269.873 E39.54346
G1 X158.235 Y269.002 E39.66232
G1 X157.601 Y268.082 E39.78124
G1 X157.034 Y267.12 E39.90009
G1 X156.537 Y266.12 E40.01894
G1 X156.114 Y265.086 E40.13784
G1 X155.765 Y264.025 E40.25672
G1 X155.493 Y262.942 E40.37557
G1 X155.299 Y261.842 E40.49445
G1 X155.185 Y260.73 E40.61342
G1 X155.15 Y259.688 E40.72439
G1 X155.15 Y196.125 E47.48955
G1 X143.237 Y196.125 E48.75748
G1 X143.237 Y259.688 E55.52265
G1 X143.197 Y260.804 E55.6415
G1 X143.077 Y261.915 E55.76043
G1 X142.878 Y263.014 E55.87931
G1 X142.601 Y264.096 E55.99818
G1 X142.248 Y265.155 E56.11699
G1 X141.819 Y266.187 E56.23594
G1 X141.317 Y267.185 E56.35484
G1 X140.746 Y268.145 E56.47372
G1 X140.107 Y269.061 E56.59259
G1 X139.405 Y269.929 E56.71141
G1 X138.642 Y270.745 E56.83031
G1 X137.822 Y271.504 E56.94923
G1 X136.951 Y272.203 E57.0681
G1 X136.031 Y272.837 E57.18701
G1 X135.069 Y273.404 E57.30586
G1 X134.069 Y273.901 E57.42471
G1 X133.035 Y274.324 E57.54362
G1 X131.974 Y274.673 E57.66249
G1 X130.891 Y274.945 E57.78134
G1 X129.791 Y275.139 E57.90022
G1 X128.679 Y275.253 E58.0192
G1 X127.637 Y275.288 E58.13016
G1 X110 Y275.288 E60.00731
G1 X108.884 Y275.248 E60.12617
G1 X107.773 Y275.128 E60.2451
G1 X106.674 Y274.929 E60.36397
G1 X105.592 Y274.652 E60.48284
G1 X104.533 Y274.299 E60.60165
G1 X103.501 Y273.87 E60.7206
G1 X102.503 Y273.368 E60.8395
G1 X101.543 Y272.797 E60.95839
G1 X100.627 Y272.158 E61.07726
G1 X99.759 Y271.456 E61.19607
G1 X98.943 Y270.693 E61.31497
G1 X98.184 Y269.873 E61.4339
G1 X97.485 Y269.002 E61.55276
G1 X96.851 Y268.082 E61.67168
G1 X96.284 Y267.12 E61.79053
G1 X95.787 Y266.12 E61.90938
G1 X95.364 Y265.086 E62.02828
G1 X95.015 Y264.025 E62.14716
G1 X94.743 Y262.942 E62.26601
G1 X94.549 Y261.842 E62.38489
G1 X94.435 Y260.73 E62.50386
G1 X94.4 Y259.688 E62.61483
G1 X94.4 Y109.687 E78.5798
G1 X94.44 Y108.571 E78.69865
G1 X94.56 Y107.46 E78.81759
G1 X94.759 Y106.361 E78.93646
G1 X95.036 Y105.279 E79.05533
G1 X95.389 Y104.22 E79.17414
G1 X95.818 Y103.188 E79.29309
G1 X96.32 Y102.19 E79.41199
G1 X96.891 Y101.23 E79.53087
G1 X97.53 Y100.314 E79.64974
G1 X98.232 Y99.446 E79.76856
G1 X98.995 Y98.63 E79.88746
G1 X99.815 Y97.871 E80.00638
G1 X100.686 Y97.172 E80.12525
G1 X101.606 Y96.538 E80.24416
G1 X102.568 Y95.971 E80.36301
G1 X103.568 Y95.474 E80.48187
G1 X104.602 Y95.051 E80.60077
G1 X105.663 Y94.702 E80.71965
G1 X106.746 Y94.43 E80.83849
G1 X107.846 Y94.236 E80.95738
G1 X108.958 Y94.122 E81.07635
G1 X110 Y94.087 E81.18731
G1 X113.997 Y94.087 E81.61272
G1 X113.997 Y40.312 E87.33613
G1 X114.037 Y39.196 E87.45498
G1 X114.157 Y38.085 E87.57392
G1 X114.356 Y36.986 E87.69279
G1 X114.633 Y35.904 E87.81166
G0 F7500 X115.432 Y36.022
G1 F1500 X115.786 Y34.993 E87.92748
G1 X116.214 Y33.993 E88.04325
G1 X116.714 Y33.027 E88.15902
G1 X117.284 Y32.1 E88.27484
G1 X117.921 Y31.218 E88.39064
G1 X118.62 Y30.384 E88.50646
G1 X119.379 Y29.605 E88.62222
G1 X120.194 Y28.883 E88.7381
G1 X121.058 Y28.223 E88.85382
G1 X121.97 Y27.629 E88.96966
G1 X122.922 Y27.103 E89.08542
G1 X123.91 Y26.648 E89.20119
G1 X124.929 Y26.267 E89.31698
G1 X125.974 Y25.962 E89.43284
G1 X127.038 Y25.735 E89.54863
G1 X128.115 Y25.586 E89.66435
G1 X129.597 Y25.512 E89.82228
G1 X168.79 Y25.512 E93.99369
G1 X169.877 Y25.552 E94.10946
G1 X170.959 Y25.672 E94.22532
G1 X172.028 Y25.871 E94.34106
G1 X173.08 Y26.147 E94.45681
G1 X174.109 Y26.501 E94.57263
G1 X175.109 Y26.929 E94.6884
G1 X176.075 Y27.429 E94.80417
G1 X177.002 Y27.999 E94.91999
G1 X177.884 Y28.636 E95.03579
G1 X178.718 Y29.335 E95.15161
G1 X179.497 Y30.094 E95.26737
G1 X180.219 Y30.909 E95.38325
G1 X180.879 Y31.773 E95.49897
G1 X181.473 Y32.685 E95.61481
G1 X181.999 Y33.637 E95.73057
G1 X182.454 Y34.625 E95.84634
G1 X182.835 Y35.644 E95.96213
G1 X183.14 Y36.689 E96.07799
G1 X183.367 Y37.753 E96.19378
G1 X183.516 Y38.83 E96.3095
G1 X183.59 Y40.312 E96.46743
G1 X183.59 Y94.887 E102.27598
G1 X188.387 Y94.887 E102.78654
G1 X189.474 Y94.927 E102.90231
G1 X190.556 Y95.047 E103.01817
G1 X191.625 Y95.246 E103.1339
G1 X192.677 Y95.522 E103.24966
G1 X193.706 Y95.876 E103.36548
G1 X194.706 Y96.304 E103.48125
G1 X195.672 Y96.804 E103.59702
G1 X196.599 Y97.374 E103.71284
G1 X197.481 Y98.011 E103.82864
G1 X198.315 Y98.71 E103.94446
G1 X199.094 Y99.469 E104.06022
G1 X199.816 Y100.284 E104.1761
G1 X200.476 Y101.148 E104.29182
G1 X201.07 Y102.06 E104.40766
G1 X201.596 Y103.012 E104.52342
G1 X202.051 Y104 E104.63919
G1 X202.432 Y105.019 E104.75498
G1 X202.737 Y106.064 E104.87084
G1 X202.964 Y107.128 E104.98663
G1 X203.113 Y108.205 E105.10235
G1 X203.187 Y109.687 E105.26028
G1 X203.187 Y259.688 E121.22525
G1 X203.147 Y260.775 E121.34102
G1 X203.027 Y261.857 E121.45689
G1 X202.828 Y262.926 E121.57262
G1 X202.552 Y263.978 E121.68838
G1 X202.198 Y265.007 E121.80419
G1 X201.77 Y266.007 E121.91996
G1 X201.27 Y266.973 E122.03573
G1 X200.7 Y267.9 E122.15156
G1 X200.063 Y268.782 E122.26735
G1 X199.364 Y269.616 E122.38317
G1 X198.605 Y270.395 E122.49893
G1 X197.79 Y271.117 E122.61481
G1 X196.926 Y271.777 E122.73053
G1 X196.014 Y272.371 E122.84637
G1 X195.062 Y272.897 E122.96213
G1 X194.074 Y273.352 E123.0779
G1 X193.055 Y273.733 E123.19369
G1 X192.01 Y274.038 E123.30955
G1 X190.946 Y274.265 E123.42535
G1 X189.869 Y274.414 E123.54107
G1 X188.387 Y274.488 E123.69899
G1 X170.75 Y274.488 E125.57614
G1 X169.663 Y274.448 E125.69191
G1 X168.581 Y274.328 E125.80778
G1 X167.512 Y274.129 E125.92351
G1 X166.46 Y273.853 E126.03927
G1 X165.431 Y273.499 E126.15509
G1 X164.431 Y273.071 E126.27086
G1 X163.465 Y272.571 E126.38663
G1 X162.538 Y272.001 E126.50245
G1 X161.656 Y271.364 E126.61824
G1 X160.822 Y270.665 E126.73406
G1 X160.043 Y269.906 E126.84982
G1 X159.321 Y269.091 E126.96571
G1 X158.661 Y268.227 E127.08142
G1 X158.067 Y267.315 E127.19726
G1 X157.541 Y266.363 E127.31302
G1 X157.086 Y265.375 E127.4288
G1 X156.705 Y264.356 E127.54458
G1 X156.4 Y263.311 E127.66045
G1 X156.173 Y262.247 E127.77624
G1 X156.024 Y261.17 E127.89196
G1 X155.95 Y259.688 E128.04989
G1 X155.95 Y195.325 E134.9002
G1 X142.437 Y195.325 E136.33842
G1 X142.437 Y259.688 E143.18873
G1 X142.397 Y260.775 E143.3045
G1 X142.277 Y261.857 E143.42037
G1 X142.078 Y262.926 E143.5361
G1 X141.802 Y263.978 E143.65185
G1 X141.448 Y265.007 E143.76767
G1 X141.02 Y266.007 E143.88344
G1 X140.52 Y266.973 E143.99921
G1 X139.95 Y267.9 E144.11503
G1 X139.313 Y268.782 E144.23083
G1 X138.614 Y269.616 E144.34665
G1 X137.855 Y270.395 E144.46241
G1 X137.04 Y271.117 E144.57829
G1 X136.176 Y271.777 E144.69401
G1 X135.264 Y272.371 E144.80985
G1 X134.312 Y272.897 E144.92561
G1 X133.324 Y273.352 E145.04138
G1 X132.305 Y273.733 E145.15717
G1 X131.26 Y274.038 E145.27303
G1 X130.196 Y274.265 E145.38882
G1 X129.119 Y274.414 E145.50454
G1 X127.637 Y274.488 E145.66247
G1 X110 Y274.488 E147.53962
G1 X108.913 Y274.448 E147.65539
G1 X107.831 Y274.328 E147.77126
G1 X106.762 Y274.129 E147.88699
G1 X105.71 Y273.853 E148.00274
G1 X104.681 Y273.499 E148.11856
G1 X103.681 Y273.071 E148.23433
G1 X102.715 Y272.571 E148.3501
G1 X101.788 Y272.001 E148.46593
G1 X100.906 Y271.364 E148.58172
G1 X100.072 Y270.665 E148.69754
G1 X99.293 Y269.906 E148.8133
G1 X98.571 Y269.091 E148.92918
G1 X97.911 Y268.227 E149.0449
G1 X97.317 Y267.315 E149.16074
G1 X96.791 Y266.363 E149.2765
G1 X96.336 Y265.375 E149.39227
G1 X95.955 Y264.356 E149.50806
G1 X95.65 Y263.311 E149.62392
G1 X95.423 Y262.247 E149.73972
G1 X95.274 Y261.17 E149.85544
G1 X95.2 Y259.688 E150.01336
G1 X95.2 Y109.687 E165.97834
G1 X95.24 Y108.6 E166.09411
G1 X95.36 Y107.518 E166.20997
G1 X95.559 Y106.449 E166.3257
G1 X95.835 Y105.397 E166.44146
G1 X96.189 Y104.368 E166.55728
G1 X96.617 Y103.368 E166.67305
G1 X97.117 Y102.402 E166.78882
G1 X97.687 Y101.475 E166.90464
G1 X98.324 Y100.593 E167.02044
G1 X99.023 Y99.759 E167.13626
G1 X99.782 Y98.98 E167.25201
G1 X100.597 Y98.258 E167.3679
G1 X101.461 Y97.598 E167.48362
G1 X102.373 Y97.004 E167.59946
G1 X103.325 Y96.478 E167.71522
G1 X104.313 Y96.023 E167.83099
G1 X105.332 Y95.642 E167.94677
G1 X106.377 Y95.337 E168.06264
G1 X107.441 Y95.11 E168.17843
G1 X108.518 Y94.961 E168.29415
G1 X110 Y94.887 E168.45208
G1 X114.797 Y94.887 E168.96264
G1 X114.797 Y40.312 E174.77119
G1 X114.837 Y39.225 E174.88696
G1 X114.957 Y38.143 E175.00282
G1 X115.156 Y37.074 E175.11855
G1 X115.432 Y36.022 E175.23431
G0 F7500 X116.232 Y36.143
G1 F1500 X116.585 Y35.145 E175.34698
G1 X117.013 Y34.177 E175.45962
G1 X117.512 Y33.244 E175.57224
G1 X118.08 Y32.352 E175.68479
G1 X118.714 Y31.505 E175.79739
G1 X119.411 Y30.708 E175.91008
G1 X120.165 Y29.966 E176.02267
G1 X120.973 Y29.283 E176.13528
G1 X121.831 Y28.664 E176.24788
G1 X122.733 Y28.11 E176.36055
G1 X123.674 Y27.627 E176.47312
G1 X124.649 Y27.216 E176.58574
G1 X125.652 Y26.879 E176.69835
G1 X126.678 Y26.62 E176.81098
G1 X127.72 Y26.438 E176.92356
G1 X128.774 Y26.336 E177.03626
G1 X129.597 Y26.312 E177.12389
G1 X168.79 Y26.312 E181.2953
G1 X169.847 Y26.352 E181.40788
G1 X170.899 Y26.472 E181.52057
G1 X171.938 Y26.671 E181.63317
G1 X172.959 Y26.947 E181.74573
G1 X173.957 Y27.3 E181.8584
G1 X174.925 Y27.728 E181.97105
G1 X175.858 Y28.227 E182.08366
G1 X176.75 Y28.795 E182.19621
G1 X177.597 Y29.429 E182.30882
G1 X178.394 Y30.126 E182.42151
G1 X179.136 Y30.88 E182.5341
G1 X179.819 Y31.688 E182.6467
G1 X180.438 Y32.546 E182.75931
G1 X180.992 Y33.448 E182.87197
G1 X181.475 Y34.389 E182.98455
G1 X181.886 Y35.364 E183.09716
G1 X182.223 Y36.367 E183.20978
G1 X182.482 Y37.393 E183.3224
G1 X182.664 Y38.435 E183.43498
G1 X182.766 Y39.489 E183.54769
G1 X182.79 Y40.312 E183.63532
G1 X182.79 Y95.687 E189.52902
G1 X188.387 Y95.687 E190.12472
G1 X189.444 Y95.727 E190.2373
G1 X190.496 Y95.847 E190.34999
G1 X191.535 Y96.046 E190.46258
G1 X192.556 Y96.322 E190.57515
G1 X193.554 Y96.675 E190.68782
G1 X194.522 Y97.103 E190.80047
G1 X195.455 Y97.602 E190.91308
G1 X196.347 Y98.17 E191.02563
G1 X197.194 Y98.804 E191.13824
G1 X197.991 Y99.501 E191.25093
G1 X198.733 Y100.255 E191.36352
G1 X199.416 Y101.063 E191.47612
G1 X200.035 Y101.921 E191.58873
G1 X200.589 Y102.823 E191.70139
G1 X201.072 Y103.764 E191.81396
G1 X201.483 Y104.739 E191.92658
G1 X201.82 Y105.742 E192.0392
G1 X202.079 Y106.768 E192.15182
G1 X202.261 Y107.81 E192.2644
G1 X202.363 Y108.864 E192.37711
G1 X202.387 Y109.687 E192.46474
G1 X202.387 Y259.688 E208.42971
G1 X202.347 Y260.745 E208.54229
G1 X202.227 Y261.797 E208.65498
G1 X202.028 Y262.836 E208.76757
G1 X201.752 Y263.857 E208.88014
G1 X201.399 Y264.855 E208.99281
G1 X200.971 Y265.823 E209.10546
G1 X200.472 Y266.756 E209.21807
G1 X199.904 Y267.648 E209.33062
G1 X199.27 Y268.495 E209.44323
G1 X198.573 Y269.292 E209.55592
G1 X197.819 Y270.034 E209.66851
G1 X197.011 Y270.717 E209.78111
G1 X196.153 Y271.336 E209.89372
G1 X195.251 Y271.89 E210.00638
G1 X194.31 Y272.373 E210.11896
G1 X193.335 Y272.784 E210.23157
G1 X192.332 Y273.121 E210.34419
G1 X191.306 Y273.38 E210.45681
G1 X190.264 Y273.562 E210.56939
G1 X189.21 Y273.664 E210.6821
G1 X188.387 Y273.688 E210.76973
G1 X170.75 Y273.688 E212.64688
G1 X169.693 Y273.648 E212.75946
G1 X168.641 Y273.528 E212.87215
G1 X167.602 Y273.329 E212.98474
G1 X166.581 Y273.053 E213.09731
G1 X165.583 Y272.7 E213.20998
G1 X164.615 Y272.272 E213.32263
G1 X163.682 Y271.773 E213.43524
G1 X162.79 Y271.205 E213.54779
G1 X161.943 Y270.571 E213.6604
G1 X161.146 Y269.874 E213.77308
G1 X160.404 Y269.12 E213.88568
G1 X159.721 Y268.312 E213.99828
G1 X159.102 Y267.454 E214.11088
G1 X158.548 Y266.552 E214.22355
G1 X158.065 Y265.611 E214.33612
G1 X157.654 Y264.636 E214.44874
G1 X157.317 Y263.633 E214.56135
G1 X157.058 Y262.607 E214.67398
G1 X156.876 Y261.565 E214.78656
G1 X156.774 Y260.511 E214.89927
G1 X156.75 Y259.688 E214.9869
G1 X156.75 Y194.525 E221.92235
G1 X141.637 Y194.525 E223.53087
G1 X141.637 Y259.688 E230.46632
G1 X141.597 Y260.745 E230.5789
G1 X141.477 Y261.797 E230.6916
G1 X141.278 Y262.836 E230.80419
G1 X141.002 Y263.857 E230.91676
G1 X140.649 Y264.855 E231.02943
G1 X140.221 Y265.823 E231.14207
G1 X139.722 Y266.756 E231.25468
G1 X139.154 Y267.648 E231.36724
G1 X138.52 Y268.495 E231.47984
G1 X137.823 Y269.292 E231.59253
G1 X137.069 Y270.034 E231.70512
G1 X136.261 Y270.717 E231.81773
G1 X135.403 Y271.336 E231.93033
G1 X134.501 Y271.89 E232.04299
G1 X133.56 Y272.373 E232.15557
G1 X132.585 Y272.784 E232.26818
G1 X131.582 Y273.121 E232.3808
G1 X130.556 Y273.38 E232.49343
G1 X129.514 Y273.562 E232.60601
G1 X128.46 Y273.664 E232.71871
G1 X127.637 Y273.688 E232.80634
G1 X110 Y273.688 E234.68349
G1 X108.943 Y273.648 E234.79607
G1 X107.891 Y273.528 E234.90876
G1 X106.852 Y273.329 E235.02136
G1 X105.831 Y273.053 E235.13392
G1 X104.833 Y272.7 E235.24659
G1 X103.865 Y272.272 E235.35924
G1 X102.932 Y271.773 E235.47185
