;FLAVOR:Marlin
;TIME:599
;Filament used: 2.34868m
;Layer height: 0.6
;MINX:135.381
;MINY:135.332
;MINZ:0.6
;MAXX:164.619
;MAXY:164.668
;MAXZ:19.8
;Generated with Cura_SteamEngine master
M140 S50
M105
M190 S50
M104 S220
M105
M109 S220
M82 ;absolute extrusion mode
G28 ;Home
G1 Z15.0 F2000 ;Move the platform
G92 E0
G92 E0
;LAYER_COUNT:33
;LAYER:0
M107 P2
G0 F9000 X137.876 Y136.357 Z0.6
;TYPE:SKIRT
G1 F2400 X138.327 Y136.009 E0.12789
G1 X138.821 Y135.729 E0.25537
G1 X139.35 Y135.52 E0.38307
G1 X139.904 Y135.387 E0.51098
G1 X140.569 Y135.332 E0.66079
G1 X160.569 Y135.332 E5.1509
G1 X161.136 Y135.372 E5.27852
G1 X161.693 Y135.491 E5.40639
G1 X162.227 Y135.687 E5.53409
G1 X162.728 Y135.956 E5.66176
G1 X163.187 Y136.292 E5.78947
G1 X163.594 Y136.689 E5.91711
G1 X163.942 Y137.14 E6.045
G1 X164.222 Y137.634 E6.17248
G1 X164.431 Y138.163 E6.30018
G1 X164.564 Y138.717 E6.42809
G1 X164.619 Y139.382 E6.5779
G1 X164.619 Y159.382 E11.06802
G1 X164.579 Y159.949 E11.19563
G1 X164.46 Y160.506 E11.3235
G1 X164.264 Y161.04 E11.4512
G1 X163.995 Y161.541 E11.57887
G1 X163.659 Y162 E11.70658
G1 X163.262 Y162.407 E11.83422
G1 X163.106 Y162.527 E11.87841
G1 X162.972 Y162.777 E11.94209
G1 X162.636 Y163.236 E12.0698
G1 X162.239 Y163.643 E12.19744
G1 X161.788 Y163.991 E12.32533
G1 X161.294 Y164.271 E12.45281
G1 X160.765 Y164.48 E12.58051
G1 X160.211 Y164.613 E12.70842
G1 X159.546 Y164.668 E12.85823
G1 X159.164 Y164.668 E12.94399
G1 X158.895 Y164.668 E13.00438
G1 X158.787 Y164.668 E13.02863
G1 X158.22 Y164.628 E13.15624
G1 X157.663 Y164.509 E13.28411
G1 X157.129 Y164.313 E13.41182
G1 X156.628 Y164.044 E13.53948
G1 X156.169 Y163.708 E13.66719
G1 X155.886 Y163.432 E13.75594
G1 X140.569 Y163.432 E17.19469
G1 X140.002 Y163.392 E17.32231
G1 X139.445 Y163.273 E17.45018
G1 X138.911 Y163.077 E17.57788
G1 X138.41 Y162.808 E17.70555
G1 X137.951 Y162.472 E17.83326
G1 X137.544 Y162.075 E17.9609
G1 X137.209 Y161.641 E18.08399
G1 X136.813 Y161.351 E18.19418
G1 X136.406 Y160.954 E18.32183
G1 X136.058 Y160.503 E18.44972
G1 X135.778 Y160.009 E18.5772
G1 X135.569 Y159.48 E18.7049
G1 X135.436 Y158.926 E18.83281
G1 X135.381 Y158.261 E18.98261
G1 X135.381 Y157.878 E19.0686
G1 X135.381 Y157.609 E19.12899
G1 X135.381 Y157.502 E19.15301
G1 X135.421 Y156.935 E19.28062
G1 X135.54 Y156.378 E19.4085
G1 X135.736 Y155.844 E19.5362
G1 X136.005 Y155.343 E19.66387
G1 X136.341 Y154.884 E19.79157
G1 X136.519 Y154.702 E19.84873
G1 X136.519 Y139.382 E23.28816
G1 X136.559 Y138.815 E23.41577
G1 X136.678 Y138.258 E23.54364
G1 X136.874 Y137.724 E23.67135
G1 X137.143 Y137.223 E23.79901
G1 X137.479 Y136.764 E23.92672
G1 X137.876 Y136.357 E24.05437
G0 F9000 X138.368 Y137.129
G1 F2400 X138.753 Y136.808 E24.1669
G1 X139.185 Y136.552 E24.27964
G1 X139.652 Y136.369 E24.39225
G1 X140.141 Y136.261 E24.50467
G1 X140.569 Y136.232 E24.60098
G1 X160.569 Y136.232 E29.0911
G1 X161.069 Y136.272 E29.20371
G1 X161.556 Y136.391 E29.31626
G1 X162.019 Y136.585 E29.42897
G1 X162.444 Y136.851 E29.54153
G1 X162.822 Y137.181 E29.65418
G1 X163.143 Y137.566 E29.76672
G1 X163.399 Y137.998 E29.87946
G1 X163.582 Y138.465 E29.99206
G1 X163.69 Y138.954 E30.10449
G1 X163.719 Y139.382 E30.2008
G1 X163.719 Y159.382 E34.69092
G1 X163.679 Y159.882 E34.80353
G1 X163.56 Y160.369 E34.91608
G1 X163.366 Y160.832 E35.02878
G1 X163.1 Y161.257 E35.14135
G1 X162.77 Y161.635 E35.254
G1 X162.393 Y161.95 E35.36429
G1 X162.343 Y162.068 E35.39307
G1 X162.077 Y162.493 E35.50563
G1 X161.747 Y162.871 E35.61828
G1 X161.362 Y163.192 E35.73082
G1 X160.93 Y163.448 E35.84355
G1 X160.463 Y163.631 E35.95616
G1 X159.974 Y163.739 E36.06859
G1 X159.546 Y163.768 E36.1649
G1 X159.164 Y163.768 E36.25066
G1 X158.895 Y163.768 E36.31105
G1 X158.787 Y163.768 E36.3353
G1 X158.287 Y163.728 E36.44791
G1 X157.8 Y163.609 E36.56046
G1 X157.337 Y163.415 E36.67316
G1 X156.912 Y163.149 E36.78573
G1 X156.534 Y162.819 E36.89838
G1 X156.295 Y162.532 E36.98223
G1 X140.569 Y162.532 E40.51281
G1 X140.069 Y162.492 E40.62542
G1 X139.582 Y162.373 E40.73797
G1 X139.119 Y162.179 E40.85067
G1 X138.694 Y161.913 E40.96324
G1 X138.316 Y161.583 E41.07589
G1 X137.995 Y161.198 E41.18843
G1 X137.871 Y160.989 E41.24298
G1 X137.556 Y160.792 E41.32639
G1 X137.178 Y160.462 E41.43905
G1 X136.857 Y160.077 E41.55158
G1 X136.601 Y159.645 E41.66432
G1 X136.418 Y159.178 E41.77693
G1 X136.31 Y158.689 E41.88936
G1 X136.281 Y158.261 E41.98567
G1 X136.281 Y157.878 E42.07165
G1 X136.281 Y157.609 E42.13204
G1 X136.281 Y157.502 E42.15607
G1 X136.321 Y157.002 E42.26868
G1 X136.44 Y156.515 E42.38123
G1 X136.634 Y156.052 E42.49393
G1 X136.9 Y155.627 E42.60649
G1 X137.23 Y155.249 E42.71915
G1 X137.419 Y155.091 E42.77445
G1 X137.419 Y139.382 E46.30121
G1 X137.459 Y138.882 E46.41383
G1 X137.578 Y138.395 E46.52638
G1 X137.772 Y137.932 E46.63908
G1 X138.038 Y137.507 E46.75164
G1 X138.368 Y137.129 E46.8643
G0 F9000 X138.93 Y137.841
G1 F2400 X139.248 Y137.561 E46.95942
G1 X139.613 Y137.345 E47.05464
G1 X140.012 Y137.202 E47.14979
G1 X140.569 Y137.132 E47.27583
G1 X160.569 Y137.132 E51.76595
G1 X160.991 Y137.172 E51.86111
G1 X161.398 Y137.29 E51.95625
G1 X161.775 Y137.483 E52.05133
G1 X162.11 Y137.743 E52.14654
G1 X162.39 Y138.061 E52.24166
G1 X162.606 Y138.426 E52.33688
G1 X162.749 Y138.825 E52.43204
G1 X162.819 Y139.382 E52.55807
G1 X162.819 Y159.382 E57.04819
G1 X162.779 Y159.804 E57.14335
G1 X162.661 Y160.211 E57.23849
G1 X162.468 Y160.588 E57.33358
G1 X162.208 Y160.923 E57.42878
G1 X161.89 Y161.203 E57.5239
G1 X161.671 Y161.332 E57.58097
G1 X161.638 Y161.447 E57.60783
G1 X161.445 Y161.824 E57.70291
G1 X161.185 Y162.159 E57.79811
G1 X160.867 Y162.439 E57.89324
G1 X160.502 Y162.655 E57.98846
G1 X160.103 Y162.798 E58.08361
G1 X159.546 Y162.868 E58.20965
G1 X159.164 Y162.868 E58.29541
G1 X158.895 Y162.868 E58.3558
G1 X158.787 Y162.868 E58.38005
G1 X158.365 Y162.828 E58.47521
G1 X157.958 Y162.71 E58.57035
G1 X157.581 Y162.517 E58.66544
G1 X157.246 Y162.257 E58.76064
G1 X156.966 Y161.939 E58.85576
G1 X156.784 Y161.632 E58.93589
G1 X140.569 Y161.632 E62.57625
G1 X140.147 Y161.592 E62.67142
G1 X139.74 Y161.474 E62.76655
G1 X139.363 Y161.281 E62.86164
G1 X139.028 Y161.021 E62.95684
G1 X138.748 Y160.703 E63.05197
G1 X138.532 Y160.338 E63.14718
G1 X138.523 Y160.312 E63.15336
G1 X138.225 Y160.16 E63.22846
G1 X137.89 Y159.9 E63.32367
G1 X137.61 Y159.582 E63.41879
G1 X137.394 Y159.217 E63.51401
G1 X137.251 Y158.818 E63.60917
G1 X137.181 Y158.261 E63.7352
G1 X137.181 Y157.878 E63.82119
G1 X137.181 Y157.609 E63.88158
G1 X137.181 Y157.502 E63.9056
G1 X137.221 Y157.08 E64.00077
G1 X137.339 Y156.673 E64.0959
G1 X137.532 Y156.296 E64.19099
G1 X137.792 Y155.961 E64.28619
G1 X138.11 Y155.681 E64.38132
G1 X138.319 Y155.557 E64.43587
G1 X138.319 Y139.382 E68.06726
G1 X138.359 Y138.96 E68.16242
G1 X138.477 Y138.553 E68.25756
G1 X138.67 Y138.176 E68.35265
G1 X138.93 Y137.841 E68.44785
G0 F9000 X139.564 Y138.481
G1 F2400 X139.811 Y138.265 E68.52151
G1 X140.102 Y138.115 E68.59501
G1 X140.569 Y138.032 E68.7015
G1 X160.569 Y138.032 E73.19162
G1 X160.895 Y138.072 E73.26536
G1 X161.201 Y138.189 E73.33891
G1 X161.47 Y138.377 E73.41259
G1 X161.686 Y138.624 E73.48625
G1 X161.836 Y138.915 E73.55975
G1 X161.919 Y139.382 E73.66624
G1 X161.919 Y159.382 E78.15636
G1 X161.879 Y159.708 E78.2301
G1 X161.762 Y160.014 E78.30364
G1 X161.574 Y160.283 E78.37732
G1 X161.327 Y160.499 E78.45099
G1 X161.036 Y160.649 E78.52449
G1 X160.889 Y160.675 E78.558
G1 X160.856 Y160.944 E78.61885
G1 X160.739 Y161.25 E78.6924
G1 X160.551 Y161.519 E78.76608
G1 X160.304 Y161.735 E78.83974
G1 X160.013 Y161.885 E78.91324
G1 X159.546 Y161.968 E79.01973
G1 X159.164 Y161.968 E79.10549
G1 X158.895 Y161.968 E79.16588
G1 X158.787 Y161.968 E79.19013
G1 X158.461 Y161.928 E79.26387
G1 X158.155 Y161.811 E79.33742
G1 X157.886 Y161.623 E79.4111
G1 X157.67 Y161.376 E79.48476
G1 X157.52 Y161.085 E79.55826
G1 X157.457 Y160.732 E79.63876
G1 X140.569 Y160.732 E83.43022
G1 X140.243 Y160.692 E83.50396
G1 X139.937 Y160.575 E83.57751
G1 X139.668 Y160.387 E83.65119
G1 X139.452 Y160.14 E83.72485
G1 X139.302 Y159.849 E83.79835
G1 X139.256 Y159.59 E83.85741
G1 X139.105 Y159.571 E83.89158
G1 X138.799 Y159.454 E83.96513
G1 X138.53 Y159.266 E84.03881
G1 X138.314 Y159.019 E84.11247
G1 X138.164 Y158.728 E84.18597
G1 X138.081 Y158.261 E84.29246
G1 X138.081 Y157.878 E84.37844
G1 X138.081 Y157.609 E84.43884
G1 X138.081 Y157.502 E84.46286
G1 X138.121 Y157.176 E84.5366
G1 X138.238 Y156.87 E84.61015
G1 X138.426 Y156.601 E84.68383
G1 X138.673 Y156.385 E84.75749
G1 X138.964 Y156.235 E84.83099
G1 X139.219 Y156.19 E84.88912
G1 X139.219 Y139.382 E88.66262
G1 X139.259 Y139.056 E88.73636
G1 X139.376 Y138.75 E88.80991
G1 X139.564 Y138.481 E88.88359
G0 F9000 X140.27 Y139.045
G1 F2400 X140.434 Y138.953 E88.9258
G1 X140.569 Y138.932 E88.95648
G1 X160.569 Y138.932 E93.44659
G1 X160.753 Y138.972 E93.48887
G1 X160.906 Y139.083 E93.5313
G1 X160.998 Y139.247 E93.57352
G1 X161.019 Y139.382 E93.60419
G1 X161.019 Y159.382 E98.09431
G1 X160.979 Y159.566 E98.13659
G1 X160.868 Y159.719 E98.17902
G1 X160.704 Y159.811 E98.22124
G1 X160.569 Y159.832 E98.25191
G1 X159.996 Y159.832 E98.38055
G1 X159.996 Y160.618 E98.55702
G1 X159.956 Y160.802 E98.59929
G1 X159.845 Y160.955 E98.64173
G1 X159.681 Y161.047 E98.68394
G1 X159.546 Y161.068 E98.71462
G1 X159.164 Y161.068 E98.80038
G1 X158.895 Y161.068 E98.86077
G1 X158.603 Y161.028 E98.92694
G1 X158.45 Y160.917 E98.96937
G1 X158.358 Y160.753 E99.01159
G1 X158.337 Y160.618 E99.04226
G1 X158.337 Y159.832 E99.21873
G1 X140.569 Y159.832 E103.20775
G1 X140.385 Y159.792 E103.25002
G1 X140.232 Y159.681 E103.29246
G1 X140.14 Y159.517 E103.33467
G1 X140.119 Y159.382 E103.36535
G1 X140.119 Y158.711 E103.51599
G1 X139.431 Y158.711 E103.67045
G1 X139.247 Y158.671 E103.71272
G1 X139.094 Y158.56 E103.75516
G1 X139.002 Y158.396 E103.79738
G1 X138.981 Y158.261 E103.82805
G1 X138.981 Y157.878 E103.91404
G1 X138.981 Y157.609 E103.97443
G1 X139.021 Y157.318 E104.04037
G1 X139.132 Y157.165 E104.08281
G1 X139.296 Y157.073 E104.12503
G1 X139.431 Y157.052 E104.1557
G1 X140.119 Y157.052 E104.31016
G1 X140.119 Y139.382 E108.27718
G1 X140.159 Y139.198 E108.31945
G1 X140.27 Y139.045 E108.36189
;MESH:CUBOTESTE-GRANA3D.stl
G0 F9000 X141.933 Y140.746
G0 X141.989 Y157.962
G0 X141.019 Y158.932
;TYPE:WALL-OUTER
G1 F2400 X141.019 Y139.832 E112.64995
G1 X160.119 Y139.832 E116.93802
G1 X160.119 Y158.932 E121.22608
G1 X141.019 Y158.932 E125.51414
G0 F9000 X141.019 Y158.732
G0 X142.009 Y157.942
G0 X141.919 Y158.032
;TYPE:WALL-INNER
G1 F2400 X141.919 Y140.732 E129.3981
G1 X159.219 Y140.732 E133.28205
G1 X159.219 Y158.032 E137.166
G1 X141.919 Y158.032 E141.04995
G0 F9000 X141.989 Y157.962
G0 X142.809 Y157.142
M104 S240
;TYPE:SKIN
G1 F2400 X142.809 Y141.622 E144.53428
G1 X158.329 Y141.622 E148.01862
G1 X158.329 Y157.142 E151.50295
G1 X142.809 Y157.142 E154.98728
G0 F9000 X144.023 Y156.751
G1 F2400 X143.198 Y155.926 E155.24922
G0 F9000 X143.198 Y154.653
G1 F2400 X145.296 Y156.751 E155.91533
G0 F9000 X146.569 Y156.751
G1 F2400 X143.198 Y153.38 E156.98562
G0 F9000 X143.198 Y152.107
G1 F2400 X147.841 Y156.751 E158.45993
G0 F9000 X149.114 Y156.751
G1 F2400 X143.198 Y150.835 E160.33825
G0 F9000 X143.198 Y149.562
G1 F2400 X150.387 Y156.751 E162.62076
G0 F9000 X151.66 Y156.751
G1 F2400 X143.198 Y148.289 E165.30744
G0 F9000 X143.198 Y147.016
G1 F2400 X152.933 Y156.751 E168.39829
G0 F9000 X154.205 Y156.751
G1 F2400 X143.198 Y145.743 E171.89316
G0 F9000 X143.198 Y144.471
G1 F2400 X155.478 Y156.751 E175.79206
G0 F9000 X156.751 Y156.751
G1 F2400 X143.198 Y143.198 E180.09512
G0 F9000 X143.284 Y142.011
G1 F2400 X157.938 Y156.665 E184.74776
G0 F9000 X157.938 Y155.393
G1 F2400 X144.557 Y142.011 E188.99638
G0 F9000 X145.83 Y142.011
G1 F2400 X157.938 Y154.12 E192.84082
G0 F9000 X157.938 Y152.847
G1 F2400 X147.102 Y142.011 E196.28124
G0 F9000 X148.375 Y142.011
G1 F2400 X157.938 Y151.574 E199.31748
G0 F9000 X157.938 Y150.301
G1 F2400 X149.648 Y142.011 E201.94955
G0 F9000 X150.921 Y142.011
G1 F2400 X157.938 Y149.029 E204.17761
G0 F9000 X157.938 Y147.756
G1 F2400 X152.194 Y142.011 E206.00148
G0 F9000 X153.466 Y142.011
G1 F2400 X157.938 Y146.483 E207.42134
G0 F9000 X157.938 Y145.21
G1 F2400 X154.739 Y142.011 E208.43702
G0 F9000 X156.012 Y142.011
G1 F2400 X157.938 Y143.937 E209.04852
G0 F9000 X157.938 Y142.665
G1 F2400 X157.285 Y142.011 E209.25601
;MESH:NONMESH
G0 F300 X157.285 Y142.011 Z1.2
G0 F9000 X141.989 Y157.962
G0 X141.469 Y158.482
;TIME_ELAPSED:31.358579
;LAYER:1
M106 S127.5 P2
;TYPE:WALL-INNER
;MESH:CUBOTESTE-GRANA3D.stl
G1 F2400 X141.469 Y140.282 E211.98001
G1 X159.669 Y140.282 E214.70402
G1 X159.669 Y158.482 E217.42802
G1 X141.469 Y158.482 E220.15203
G0 F7500 X149.796 Y158.754
G0 X149.818 Y159.082
G0 X149.819 Y159.082
;TYPE:WALL-OUTER
G1 F2400 X149.819 Y160.318 E220.33702
G1 X149.768 Y160.318 E220.34465
G1 X149.768 Y159.082 E220.52965
G1 X148.698 Y159.082 E220.68979
G1 X148.698 Y160.318 E220.87479
G1 X148.576 Y160.318 E220.89305
G1 X148.576 Y159.082 E221.07804
G1 X146.862 Y159.082 E221.33457
G1 X146.862 Y160.318 E221.51957
G1 X146.757 Y160.318 E221.53528
G1 X146.757 Y159.082 E221.72028
G1 X142.914 Y159.082 E222.29546
G1 X142.913 Y159.082 E222.29561
G1 X142.042 Y159.082 E222.42597
G1 X142.042 Y160.318 E222.61097
G1 X141.741 Y160.318 E222.65602
G1 X141.741 Y159.082 E222.84101
G1 X140.869 Y159.082 E222.97152
G1 X140.869 Y158.39 E223.07509
G1 X139.731 Y158.39 E223.24542
G1 X139.731 Y158.178 E223.27715
G1 X140.869 Y158.178 E223.44747
G1 X140.869 Y155.623 E223.82988
G1 X140.869 Y155.619 E223.83048
G1 X140.869 Y154.069 E224.06247
G1 X139.731 Y154.069 E224.2328
G1 X139.731 Y153.977 E224.24657
G1 X140.869 Y153.977 E224.41689
G1 X140.869 Y153.057 E224.55459
G1 X139.731 Y153.057 E224.72491
G1 X139.731 Y152.935 E224.74317
G1 X140.869 Y152.935 E224.9135
G1 X140.869 Y151.221 E225.17003
G1 X139.731 Y151.221 E225.34036
G1 X139.731 Y151.116 E225.35607
G1 X140.869 Y151.116 E225.5264
G1 X140.869 Y150.074 E225.68236
G1 X139.731 Y150.074 E225.85268
G1 X139.731 Y150.068 E225.85358
G1 X140.869 Y150.068 E226.0239
G1 X140.869 Y148.533 E226.25365
G1 X139.731 Y148.533 E226.42397
G1 X139.731 Y148.482 E226.43161
G1 X140.869 Y148.482 E226.60193
G1 X140.869 Y147.412 E226.76208
G1 X139.731 Y147.412 E226.9324
G1 X139.731 Y147.29 E226.95066
G1 X140.869 Y147.29 E227.12099
G1 X140.869 Y145.576 E227.37753
G1 X139.731 Y145.576 E227.54785
G1 X139.731 Y145.472 E227.56342
G1 X140.869 Y145.472 E227.73374
G1 X140.869 Y140.756 E228.43959
G1 X139.731 Y140.756 E228.60991
G1 X139.731 Y140.455 E228.65496
G1 X140.869 Y140.455 E228.82529
G1 X140.869 Y139.682 E228.94098
G1 X160.269 Y139.682 E231.84459
G1 X160.269 Y159.082 E234.7482
G1 X159.675 Y159.082 E234.83711
G1 X159.675 Y160.318 E235.0221
G1 X159.464 Y160.318 E235.05368
G1 X159.464 Y159.082 E235.23867
G1 X156.908 Y159.082 E235.62123
G1 X156.904 Y159.082 E235.62183
G1 X155.354 Y159.082 E235.85382
G1 X155.354 Y160.318 E236.03881
G1 X155.263 Y160.318 E236.05243
G1 X155.263 Y159.082 E236.23743
G1 X154.342 Y159.082 E236.37527
G1 X154.342 Y160.318 E236.56027
G1 X154.22 Y160.318 E236.57853
G1 X154.22 Y159.082 E236.76352
G1 X152.506 Y159.082 E237.02005
G1 X152.506 Y160.318 E237.20505
G1 X152.402 Y160.318 E237.22061
G1 X152.402 Y159.082 E237.40561
G1 X151.36 Y159.082 E237.56156
G1 X151.36 Y160.318 E237.74656
G1 X151.353 Y160.318 E237.7476
G1 X151.353 Y159.082 E237.9326
G1 X149.819 Y159.082 E238.16219
G0 F7500 X149.819 Y159.282
G0 X149.159 Y158.422
G0 X142.059 Y157.892
;TYPE:SKIN
G1 F2400 X142.059 Y140.872 E240.70958
G1 X159.079 Y140.872 E243.25698
G1 X159.079 Y157.892 E245.80437
G1 X142.059 Y157.892 E248.35177
G0 F7500 X142.298 Y141.958
G1 F2400 X143.145 Y141.111 E248.53105
G0 F7500 X143.993 Y141.111
G1 F2400 X142.298 Y142.806 E248.88982
G0 F7500 X142.298 Y143.655
G1 F2400 X144.842 Y141.111 E249.4283
G0 F7500 X145.69 Y141.111
G1 F2400 X142.298 Y144.503 E250.14627
G0 F7500 X142.298 Y145.352
G1 F2400 X146.539 Y141.111 E251.04395
G0 F7500 X147.387 Y141.111
G1 F2400 X142.298 Y146.2 E252.12112
G0 F7500 X142.298 Y147.049
G1 F2400 X148.236 Y141.111 E253.37799
G0 F7500 X149.084 Y141.111
G1 F2400 X142.298 Y147.897 E254.81436
