; generated by PrusaSlicer 2.6.0 on 2023-07-18 at 09:04:32 UTC

; 

; external perimeters extrusion width = 0.45mm
; perimeters extrusion width = 0.45mm
; infill extrusion width = 0.45mm
; solid infill extrusion width = 0.45mm
; top infill extrusion width = 0.40mm
; first layer extrusion width = 0.42mm

M104 S230 ; set temperature
;TYPE:Custom
G28 ;Home
G1 Z15.0 F2000 ;Move the platform
M106 S255
M109 S230 ; set temperature and wait for it to be reached
G21 ; set units to millimeters
G90 ; use absolute coordinates
M82 ; use absolute distances for extrusion
G92 E0
; Filament gcode
M107
;LAYER_CHANGE
;Z:0.15
;HEIGHT:0.15
G1 Z.15 F7800
G1 E-2 F2400
G92 E0
G1 X131.502 Y80.56 F7800
G1 E2 F2400
;TYPE:Skirt/Brim
;WIDTH:0.42
G1 F1800
G1 X132.44 Y79.491 E2.0344
G1 X133.566 Y78.782 E2.06658
G1 X134.823 Y78.459 E2.09797
G1 X165.804 Y78.462 E2.84724
G1 X166.702 Y78.64 E2.86938
G1 X167.551 Y79.009 E2.89177
G1 X168.714 Y79.995 E2.92865
G1 X169.433 Y81.1 E2.96053
G1 X169.783 Y82.418 E2.99351
G1 X169.775 Y113.434 E3.74363
G1 X169.526 Y114.51 E3.77034
G1 X168.904 Y115.622 E3.80115
G1 X167.988 Y116.529 E3.83233
G1 X166.989 Y117.091 E3.86005
G1 X166.087 Y117.341 E3.88269
G1 X158.157 Y117.369 E4.07448
G1 X158.289 Y117.908 E4.0879
G1 X158.251 Y120.204 E4.14344
G1 X158.009 Y121.02 E4.16402
G1 X157.63 Y121.75 E4.18391
G1 X157.046 Y122.401 E4.20506
G1 X157.565 Y122.974 E4.22376
G1 X157.994 Y123.772 E4.24567
G1 X158.297 Y124.951 E4.27511
G1 X158.28 Y126.979 E4.32416
G1 X158.055 Y127.879 E4.3466
G1 X157.629 Y128.731 E4.36964
G1 X157.046 Y129.379 E4.39072
G1 X157.565 Y129.953 E4.40944
G1 X157.994 Y130.751 E4.43135
G1 X158.297 Y131.93 E4.46079
G1 X158.28 Y133.958 E4.50984
G1 X158.055 Y134.858 E4.53228
G1 X157.629 Y135.709 E4.5553
G1 X157.046 Y136.358 E4.5764
G1 X157.565 Y136.932 E4.59512
G1 X157.994 Y137.73 E4.61703
G1 X158.291 Y138.859 E4.64526
G1 X158.28 Y140.936 E4.69549
G1 X158.041 Y141.876 E4.71895
G1 X157.629 Y142.688 E4.74097
G1 X157.028 Y143.356 E4.7627
G1 X157.597 Y143.959 E4.78275
G1 X158.085 Y144.935 E4.80914
G1 X158.297 Y145.923 E4.83358
G1 X158.288 Y147.839 E4.87992
G1 X158.07 Y148.777 E4.90321
G1 X157.642 Y149.647 E4.92666
G1 X157.037 Y150.324 E4.94862
G1 X157.55 Y150.869 E4.96672
G1 X157.984 Y151.661 E4.98856
G1 X158.286 Y152.783 E5.01666
G1 X158.281 Y154.885 E5.0675
G1 X158.055 Y155.794 E5.09015
G1 X157.633 Y156.64 E5.11301
G1 X157.044 Y157.307 E5.13453
G1 X157.559 Y157.861 E5.15282
G1 X157.993 Y158.662 E5.17485
G1 X158.296 Y159.831 E5.20406
G1 X158.295 Y161.728 E5.24994
G1 X158.045 Y162.799 E5.27654
G1 X157.526 Y163.773 E5.30323
G1 X157.028 Y164.291 E5.32061
G1 X157.599 Y164.899 E5.34078
G1 X158.094 Y165.899 E5.36777
G1 X158.286 Y166.753 E5.38894
G1 X158.294 Y168.71 E5.43627
G1 X158.101 Y169.626 E5.45891
G1 X157.704 Y170.491 E5.48193
G1 X157.032 Y171.256 E5.50656
G1 X157.627 Y171.913 E5.528
G1 X157.994 Y172.624 E5.54735
G1 X158.295 Y173.779 E5.57622
G1 X158.291 Y175.721 E5.62319
G1 X158.095 Y176.623 E5.64551
G1 X157.762 Y177.321 E5.66421
G1 X158.308 Y177.614 E5.6792
G1 X159.355 Y178.619 E5.7143
G1 X159.861 Y179.447 E5.73777
G1 X160.235 Y180.819 E5.77216
G1 X160.235 Y182.631 E5.81598
G1 X165.454 Y182.66 E5.9422
G1 X166.317 Y182.898 E5.96385
G1 X167.413 Y183.526 E5.9944
G1 X168.321 Y184.461 E6.02592
G1 X168.988 Y185.797 E6.06203
G1 X169.137 Y186.656 E6.08312
G1 X169.137 Y217.478 E6.82855
G1 X169.048 Y218.156 E6.84509
G1 X168.498 Y219.44 E6.87887
G1 X167.56 Y220.509 E6.91327
G1 X166.434 Y221.218 E6.94545
G1 X165.177 Y221.541 E6.97684
G1 X134.28 Y221.541 E7.72408
G1 X133.603 Y221.453 E7.74059
G1 X132.319 Y220.903 E7.77437
G1 X131.25 Y219.965 E7.80877
G1 X130.541 Y218.839 E7.84095
G1 X130.217 Y217.582 E7.87234
G1 X130.231 Y186.518 E8.62362
G1 X130.41 Y185.665 E8.6447
G1 X131.015 Y184.486 E8.67675
G1 X131.877 Y183.584 E8.70692
G1 X132.878 Y182.962 E8.73542
G1 X133.985 Y182.648 E8.76325
G1 X139.576 Y182.628 E8.89847
G1 X139.617 Y180.464 E8.95082
G1 X139.994 Y179.341 E8.97947
G1 X142.325 Y175.224 E9.09389
G1 X143.301 Y174.233 E9.12753
G1 X144.323 Y173.641 E9.15609
G1 X144.206 Y173.397 E9.16263
G1 X143.906 Y172.255 E9.19119
G1 X143.932 Y170.077 E9.24387
G1 X144.16 Y169.237 E9.26492
G1 X144.571 Y168.428 E9.28687
G1 X145.173 Y167.769 E9.30846
G1 X144.618 Y167.186 E9.32793
G1 X144.132 Y166.234 E9.35378
G1 X143.902 Y165.215 E9.37904
G1 X143.925 Y163.15 E9.42898
G1 X144.16 Y162.258 E9.45129
G1 X144.569 Y161.453 E9.47313
G1 X145.152 Y160.804 E9.49423
G1 X144.639 Y160.238 E9.5127
G1 X144.219 Y159.472 E9.53383
G1 X143.921 Y158.401 E9.56072
G1 X143.917 Y156.238 E9.61303
G1 X144.157 Y155.287 E9.63675
G1 X144.569 Y154.474 E9.65879
G1 X145.157 Y153.82 E9.68006
G1 X144.64 Y153.261 E9.69848
G1 X144.224 Y152.503 E9.71939
G1 X143.909 Y151.34 E9.74853
G1 X143.907 Y149.347 E9.79673
G1 X144.151 Y148.325 E9.82214
G1 X144.641 Y147.39 E9.84767
G1 X145.165 Y146.849 E9.86589
G1 X144.639 Y146.281 E9.88461
G1 X144.208 Y145.487 E9.90646
G1 X143.917 Y144.418 E9.93325
G1 X143.916 Y142.3 E9.98447
G1 X144.118 Y141.431 E10.00605
G1 X144.507 Y140.607 E10.02809
G1 X145.181 Y139.871 E10.05223
G1 X144.653 Y139.322 E10.07065
G1 X144.192 Y138.467 E10.09414
G1 X143.91 Y137.395 E10.12095
G1 X143.904 Y135.417 E10.16879
G1 X144.1 Y134.508 E10.19128
G1 X144.528 Y133.598 E10.2156
G1 X145.174 Y132.875 E10.23905
G1 X144.599 Y132.263 E10.25936
G1 X144.104 Y131.264 E10.28632
G1 X143.912 Y130.416 E10.30735
G1 X143.894 Y128.56 E10.35224
G1 X144.07 Y127.617 E10.37544
G1 X144.483 Y126.691 E10.39996
G1 X145.159 Y125.9 E10.42512
G1 X144.645 Y125.352 E10.44329
G1 X144.226 Y124.594 E10.46424
G1 X143.918 Y123.492 E10.49191
G1 X143.898 Y121.518 E10.53965
G1 X144.108 Y120.527 E10.56415
G1 X144.523 Y119.65 E10.58761
G1 X145.149 Y118.927 E10.61074
G1 X144.725 Y118.479 E10.62566
G1 X144.305 Y117.793 E10.64511
G1 X144.155 Y117.376 E10.65583
G1 X134.687 Y117.356 E10.88481
G1 X133.691 Y117.107 E10.90964
G1 X132.582 Y116.471 E10.94056
G1 X131.744 Y115.617 E10.9695
G1 X131.163 Y114.618 E10.99745
G1 X130.863 Y113.419 E11.02734
G1 X130.863 Y82.522 E11.77458
G1 X130.952 Y81.844 E11.79112
G1 X131.478 Y80.615 E11.82345
G1 X131.834 Y80.77 F7800
G1 F1800
G1 X132.711 Y79.769 E11.85564
G1 X133.693 Y79.149 E11.88373
G1 X134.848 Y78.846 E11.91261
G1 X165.784 Y78.85 E12.66079
G1 X166.604 Y79.016 E12.68102
G1 X167.368 Y79.352 E12.70121
G1 X168.439 Y80.271 E12.73534
G1 X169.09 Y81.283 E12.76444
G1 X169.395 Y82.443 E12.79345
G1 X169.387 Y113.412 E13.54243
G1 X169.174 Y114.345 E13.56558
G1 X168.58 Y115.408 E13.59503
G1 X167.736 Y116.233 E13.62357
G1 X166.861 Y116.725 E13.64785
G1 X166.058 Y116.954 E13.66804
G1 X157.646 Y116.983 E13.87148
G1 X157.901 Y117.932 E13.89525
G1 X157.871 Y120.121 E13.9482
G1 X157.656 Y120.859 E13.96679
G1 X157.298 Y121.548 E13.98557
G1 X156.517 Y122.403 E14.01358
G1 X157.236 Y123.18 E14.03918
G1 X157.642 Y123.935 E14.05991
G1 X157.909 Y124.973 E14.08583
G1 X157.892 Y126.951 E14.13367
G1 X157.685 Y127.761 E14.15389
G1 X157.296 Y128.53 E14.17473
G1 X156.516 Y129.38 E14.20263
G1 X157.236 Y130.159 E14.22828
G1 X157.642 Y130.914 E14.24901
G1 X157.909 Y131.952 E14.27493
G1 X157.892 Y133.93 E14.32277
G1 X157.685 Y134.74 E14.34299
G1 X157.296 Y135.509 E14.36383
G1 X156.516 Y136.359 E14.39173
G1 X157.236 Y137.138 E14.41738
G1 X157.642 Y137.893 E14.43811
G1 X157.909 Y138.931 E14.46403
G1 X157.892 Y140.909 E14.51187
G1 X157.685 Y141.719 E14.53209
G1 X157.296 Y142.488 E14.55293
G1 X156.492 Y143.363 E14.58167
G1 X157.264 Y144.16 E14.60851
G1 X157.727 Y145.086 E14.63355
G1 X157.909 Y145.942 E14.65472
G1 X157.9 Y147.815 E14.70002
G1 X157.699 Y148.665 E14.72114
G1 X157.308 Y149.448 E14.74231
G1 X156.502 Y150.332 E14.77124
G1 X157.223 Y151.079 E14.79635
G1 X157.633 Y151.827 E14.81698
G1 X157.898 Y152.808 E14.84156
G1 X157.893 Y154.859 E14.89116
G1 X157.685 Y155.676 E14.91155
G1 X157.299 Y156.441 E14.93227
G1 X156.514 Y157.315 E14.96068
G1 X157.232 Y158.07 E14.98588
G1 X157.624 Y158.786 E15.00562
G1 X157.909 Y159.856 E15.0324
G1 X157.908 Y161.706 E15.07714
G1 X157.691 Y162.639 E15.10031
G1 X157.197 Y163.564 E15.12567
G1 X156.483 Y164.287 E15.15025
G1 X157.266 Y165.101 E15.17757
G1 X157.722 Y166.009 E15.20214
G1 X157.899 Y166.777 E15.2212
G1 X157.907 Y168.69 E15.26747
G1 X157.727 Y169.522 E15.28806
G1 X157.365 Y170.3 E15.30881
G1 X156.506 Y171.26 E15.33997
G1 X157.295 Y172.115 E15.36811
G1 X157.64 Y172.783 E15.38629
G1 X157.907 Y173.804 E15.41181
G1 X157.907 Y175.659 E15.45667
G1 X157.721 Y176.517 E15.4779
G1 X157.243 Y177.494 E15.50421
G1 X158.061 Y177.915 E15.52646
G1 X159.068 Y178.881 E15.56021
G1 X159.515 Y179.624 E15.58118
G1 X159.848 Y180.845 E15.61179
G1 X159.848 Y183.017 E15.66432
G1 X165.425 Y183.048 E15.7992
G1 X166.187 Y183.264 E15.81835
G1 X167.195 Y183.847 E15.84651
G1 X168.02 Y184.708 E15.87535
G1 X168.611 Y185.892 E15.90735
G1 X168.749 Y186.673 E15.92653
G1 X168.749 Y217.465 E16.67123
G1 X168.668 Y218.077 E16.68616
G1 X168.155 Y219.256 E16.71726
G1 X167.289 Y220.231 E16.7488
G1 X166.307 Y220.851 E16.77689
G1 X165.152 Y221.154 E16.80577
G1 X134.293 Y221.154 E17.55209
G1 X133.682 Y221.072 E17.567
G1 X132.503 Y220.56 E17.59809
G1 X131.528 Y219.694 E17.62963
G1 X130.908 Y218.711 E17.65774
G1 X130.605 Y217.557 E17.6866
G1 X130.615 Y186.575 E18.4359
G1 X130.769 Y185.816 E18.45463
G1 X131.317 Y184.731 E18.48403
G1 X132.105 Y183.899 E18.51174
G1 X133.013 Y183.327 E18.53769
G1 X134.014 Y183.036 E18.5629
G1 X139.957 Y183.014 E18.70663
G1 X140.004 Y180.502 E18.76739
G1 X140.34 Y179.517 E18.79256
G1 X142.65 Y175.438 E18.90593
G1 X143.557 Y174.526 E18.93704
G1 X144.327 Y174.086 E18.95849
G1 X144.913 Y173.897 E18.97338
G1 X144.573 Y173.27 E18.99063
G1 X144.294 Y172.232 E19.01662
G1 X144.314 Y170.152 E19.06693
G1 X144.515 Y169.394 E19.0859
G1 X144.904 Y168.628 E19.10668
G1 X145.711 Y167.763 E19.13529
G1 X144.948 Y166.981 E19.16171
G1 X144.504 Y166.122 E19.1851
G1 X144.291 Y165.196 E19.20808
G1 X144.313 Y163.178 E19.25689
G1 X144.515 Y162.416 E19.27596
G1 X144.902 Y161.653 E19.29665
G1 X145.682 Y160.803 E19.32455
G1 X144.967 Y160.03 E19.35002
G1 X144.57 Y159.306 E19.36999
G1 X144.302 Y158.325 E19.39458
G1 X144.305 Y156.263 E19.44445
G1 X144.513 Y155.443 E19.46491
G1 X144.902 Y154.674 E19.48575
G1 X145.689 Y153.816 E19.51391
G1 X144.968 Y153.052 E19.53932
G1 X144.575 Y152.338 E19.55903
G1 X144.29 Y151.266 E19.58586
G1 X144.295 Y149.37 E19.63171
G1 X144.506 Y148.483 E19.65376
G1 X144.97 Y147.598 E19.67793
G1 X145.709 Y146.857 E19.70324
G1 X144.967 Y146.073 E19.72935
G1 X144.56 Y145.323 E19.74999
G1 X144.298 Y144.344 E19.7745
G1 X144.303 Y142.324 E19.82335
G1 X144.49 Y141.542 E19.8428
G1 X144.844 Y140.802 E19.86264
G1 X145.721 Y139.863 E19.89371
G1 X144.98 Y139.111 E19.91924
G1 X144.56 Y138.344 E19.94039
G1 X144.298 Y137.368 E19.96483
G1 X144.292 Y135.438 E20.01151
G1 X144.473 Y134.614 E20.03191
G1 X144.865 Y133.792 E20.05393
G1 X145.708 Y132.867 E20.0842
G1 X144.932 Y132.061 E20.11126
G1 X144.476 Y131.153 E20.13583
G1 X144.3 Y130.391 E20.15474
G1 X144.282 Y128.576 E20.19864
G1 X144.447 Y127.713 E20.21989
G1 X144.824 Y126.878 E20.24205
G1 X145.686 Y125.887 E20.27382
G1 X144.972 Y125.142 E20.29878
G1 X144.577 Y124.427 E20.31854
G1 X144.299 Y123.415 E20.34392
G1 X144.286 Y121.537 E20.38934
G1 X144.468 Y120.672 E20.41072
G1 X144.861 Y119.841 E20.43295
G1 X145.68 Y118.915 E20.46285
G1 X145.044 Y118.257 E20.48498
G1 X144.647 Y117.61 E20.50334
G1 X144.434 Y116.989 E20.51922
G1 X134.713 Y116.969 E20.75432
G1 X133.813 Y116.738 E20.77679
G1 X132.839 Y116.179 E20.80395
G1 X132.065 Y115.398 E20.83054
G1 X131.531 Y114.495 E20.85591
G1 X131.251 Y113.394 E20.88339
G1 X131.251 Y82.535 E21.62971
G1 X131.332 Y81.923 E21.64464
G1 X131.81 Y80.825 E21.6736
G1 X132.164 Y80.981 F7800
G1 F1800
G1 X132.186 Y80.93 E21.67494
G1 X132.98 Y80.05 E21.70361
G1 X133.873 Y79.494 E21.72905
G1 X134.873 Y79.234 E21.75404
G1 X165.764 Y79.238 E22.50114
G1 X166.504 Y79.391 E22.51942
G1 X167.182 Y79.694 E22.53738
G1 X168.164 Y80.545 E22.56881
G1 X168.723 Y81.414 E22.5938
G1 X169.007 Y82.469 E22.62022
G1 X168.999 Y113.391 E23.36806
G1 X168.82 Y114.183 E23.3877
G1 X168.288 Y115.151 E23.41441
G1 X167.483 Y115.938 E23.44164
G1 X166.73 Y116.359 E23.4625
G1 X166.028 Y116.566 E23.4802
G1 X157.028 Y116.597 E23.69787
G1 X157.253 Y117.028 E23.70963
G1 X157.513 Y117.957 E23.73296
G1 X157.491 Y120.04 E23.78334
G1 X157.302 Y120.698 E23.7999
G1 X156.966 Y121.346 E23.81755
G1 X155.949 Y122.444 E23.85375
G1 X156.204 Y122.637 E23.86148
G1 X156.908 Y123.389 E23.88639
G1 X157.273 Y124.058 E23.90482
G1 X157.521 Y124.996 E23.92828
G1 X157.505 Y126.923 E23.97489
G1 X157.316 Y127.641 E23.99285
G1 X156.963 Y128.329 E24.01155
G1 X155.946 Y129.421 E24.04764
G1 X156.204 Y129.616 E24.05546
G1 X156.908 Y130.368 E24.08037
G1 X157.273 Y131.037 E24.0988
G1 X157.521 Y131.975 E24.12226
G1 X157.505 Y133.902 E24.16887
G1 X157.316 Y134.62 E24.18683
G1 X156.963 Y135.308 E24.20553
G1 X155.946 Y136.4 E24.24162
G1 X156.204 Y136.595 E24.24944
G1 X156.908 Y137.347 E24.27435
G1 X157.273 Y138.016 E24.29278
G1 X157.521 Y138.954 E24.31624
G1 X157.505 Y140.881 E24.36285
G1 X157.316 Y141.599 E24.38081
G1 X156.963 Y142.286 E24.39949
G1 X155.952 Y143.371 E24.43536
G1 X156.932 Y144.364 E24.4691
G1 X157.353 Y145.194 E24.49161
G1 X157.521 Y145.962 E24.51062
G1 X157.513 Y147.79 E24.55483
G1 X157.327 Y148.551 E24.57378
G1 X156.975 Y149.248 E24.59266
G1 X155.965 Y150.34 E24.62863
G1 X156.897 Y151.291 E24.66083
G1 X157.266 Y151.954 E24.67918
G1 X157.51 Y152.834 E24.70127
G1 X157.505 Y154.833 E24.74962
G1 X157.316 Y155.557 E24.76772
G1 X156.966 Y156.24 E24.78628
G1 X156.202 Y157.079 E24.81372
G1 X155.936 Y157.277 E24.82174
G1 X156.906 Y158.282 E24.85552
G1 X157.257 Y158.911 E24.87294
G1 X157.521 Y159.882 E24.89728
G1 X157.52 Y161.684 E24.94086
G1 X157.337 Y162.479 E24.96059
G1 X156.869 Y163.355 E24.98461
G1 X155.933 Y164.283 E25.01649
G1 X156.935 Y165.304 E25.05109
G1 X157.35 Y166.122 E25.07327
G1 X157.511 Y166.801 E25.09015
G1 X157.519 Y168.67 E25.13535
G1 X157.353 Y169.416 E25.15383
G1 X157.027 Y170.107 E25.17231
G1 X155.977 Y171.264 E25.2101
G1 X156.964 Y172.32 E25.24506
G1 X157.271 Y172.905 E25.26104
G1 X157.52 Y173.831 E25.28423
G1 X157.524 Y175.6 E25.32701
G1 X157.362 Y176.369 E25.34602
G1 X156.968 Y177.174 E25.3677
G1 X156.518 Y177.679 E25.38406
G1 X156.99 Y177.803 E25.39586
G1 X157.814 Y178.215 E25.41814
G1 X158.779 Y179.142 E25.4505
G1 X159.168 Y179.798 E25.46894
G1 X159.46 Y180.87 E25.49581
G1 X159.46 Y183.403 E25.55707
G1 X165.395 Y183.435 E25.70061
G1 X166.054 Y183.629 E25.71722
G1 X166.974 Y184.168 E25.74301
G1 X167.718 Y184.953 E25.76917
G1 X168.234 Y185.988 E25.79714
G1 X168.361 Y186.691 E25.81442
G1 X168.361 Y217.452 E26.55837
G1 X168.287 Y217.997 E26.57167
G1 X167.814 Y219.07 E26.60003
G1 X167.02 Y219.95 E26.6287
G1 X166.127 Y220.506 E26.65414
G1 X165.127 Y220.766 E26.67913
G1 X134.307 Y220.766 E27.42451
G1 X133.762 Y220.692 E27.43781
G1 X132.689 Y220.218 E27.46618
G1 X131.809 Y219.425 E27.49483
G1 X131.253 Y218.532 E27.52027
G1 X130.993 Y217.532 E27.54526
G1 X130.999 Y186.63 E28.29262
G1 X131.128 Y185.963 E28.30905
G1 X131.62 Y184.975 E28.33574
G1 X132.335 Y184.212 E28.36103
G1 X133.151 Y183.69 E28.38446
G1 X134.044 Y183.424 E28.40699
G1 X140.337 Y183.401 E28.55919
G1 X140.391 Y180.54 E28.6284
G1 X140.686 Y179.693 E28.65009
G1 X142.944 Y175.691 E28.76122
G1 X143.773 Y174.85 E28.78978
G1 X144.5 Y174.434 E28.81004
G1 X145.575 Y174.101 E28.83726
G1 X145.295 Y173.78 E28.84756
G1 X144.941 Y173.145 E28.86514
G1 X144.675 Y172.157 E28.88989
G1 X144.701 Y170.183 E28.93764
G1 X144.883 Y169.517 E28.95434
G1 X145.236 Y168.831 E28.973
G1 X146.254 Y167.756 E29.00881
G1 X145.277 Y166.773 E29.04233
G1 X144.875 Y166.008 E29.06323
G1 X144.679 Y165.176 E29.0839
G1 X144.7 Y163.208 E29.1315
G1 X144.883 Y162.539 E29.14827
G1 X145.234 Y161.854 E29.16688
G1 X146.252 Y160.762 E29.20299
G1 X145.994 Y160.567 E29.21081
G1 X145.294 Y159.82 E29.23557
G1 X144.937 Y159.178 E29.25334
G1 X144.69 Y158.298 E29.27545
G1 X144.692 Y156.289 E29.32404
G1 X144.882 Y155.563 E29.34219
G1 X145.235 Y154.875 E29.36089
G1 X146.224 Y153.812 E29.396
G1 X145.293 Y152.841 E29.42853
G1 X144.943 Y152.212 E29.44594
