; generated by PrusaSlicer 2.6.0 on 2023-07-18 at 09:06:24 UTC

; 

; external perimeters extrusion width = 0.45mm
; perimeters extrusion width = 0.45mm
; infill extrusion width = 0.45mm
; solid infill extrusion width = 0.45mm
; top infill extrusion width = 0.40mm
; first layer extrusion width = 0.42mm

M104 S230 ; set temperature
;TYPE:Custom
G28 ;Home
G1 Z15.0 F2000 ;Move the platform
M106 S255
M109 S230 ; set temperature and wait for it to be reached
G21 ; set units to millimeters
G90 ; use absolute coordinates
M82 ; use absolute distances for extrusion
G92 E0
; Filament gcode
M107
;LAYER_CHANGE
;Z:0.15
;HEIGHT:0.15
G1 Z.15 F7800
G1 E-2 F2400
G92 E0
G1 X131.179 Y80.56 F7800
G1 E2 F2400
;TYPE:Skirt/Brim
;WIDTH:0.42
G1 F1800
G1 X132.117 Y79.491 E2.0344
G1 X133.243 Y78.782 E2.06658
G1 X134.5 Y78.459 E2.09797
G1 X165.481 Y78.462 E2.84724
G1 X166.379 Y78.64 E2.86938
G1 X167.228 Y79.009 E2.89177
G1 X168.391 Y79.995 E2.92865
G1 X169.11 Y81.1 E2.96053
G1 X169.46 Y82.418 E2.99351
G1 X169.454 Y113.407 E3.74298
G1 X169.267 Y114.335 E3.76587
G1 X168.662 Y115.514 E3.79792
G1 X167.799 Y116.417 E3.82813
G1 X166.783 Y117.045 E3.85702
G1 X165.621 Y117.362 E3.88615
G1 X157.696 Y117.376 E4.07782
G1 X157.189 Y118.253 E4.10232
G1 X156.736 Y118.728 E4.11819
G1 X157.289 Y119.342 E4.13817
G1 X157.671 Y120.061 E4.15786
G1 X157.994 Y121.336 E4.18967
G1 X157.96 Y123.36 E4.23863
G1 X157.74 Y124.208 E4.25982
G1 X157.28 Y125.103 E4.28416
G1 X156.71 Y125.721 E4.30449
G1 X157.35 Y126.411 E4.32725
G1 X157.758 Y127.257 E4.34997
G1 X157.984 Y128.268 E4.37502
G1 X157.961 Y130.332 E4.42494
G1 X157.74 Y131.187 E4.4463
G1 X157.284 Y132.077 E4.47049
G1 X156.736 Y132.681 E4.49021
G1 X157.249 Y133.245 E4.50865
G1 X157.668 Y134.01 E4.52974
G1 X157.966 Y135.082 E4.55665
G1 X157.963 Y137.299 E4.61027
G1 X157.711 Y138.242 E4.63388
G1 X157.284 Y139.056 E4.65611
G1 X156.732 Y139.664 E4.67597
G1 X157.247 Y140.22 E4.6943
G1 X157.663 Y140.978 E4.71521
G1 X157.978 Y142.141 E4.74435
G1 X157.979 Y144.135 E4.79257
G1 X157.735 Y145.157 E4.81798
G1 X157.246 Y146.091 E4.84348
G1 X156.72 Y146.633 E4.86175
G1 X157.251 Y147.206 E4.88064
G1 X157.679 Y147.996 E4.90237
G1 X157.97 Y149.063 E4.92912
G1 X157.971 Y151.182 E4.98037
G1 X157.769 Y152.05 E5.00192
G1 X157.379 Y152.874 E5.02397
G1 X156.703 Y153.613 E5.04819
G1 X157.27 Y154.209 E5.06808
G1 X157.679 Y154.975 E5.08908
G1 X157.976 Y156.09 E5.11699
G1 X157.977 Y158.116 E5.16599
G1 X157.768 Y159.028 E5.18862
G1 X157.284 Y159.993 E5.21473
G1 X156.719 Y160.612 E5.235
G1 X157.326 Y161.273 E5.2567
G1 X157.736 Y162.091 E5.27883
G1 X157.969 Y163.021 E5.30202
G1 X157.989 Y164.967 E5.34909
G1 X157.798 Y165.923 E5.37267
G1 X157.33 Y166.902 E5.39891
G1 X156.725 Y167.579 E5.42087
G1 X157.242 Y168.129 E5.43913
G1 X157.66 Y168.887 E5.46006
G1 X157.969 Y169.989 E5.48774
G1 X157.988 Y171.963 E5.53548
G1 X157.779 Y172.954 E5.55997
G1 X157.364 Y173.831 E5.58343
G1 X156.728 Y174.565 E5.60692
G1 X157.241 Y175.113 E5.62507
G1 X157.902 Y176.556 E5.66346
G1 X157.992 Y177.243 E5.68022
G1 X157.992 Y182.627 E5.81043
G1 X165.863 Y182.674 E6.00079
G1 X166.76 Y182.949 E6.02348
G1 X167.836 Y183.607 E6.05398
G1 X168.765 Y184.637 E6.08753
G1 X169.338 Y185.887 E6.12079
G1 X169.46 Y186.665 E6.13984
G1 X169.46 Y217.478 E6.88505
G1 X169.371 Y218.156 E6.90159
G1 X168.821 Y219.44 E6.93537
G1 X167.883 Y220.509 E6.96977
G1 X166.757 Y221.218 E7.00195
G1 X165.5 Y221.541 E7.03334
G1 X134.603 Y221.541 E7.78058
G1 X133.926 Y221.453 E7.79709
G1 X132.642 Y220.903 E7.83087
G1 X131.573 Y219.965 E7.86527
G1 X130.864 Y218.839 E7.89745
G1 X130.54 Y217.582 E7.92884
G1 X130.551 Y186.541 E8.67956
G1 X130.743 Y185.634 E8.70198
G1 X131.289 Y184.557 E8.73118
G1 X132.134 Y183.639 E8.76136
G1 X133.119 Y182.999 E8.78977
G1 X134.275 Y182.653 E8.81895
G1 X143.583 Y182.624 E9.04406
G1 X143.583 Y180.685 E9.09095
G1 X143.812 Y179.61 E9.11753
G1 X144.471 Y178.416 E9.15051
G1 X144.831 Y178.047 E9.16298
G1 X144.323 Y177.488 E9.18125
G1 X143.907 Y176.726 E9.20225
G1 X143.581 Y175.443 E9.23427
G1 X143.615 Y173.419 E9.28323
G1 X143.835 Y172.571 E9.30442
G1 X144.295 Y171.676 E9.32876
G1 X144.845 Y171.08 E9.34837
G1 X144.286 Y170.458 E9.3686
G1 X143.905 Y169.74 E9.38826
G1 X143.581 Y168.464 E9.4201
G1 X143.615 Y166.441 E9.46903
G1 X143.835 Y165.592 E9.49024
G1 X144.295 Y164.697 E9.51458
G1 X144.845 Y164.101 E9.53419
G1 X144.286 Y163.48 E9.5544
G1 X143.905 Y162.761 E9.57408
G1 X143.581 Y161.486 E9.6059
G1 X143.615 Y159.462 E9.65486
G1 X143.835 Y158.614 E9.67605
G1 X144.295 Y157.719 E9.70039
G1 X144.845 Y157.122 E9.72002
G1 X144.286 Y156.5 E9.74025
G1 X143.889 Y155.743 E9.76092
G1 X143.594 Y154.616 E9.78909
G1 X143.614 Y152.486 E9.84061
G1 X143.866 Y151.556 E9.86391
G1 X144.295 Y150.739 E9.88623
G1 X144.842 Y150.146 E9.90574
G1 X144.322 Y149.571 E9.92449
G1 X143.908 Y148.811 E9.94542
G1 X143.581 Y147.528 E9.97744
G1 X143.615 Y145.504 E10.0264
G1 X143.835 Y144.657 E10.04756
G1 X144.293 Y143.764 E10.07183
G1 X144.861 Y143.15 E10.09206
G1 X144.251 Y142.488 E10.11383
G1 X143.823 Y141.625 E10.13713
G1 X143.6 Y140.679 E10.16064
G1 X143.604 Y138.617 E10.21051
G1 X143.819 Y137.718 E10.23287
G1 X144.281 Y136.802 E10.25768
G1 X144.851 Y136.18 E10.27808
G1 X144.35 Y135.653 E10.29567
G1 X143.934 Y134.919 E10.31607
G1 X143.64 Y133.982 E10.33982
G1 X143.602 Y131.66 E10.39598
G1 X143.84 Y130.683 E10.4203
G1 X144.296 Y129.801 E10.44431
G1 X144.857 Y129.189 E10.46439
G1 X144.288 Y128.582 E10.48451
G1 X143.792 Y127.583 E10.51148
G1 X143.6 Y126.728 E10.53267
G1 X143.592 Y124.771 E10.58
G1 X143.785 Y123.855 E10.60264
G1 X144.183 Y122.991 E10.62565
G1 X144.851 Y122.229 E10.65016
G1 X144.291 Y121.613 E10.67029
G1 X143.894 Y120.863 E10.69081
G1 X143.62 Y119.909 E10.71482
G1 X143.592 Y117.792 E10.76602
G1 X143.673 Y117.376 E10.77627
G1 X134.323 Y117.351 E11.0024
G1 X133.299 Y117.08 E11.02802
G1 X132.333 Y116.527 E11.05494
G1 X131.474 Y115.682 E11.08408
G1 X130.873 Y114.697 E11.11199
G1 X130.54 Y113.426 E11.14377
G1 X130.54 Y82.522 E11.89118
G1 X130.629 Y81.844 E11.90772
G1 X131.155 Y80.615 E11.94005
G1 X131.511 Y80.77 F7800
G1 F1800
G1 X132.388 Y79.769 E11.97224
G1 X133.371 Y79.149 E12.00035
G1 X134.525 Y78.846 E12.02921
G1 X165.461 Y78.85 E12.77739
G1 X166.281 Y79.016 E12.79762
G1 X167.045 Y79.352 E12.81781
G1 X168.116 Y80.271 E12.85194
G1 X168.767 Y81.283 E12.88104
G1 X169.072 Y82.443 E12.91005
G1 X169.066 Y113.388 E13.65845
G1 X168.908 Y114.185 E13.6781
G1 X168.36 Y115.269 E13.70748
G1 X167.571 Y116.102 E13.73523
G1 X166.65 Y116.679 E13.76151
G1 X165.593 Y116.974 E13.78805
G1 X157.393 Y116.989 E13.98637
G1 X157.26 Y117.373 E13.9962
G1 X156.868 Y118.034 E14.01479
G1 X156.201 Y118.719 E14.03791
G1 X156.958 Y119.547 E14.06504
G1 X157.317 Y120.222 E14.08353
G1 X157.606 Y121.356 E14.11183
G1 X157.573 Y123.33 E14.15958
G1 X157.371 Y124.087 E14.17853
G1 X156.949 Y124.899 E14.20066
G1 X156.173 Y125.722 E14.22802
G1 X157.014 Y126.608 E14.25756
G1 X157.399 Y127.406 E14.27899
G1 X157.596 Y128.286 E14.3008
G1 X157.574 Y130.303 E14.34958
G1 X157.371 Y131.066 E14.36868
G1 X156.952 Y131.874 E14.39069
G1 X156.204 Y132.681 E14.4173
G1 X156.921 Y133.453 E14.44278
G1 X157.316 Y134.176 E14.46271
G1 X157.584 Y135.158 E14.48733
G1 X157.575 Y137.272 E14.53846
G1 X157.357 Y138.081 E14.55872
G1 X156.953 Y138.853 E14.57979
G1 X156.198 Y139.666 E14.60662
G1 X156.919 Y140.429 E14.63201
G1 X157.311 Y141.144 E14.65173
G1 X157.596 Y142.215 E14.67853
G1 X157.592 Y144.111 E14.72438
G1 X157.381 Y144.998 E14.74643
G1 X156.917 Y145.884 E14.77062
G1 X156.176 Y146.626 E14.79598
G1 X156.923 Y147.414 E14.82224
G1 X157.327 Y148.161 E14.84278
G1 X157.589 Y149.138 E14.86724
G1 X157.583 Y151.157 E14.91607
G1 X157.397 Y151.939 E14.93551
G1 X157.043 Y152.679 E14.95535
G1 X156.165 Y153.619 E14.98646
G1 X156.941 Y154.416 E15.01336
G1 X157.326 Y155.138 E15.03315
G1 X157.589 Y156.115 E15.05762
G1 X157.589 Y158.093 E15.10546
G1 X157.396 Y158.916 E15.1259
G1 X156.952 Y159.791 E15.14963
G1 X156.186 Y160.612 E15.17679
G1 X156.992 Y161.473 E15.20531
G1 X157.38 Y162.246 E15.22623
G1 X157.581 Y163.048 E15.24623
G1 X157.601 Y164.951 E15.29226
G1 X157.423 Y165.821 E15.31374
G1 X156.994 Y166.706 E15.33753
G1 X156.192 Y167.585 E15.36631
G1 X156.915 Y168.34 E15.39159
G1 X157.31 Y169.054 E15.41132
G1 X157.588 Y170.067 E15.43673
G1 X157.6 Y171.945 E15.48215
G1 X157.418 Y172.809 E15.5035
G1 X157.026 Y173.64 E15.52572
G1 X156.196 Y174.578 E15.55601
G1 X156.904 Y175.308 E15.5806
G1 X157.522 Y176.637 E15.61605
G1 X157.604 Y177.256 E15.63115
G1 X157.604 Y183.013 E15.77038
G1 X165.779 Y183.053 E15.96809
G1 X166.582 Y183.294 E15.98837
G1 X167.569 Y183.89 E16.01625
G1 X168.427 Y184.828 E16.04699
G1 X168.96 Y185.975 E16.07758
G1 X169.072 Y186.68 E16.09484
G1 X169.072 Y217.465 E16.83937
G1 X168.991 Y218.077 E16.8543
G1 X168.478 Y219.256 E16.8854
G1 X167.612 Y220.231 E16.91694
G1 X166.629 Y220.851 E16.94505
G1 X165.475 Y221.154 E16.97391
G1 X134.616 Y221.154 E17.72023
G1 X134.005 Y221.072 E17.73514
G1 X132.826 Y220.56 E17.76623
G1 X131.851 Y219.694 E17.79777
G1 X131.231 Y218.711 E17.82588
G1 X130.928 Y217.557 E17.85474
G1 X130.935 Y186.599 E18.60346
G1 X131.102 Y185.784 E18.62358
G1 X131.593 Y184.799 E18.6502
G1 X132.403 Y183.919 E18.67913
G1 X133.26 Y183.362 E18.70385
G1 X134.305 Y183.04 E18.7303
G1 X143.971 Y183.011 E18.96407
G1 X143.971 Y180.706 E19.01982
G1 X144.185 Y179.721 E19.0442
G1 X144.794 Y178.632 E19.07438
G1 X145.375 Y178.061 E19.09408
G1 X144.651 Y177.28 E19.11984
G1 X144.259 Y176.561 E19.13965
G1 X143.969 Y175.424 E19.16803
G1 X144.002 Y173.45 E19.21578
G1 X144.204 Y172.693 E19.23473
G1 X144.626 Y171.88 E19.25688
G1 X145.376 Y171.084 E19.28333
G1 X144.617 Y170.254 E19.31053
G1 X144.258 Y169.578 E19.32904
G1 X143.969 Y168.445 E19.35732
G1 X144.002 Y166.471 E19.40507
G1 X144.204 Y165.714 E19.42402
G1 X144.626 Y164.901 E19.44617
G1 X145.376 Y164.105 E19.47262
G1 X144.617 Y163.275 E19.49982
G1 X144.258 Y162.6 E19.51831
G1 X143.969 Y161.466 E19.54661
G1 X144.002 Y159.492 E19.59436
G1 X144.204 Y158.735 E19.61331
G1 X144.626 Y157.922 E19.63546
G1 X145.376 Y157.126 E19.66191
G1 X144.617 Y156.297 E19.68909
G1 X144.243 Y155.584 E19.70856
G1 X143.976 Y154.545 E19.7345
G1 X144.002 Y152.516 E19.78358
G1 X144.219 Y151.718 E19.80358
G1 X144.626 Y150.944 E19.82473
G1 X145.375 Y150.148 E19.85116
G1 X144.65 Y149.364 E19.87699
G1 X144.26 Y148.647 E19.89673
G1 X143.969 Y147.508 E19.92516
G1 X144.002 Y145.535 E19.97288
G1 X144.203 Y144.778 E19.99182
G1 X144.624 Y143.968 E20.0139
G1 X145.397 Y143.151 E20.0411
G1 X144.585 Y142.289 E20.06974
G1 X144.18 Y141.472 E20.09179
G1 X143.988 Y140.657 E20.11204
G1 X143.992 Y138.642 E20.16077
G1 X144.19 Y137.833 E20.18091
G1 X144.613 Y137.004 E20.20342
G1 X145.389 Y136.175 E20.23088
G1 X144.674 Y135.439 E20.2557
G1 X144.282 Y134.746 E20.27496
G1 X144.019 Y133.894 E20.29652
G1 X143.99 Y131.68 E20.35007
G1 X144.195 Y130.841 E20.37096
G1 X144.628 Y130.003 E20.39377
G1 X145.395 Y129.185 E20.42089
G1 X144.62 Y128.381 E20.4479
G1 X144.165 Y127.472 E20.47248
G1 X143.988 Y126.704 E20.49154
G1 X143.98 Y124.791 E20.53781
G1 X144.159 Y123.959 E20.55839
G1 X144.522 Y123.182 E20.57913
G1 X145.377 Y122.224 E20.61018
G1 X144.622 Y121.408 E20.63707
G1 X144.247 Y120.7 E20.65645
G1 X144 Y119.829 E20.67835
G1 X143.98 Y117.812 E20.72713
G1 X144.16 Y116.989 E20.7475
G1 X134.396 Y116.969 E20.98364
G1 X133.466 Y116.729 E21.00687
G1 X132.585 Y116.231 E21.03135
G1 X131.791 Y115.457 E21.05817
G1 X131.24 Y114.569 E21.08344
G1 X130.928 Y113.4 E21.1127
G1 X130.928 Y82.535 E21.85917
G1 X131.009 Y81.923 E21.8741
G1 X131.487 Y80.825 E21.90306
G1 X131.841 Y80.981 F7800
G1 F1800
G1 X131.864 Y80.93 E21.90441
G1 X132.657 Y80.05 E21.93306
G1 X133.55 Y79.494 E21.9585
G1 X134.55 Y79.234 E21.98349
G1 X165.441 Y79.238 E22.73059
G1 X166.181 Y79.391 E22.74887
G1 X166.86 Y79.694 E22.76685
G1 X167.841 Y80.545 E22.79826
G1 X168.4 Y81.414 E22.82325
G1 X168.684 Y82.469 E22.84967
G1 X168.678 Y113.37 E23.59701
G1 X168.549 Y114.037 E23.61344
G1 X168.057 Y115.025 E23.64013
G1 X167.342 Y115.788 E23.66542
G1 X166.515 Y116.315 E23.68914
G1 X165.565 Y116.587 E23.71304
G1 X157.109 Y116.601 E23.91755
G1 X156.915 Y117.195 E23.93266
G1 X156.547 Y117.815 E23.9501
G1 X155.619 Y118.754 E23.98203
G1 X155.892 Y118.956 E23.99024
G1 X156.654 Y119.789 E24.01754
G1 X156.963 Y120.381 E24.03369
G1 X157.217 Y121.375 E24.0585
G1 X157.186 Y123.298 E24.10501
G1 X157.003 Y123.963 E24.12169
G1 X156.619 Y124.694 E24.14166
G1 X155.633 Y125.724 E24.17614
G1 X156.68 Y126.807 E24.21257
G1 X157.027 Y127.515 E24.23164
G1 X157.208 Y128.305 E24.25124
G1 X157.186 Y130.273 E24.29884
G1 X157.003 Y130.942 E24.31561
G1 X156.622 Y131.67 E24.33548
G1 X155.634 Y132.719 E24.37033
G1 X155.892 Y132.914 E24.37815
G1 X156.62 Y133.699 E24.40404
G1 X156.949 Y134.302 E24.42065
G1 X157.197 Y135.184 E24.44281
G1 X157.187 Y137.245 E24.49266
G1 X157.004 Y137.919 E24.50955
G1 X156.622 Y138.649 E24.52948
G1 X155.662 Y139.668 E24.56334
G1 X156.593 Y140.641 E24.59591
G1 X156.944 Y141.27 E24.61333
G1 X157.209 Y142.241 E24.63767
G1 X157.204 Y144.088 E24.68234
G1 X157.026 Y144.84 E24.70103
G1 X156.588 Y145.676 E24.72386
G1 X155.631 Y146.614 E24.75627
G1 X156.624 Y147.662 E24.79119
G1 X156.959 Y148.285 E24.8083
G1 X157.201 Y149.164 E24.83035
G1 X157.196 Y151.133 E24.87797
G1 X157.025 Y151.826 E24.89523
G1 X156.708 Y152.482 E24.91285
G1 X155.622 Y153.624 E24.95096
G1 X156.614 Y154.627 E24.98508
G1 X156.959 Y155.263 E25.00258
G1 X157.201 Y156.142 E25.02463
G1 X157.202 Y158.069 E25.07123
G1 X157.025 Y158.802 E25.08947
G1 X156.62 Y159.588 E25.11085
G1 X155.649 Y160.613 E25.145
G1 X156.659 Y161.674 E25.18043
G1 X157.024 Y162.401 E25.2001
G1 X157.193 Y163.075 E25.21691
G1 X157.213 Y164.933 E25.26185
G1 X157.048 Y165.718 E25.28125
G1 X156.689 Y166.466 E25.30132
G1 X155.658 Y167.594 E25.33828
G1 X156.59 Y168.552 E25.3706
G1 X156.943 Y169.183 E25.38809
G1 X157.2 Y170.096 E25.41103
G1 X157.212 Y171.926 E25.45529
G1 X157.044 Y172.704 E25.47454
G1 X156.688 Y173.446 E25.49444
G1 X155.896 Y174.33 E25.52314
G1 X155.61 Y174.542 E25.53175
G1 X156.568 Y175.506 E25.56462
G1 X157.141 Y176.719 E25.59706
G1 X157.216 Y177.269 E25.61048
G1 X157.216 Y183.4 E25.75876
G1 X165.697 Y183.433 E25.96387
G1 X166.406 Y183.641 E25.98174
G1 X167.305 Y184.174 E26.00702
G1 X168.089 Y185.022 E26.03495
G1 X168.581 Y186.065 E26.06284
G1 X168.684 Y186.696 E26.0783
G1 X168.684 Y217.452 E26.82213
G1 X168.61 Y217.997 E26.83543
G1 X168.136 Y219.07 E26.8638
G1 X167.343 Y219.95 E26.89245
G1 X166.45 Y220.506 E26.91789
G1 X165.45 Y220.766 E26.94288
G1 X134.63 Y220.766 E27.68826
G1 X134.085 Y220.692 E27.70156
G1 X133.012 Y220.218 E27.72993
G1 X132.132 Y219.425 E27.75858
G1 X131.576 Y218.532 E27.78402
G1 X131.316 Y217.532 E27.80901
G1 X131.319 Y186.654 E28.55579
G1 X131.461 Y185.933 E28.57356
G1 X131.928 Y184.998 E28.59884
G1 X132.669 Y184.202 E28.62514
G1 X133.445 Y183.703 E28.64745
G1 X134.389 Y183.42 E28.67128
G1 X144.359 Y183.398 E28.9124
G1 X144.359 Y180.727 E28.977
G1 X144.557 Y179.834 E28.99912
G1 X145.116 Y178.85 E29.02649
G1 X145.966 Y178.035 E29.05497
G1 X145.684 Y177.824 E29.06349
G1 X144.953 Y177.035 E29.0895
G1 X144.612 Y176.4 E29.10693
G1 X144.358 Y175.404 E29.13179
G1 X144.389 Y173.482 E29.17828
G1 X144.572 Y172.816 E29.19498
G1 X144.956 Y172.086 E29.21493
G1 X145.953 Y171.045 E29.24979
G1 X145.683 Y170.844 E29.25793
G1 X144.921 Y170.011 E29.28523
G1 X144.612 Y169.42 E29.30136
G1 X144.358 Y168.425 E29.3262
G1 X144.389 Y166.503 E29.37269
G1 X144.572 Y165.838 E29.38937
G1 X144.956 Y165.107 E29.40934
G1 X145.953 Y164.066 E29.4442
G1 X145.683 Y163.866 E29.45233
G1 X144.921 Y163.032 E29.47965
G1 X144.612 Y162.441 E29.49578
G1 X144.358 Y161.446 E29.52062
G1 X144.389 Y159.524 E29.56711
G1 X144.572 Y158.859 E29.58379
G1 X144.956 Y158.128 E29.60376
G1 X145.953 Y157.087 E29.63862
G1 X145.683 Y156.887 E29.64675
G1 X144.921 Y156.054 E29.67405
G1 X144.613 Y155.463 E29.69017
G1 X144.364 Y154.523 E29.71369
G1 X144.389 Y152.546 E29.76151
G1 X144.572 Y151.88 E29.77821
G1 X144.956 Y151.149 E29.79818
G1 X145.953 Y150.108 E29.83304
G1 X145.683 Y149.908 E29.84117
G1 X144.979 Y149.156 E29.86608
