; generated by PrusaSlicer 2.6.0 on 2023-07-18 at 09:02:21 UTC

; 

; external perimeters extrusion width = 0.45mm
; perimeters extrusion width = 0.45mm
; infill extrusion width = 0.45mm
; solid infill extrusion width = 0.45mm
; top infill extrusion width = 0.40mm
; first layer extrusion width = 0.42mm

M104 S230 ; set temperature
;TYPE:Custom
G28 ;Home
G1 Z15.0 F2000 ;Move the platform
M106 S255
M109 S230 ; set temperature and wait for it to be reached
G21 ; set units to millimeters
G90 ; use absolute coordinates
M82 ; use absolute distances for extrusion
G92 E0
; Filament gcode
M107
;LAYER_CHANGE
;Z:0.15
;HEIGHT:0.15
G1 Z.15 F7800
G1 E-2 F2400
G92 E0
G1 X127.547 Y111.186 F7800
G1 E2 F2400
;TYPE:Skirt/Brim
;WIDTH:0.42
G1 F1800
G1 X128.482 Y110.119 E2.03431
G1 X129.427 Y109.49 E2.06176
G1 X130.515 Y109.135 E2.08944
G1 X139.79 Y109.088 E2.31376
G1 X139.836 Y102.139 E2.48182
G1 X140.105 Y101.253 E2.50421
G1 X140.636 Y100.332 E2.52992
G1 X141.391 Y99.546 E2.55628
G1 X142.19 Y99 E2.57968
G1 X143.736 Y98.542 E2.61868
G1 X156.231 Y98.545 E2.92087
G1 X157.168 Y98.735 E2.94399
G1 X158.025 Y99.122 E2.96673
G1 X159.136 Y100.074 E3.00211
G1 X159.79 Y101.031 E3.03014
G1 X160.154 Y102.124 E3.058
G1 X160.203 Y110.199 E3.2533
G1 X168.511 Y110.243 E3.45423
G1 X169.243 Y110.45 E3.47263
G1 X169.934 Y110.782 E3.49117
G1 X171.062 Y111.762 E3.52731
G1 X171.683 Y112.681 E3.55413
G1 X172.036 Y113.714 E3.58053
G1 X172.102 Y187.855 E5.37362
G1 X172.014 Y188.533 E5.39015
G1 X171.463 Y189.817 E5.42394
G1 X170.53 Y190.882 E5.45818
G1 X169.512 Y191.547 E5.48759
G1 X168.35 Y191.89 E5.51689
G1 X156.796 Y191.917 E5.79632
G1 X156.506 Y192.183 E5.80584
G1 X155.845 Y192.589 E5.8246
G1 X154.388 Y193.004 E5.86124
G1 X130.971 Y193.004 E6.42758
G1 X130.294 Y192.915 E6.44409
G1 X129.01 Y192.365 E6.47787
G1 X127.94 Y191.427 E6.51228
G1 X127.232 Y190.301 E6.54445
G1 X126.908 Y189.044 E6.57584
G1 X126.908 Y113.147 E8.4114
G1 X126.997 Y112.47 E8.42791
G1 X127.523 Y111.241 E8.46024
G1 X127.879 Y111.395 F7800
G1 F1800
G1 X128.754 Y110.396 E8.49236
G1 X129.617 Y109.829 E8.51733
G1 X130.604 Y109.513 E8.54239
G1 X140.176 Y109.474 E8.77389
G1 X140.215 Y102.223 E8.94926
G1 X140.453 Y101.425 E8.9694
G1 X140.933 Y100.582 E8.99286
G1 X141.656 Y99.83 E9.01809
G1 X142.383 Y99.338 E9.03932
G1 X143.764 Y98.929 E9.07415
G1 X156.212 Y98.933 E9.3752
G1 X157.031 Y99.099 E9.39541
G1 X157.795 Y99.435 E9.4156
G1 X158.864 Y100.352 E9.44966
G1 X159.432 Y101.182 E9.47398
G1 X159.767 Y102.159 E9.49896
G1 X159.818 Y110.584 E9.70272
G1 X168.481 Y110.63 E9.91224
G1 X169.118 Y110.818 E9.9283
G1 X169.702 Y111.093 E9.94391
G1 X170.757 Y112.002 E9.97759
G1 X171.324 Y112.832 E10.0019
G1 X171.659 Y113.809 E10.02688
G1 X171.714 Y187.843 E11.81738
G1 X171.633 Y188.455 E11.83231
G1 X171.121 Y189.634 E11.8634
G1 X170.258 Y190.604 E11.8948
G1 X169.326 Y191.206 E11.92163
G1 X168.322 Y191.502 E11.94694
G1 X156.642 Y191.529 E12.22942
G1 X156.282 Y191.865 E12.24133
G1 X155.71 Y192.224 E12.25766
G1 X154.36 Y192.616 E12.29166
G1 X130.984 Y192.616 E12.85701
G1 X130.373 Y192.534 E12.87192
G1 X129.194 Y192.022 E12.90301
G1 X128.219 Y191.156 E12.93455
G1 X127.599 Y190.173 E12.96266
G1 X127.296 Y189.019 E12.99152
G1 X127.296 Y113.16 E14.82616
G1 X127.377 Y112.549 E14.84107
G1 X127.855 Y111.45 E14.87005
G1 X128.209 Y111.607 F7800
G1 F1800
G1 X128.231 Y111.555 E14.87142
G1 X129.025 Y110.675 E14.90009
G1 X129.805 Y110.169 E14.92258
G1 X130.692 Y109.892 E14.94505
G1 X140.562 Y109.861 E15.18376
G1 X140.595 Y102.304 E15.36653
G1 X140.801 Y101.597 E15.38434
G1 X141.258 Y100.796 E15.40664
G1 X141.919 Y100.116 E15.42958
G1 X142.574 Y99.676 E15.44866
G1 X143.791 Y99.317 E15.47935
G1 X156.191 Y99.321 E15.77924
G1 X156.931 Y99.474 E15.79752
G1 X157.61 Y99.777 E15.8155
G1 X158.59 Y100.627 E15.84687
G1 X159.095 Y101.377 E15.86874
G1 X159.389 Y102.252 E15.89106
G1 X159.432 Y110.971 E16.10193
G1 X168.4 Y111.01 E16.31882
G1 X168.967 Y111.175 E16.3331
G1 X169.511 Y111.432 E16.34765
G1 X170.483 Y112.277 E16.3788
G1 X170.988 Y113.026 E16.40065
G1 X171.282 Y113.902 E16.423
G1 X171.327 Y187.829 E18.21092
G1 X171.253 Y188.375 E18.22425
G1 X170.779 Y189.448 E18.25262
G1 X169.988 Y190.325 E18.28118
G1 X169.187 Y190.843 E18.30425
G1 X168.292 Y191.114 E18.32687
G1 X156.485 Y191.142 E18.61242
G1 X156.059 Y191.548 E18.62665
G1 X155.527 Y191.881 E18.64183
G1 X154.333 Y192.228 E18.6719
G1 X130.998 Y192.228 E19.23625
G1 X130.453 Y192.154 E19.24955
G1 X129.38 Y191.68 E19.27792
G1 X128.5 Y190.887 E19.30657
G1 X127.944 Y189.994 E19.33201
G1 X127.684 Y188.994 E19.357
G1 X127.684 Y113.173 E21.19072
G1 X127.758 Y112.628 E21.20402
G1 X128.185 Y111.661 E21.22959
G1 X128.538 Y111.82 F7800
G1 F1800
G1 X128.572 Y111.744 E21.2316
G1 X129.292 Y110.957 E21.2574
G1 X129.99 Y110.511 E21.27743
G1 X130.776 Y110.272 E21.2973
G1 X140.949 Y110.248 E21.54333
G1 X140.975 Y102.384 E21.73352
G1 X141.15 Y101.768 E21.74901
G1 X141.582 Y101.011 E21.77009
G1 X142.18 Y100.403 E21.79071
G1 X142.763 Y100.016 E21.80763
G1 X143.819 Y99.705 E21.83425
G1 X156.172 Y99.709 E22.13301
G1 X156.792 Y99.837 E22.14832
G1 X157.424 Y100.119 E22.16506
G1 X158.314 Y100.901 E22.19371
G1 X158.757 Y101.568 E22.21308
G1 X159.011 Y102.343 E22.2328
G1 X159.045 Y111.357 E22.4508
G1 X168.319 Y111.391 E22.67509
G1 X168.816 Y111.532 E22.68758
G1 X169.321 Y111.771 E22.70109
G1 X170.206 Y112.551 E22.72962
G1 X170.649 Y113.218 E22.74899
G1 X170.904 Y113.993 E22.76872
G1 X170.939 Y187.816 E24.55412
G1 X170.872 Y188.293 E24.56577
G1 X170.439 Y189.259 E24.59137
G1 X169.719 Y190.045 E24.61715
G1 X169.045 Y190.481 E24.63656
G1 X168.261 Y190.726 E24.65643
G1 X156.327 Y190.755 E24.94505
G1 X155.835 Y191.23 E24.96159
G1 X155.344 Y191.538 E24.97561
G1 X154.305 Y191.84 E25.00178
G1 X131.011 Y191.84 E25.56514
G1 X130.534 Y191.774 E25.57679
G1 X129.568 Y191.34 E25.6024
G1 X128.781 Y190.619 E25.62821
G1 X128.311 Y189.866 E25.64968
G1 X128.072 Y188.968 E25.67215
G1 X128.072 Y113.187 E27.5049
G1 X128.138 Y112.71 E27.51655
G1 X128.513 Y111.875 E27.53869
G1 X128.864 Y112.036 F7800
G1 F1800
G1 X128.911 Y111.935 E27.54138
G1 X129.559 Y111.24 E27.56436
G1 X130.128 Y110.874 E27.58072
G1 X130.862 Y110.651 E27.59927
G1 X141.336 Y110.635 E27.85258
G1 X141.356 Y102.461 E28.05027
G1 X141.5 Y101.938 E28.06339
G1 X141.905 Y101.226 E28.0832
G1 X142.44 Y100.692 E28.10148
G1 X142.952 Y100.356 E28.11629
G1 X143.847 Y100.093 E28.13885
G1 X156.151 Y100.097 E28.43642
G1 X156.69 Y100.211 E28.44974
G1 X157.236 Y100.459 E28.46424
G1 X158.036 Y101.172 E28.49016
G1 X158.418 Y101.757 E28.50706
G1 X158.633 Y102.431 E28.52417
G1 X158.658 Y111.744 E28.7494
G1 X168.24 Y111.771 E28.98114
G1 X168.666 Y111.89 E28.99184
G1 X169.129 Y112.109 E29.00423
G1 X169.928 Y112.822 E29.03013
G1 X170.31 Y113.407 E29.04703
G1 X170.525 Y114.081 E29.06414
G1 X170.551 Y187.802 E30.84707
G1 X170.493 Y188.209 E30.85701
G1 X170.1 Y189.068 E30.87986
G1 X169.452 Y189.763 E30.90284
G1 X168.901 Y190.121 E30.91873
G1 X168.229 Y190.339 E30.93582
G1 X156.167 Y190.367 E31.22754
G1 X155.611 Y190.913 E31.24639
G1 X155.16 Y191.195 E31.25925
G1 X154.278 Y191.452 E31.28147
G1 X131.025 Y191.452 E31.84384
G1 X130.618 Y191.394 E31.85378
G1 X129.759 Y191.001 E31.87663
G1 X129.065 Y190.354 E31.89958
G1 X128.677 Y189.735 E31.91725
G1 X128.459 Y188.942 E31.93714
G1 X128.459 Y113.201 E33.76893
G1 X128.518 Y112.794 E33.77888
G1 X128.84 Y112.09 E33.7976
G1 X129.189 Y112.254 F7800
G1 F1800
G1 X129.248 Y112.129 E33.80094
G1 X129.822 Y111.525 E33.82109
G1 X130.311 Y111.217 E33.83507
G1 X130.944 Y111.031 E33.85103
G1 X141.723 Y111.023 E34.11172
G1 X141.738 Y102.534 E34.31703
G1 X141.851 Y102.104 E34.32778
G1 X142.199 Y101.481 E34.34504
G1 X142.699 Y100.981 E34.36214
G1 X143.138 Y100.697 E34.37479
G1 X143.874 Y100.481 E34.39334
G1 X156.129 Y100.484 E34.68973
G1 X156.585 Y100.585 E34.70103
G1 X157.045 Y100.798 E34.71329
G1 X157.755 Y101.441 E34.73646
G1 X158.076 Y101.942 E34.75085
G1 X158.254 Y102.517 E34.76541
G1 X158.271 Y112.131 E34.99792
G1 X168.163 Y112.152 E35.23716
G1 X168.516 Y112.248 E35.24601
G1 X168.937 Y112.447 E35.25727
G1 X169.648 Y113.091 E35.28047
G1 X169.968 Y113.592 E35.29485
G1 X170.146 Y114.167 E35.30941
G1 X170.163 Y187.787 E37.0899
G1 X170.114 Y188.124 E37.09814
G1 X169.763 Y188.874 E37.11817
G1 X169.188 Y189.479 E37.13836
G1 X168.752 Y189.762 E37.15093
G1 X168.195 Y189.951 E37.16516
G1 X156.008 Y189.98 E37.4599
G1 X155.356 Y190.621 E37.48201
G1 X154.98 Y190.851 E37.49267
G1 X154.25 Y191.065 E37.51107
G1 X131.04 Y191.065 E38.0724
G1 X130.703 Y191.015 E38.08064
G1 X129.953 Y190.664 E38.10067
G1 X129.35 Y190.09 E38.1208
G1 X129.042 Y189.602 E38.13476
G1 X128.847 Y188.914 E38.15205
G1 X128.847 Y113.216 E39.9828
G1 X128.897 Y112.879 E39.99104
G1 X129.164 Y112.308 E40.00628
G1 X129.512 Y112.475 F7800
G1 F1800
G1 X129.583 Y112.327 E40.01025
G1 X130.083 Y111.812 E40.02761
G1 X130.447 Y111.581 E40.03804
G1 X131.027 Y111.411 E40.05266
G1 X142.11 Y111.411 E40.3207
G1 X142.12 Y102.604 E40.5337
G1 X142.204 Y102.266 E40.54212
G1 X142.494 Y101.735 E40.55675
G1 X142.957 Y101.271 E40.5726
G1 X143.322 Y101.039 E40.58306
G1 X143.902 Y100.868 E40.59768
G1 X156.106 Y100.872 E40.89283
G1 X156.475 Y100.957 E40.90199
G1 X156.852 Y101.135 E40.91207
G1 X157.474 Y101.709 E40.93254
G1 X157.713 Y102.082 E40.94325
G1 X157.874 Y102.604 E40.95646
G1 X157.883 Y112.519 E41.19625
G1 X168.089 Y112.533 E41.44308
G1 X168.367 Y112.607 E41.45004
G1 X168.744 Y112.785 E41.46012
G1 X169.366 Y113.359 E41.48059
G1 X169.605 Y113.732 E41.4913
G1 X169.767 Y114.254 E41.50452
G1 X169.775 Y187.772 E43.28254
G1 X169.735 Y188.035 E43.28897
G1 X169.428 Y188.676 E43.30616
G1 X168.927 Y189.191 E43.32354
G1 X168.565 Y189.421 E43.33391
G1 X168.104 Y189.573 E43.34565
G1 X155.763 Y189.592 E43.64412
G1 X155.633 Y189.808 E43.65022
G1 X155.102 Y190.326 E43.66816
G1 X154.803 Y190.506 E43.6766
G1 X154.222 Y190.677 E43.69125
G1 X131.055 Y190.677 E44.25154
G1 X130.792 Y190.636 E44.25798
G1 X130.151 Y190.329 E44.27517
G1 X129.637 Y189.829 E44.29251
G1 X129.406 Y189.465 E44.30294
G1 X129.235 Y188.885 E44.31756
G1 X129.235 Y113.231 E46.14724
G1 X129.275 Y112.968 E46.15367
G1 X129.486 Y112.529 E46.16545
G1 X129.831 Y112.699 F7800
G1 F1800
G1 X129.915 Y112.529 E46.17004
G1 X130.342 Y112.102 E46.18464
G1 X130.588 Y111.943 E46.19172
G1 X131.057 Y111.799 E46.20359
G1 X142.498 Y111.799 E46.48029
G1 X142.502 Y102.669 E46.7011
G1 X142.56 Y102.422 E46.70724
G1 X142.789 Y101.987 E46.71913
G1 X143.217 Y101.559 E46.73377
G1 X143.464 Y101.401 E46.74086
G1 X143.932 Y101.256 E46.75271
G1 X156.083 Y101.26 E47.04658
G1 X156.328 Y101.317 E47.05266
G1 X156.657 Y101.472 E47.06146
G1 X157.191 Y101.974 E47.07919
G1 X157.351 Y102.222 E47.08633
G1 X157.495 Y102.69 E47.09817
G1 X157.495 Y112.906 E47.34524
G1 X168.018 Y112.915 E47.59974
G1 X168.219 Y112.966 E47.60476
G1 X168.55 Y113.122 E47.61361
G1 X169.083 Y113.624 E47.63132
G1 X169.243 Y113.872 E47.63846
G1 X169.388 Y114.34 E47.65031
G1 X169.388 Y187.755 E49.42584
G1 X169.357 Y187.943 E49.43045
G1 X169.095 Y188.474 E49.44477
G1 X168.668 Y188.901 E49.45937
G1 X168.421 Y189.061 E49.46649
G1 X168.012 Y189.195 E49.4769
G1 X155.525 Y189.205 E49.7789
G1 X155.336 Y189.557 E49.78856
G1 X154.877 Y190.01 E49.80416
G1 X154.662 Y190.144 E49.81029
G1 X154.192 Y190.289 E49.82219
G1 X131.072 Y190.289 E50.38134
G1 X130.884 Y190.259 E50.38594
G1 X130.353 Y189.997 E50.40026
G1 X129.926 Y189.57 E50.41486
G1 X129.768 Y189.324 E50.42193
G1 X129.623 Y188.855 E50.4338
G1 X129.623 Y113.248 E52.26235
G1 X129.653 Y113.06 E52.26695
G1 X129.805 Y112.753 E52.27523
G1 X130.145 Y112.918 F7800
G1 F1800
G1 X130.212 Y112.78 E52.27894
G1 X130.603 Y112.39 E52.2923
G1 X130.735 Y112.303 E52.29612
G1 X131.09 Y112.186 E52.30516
G1 X142.886 Y112.186 E52.59044
G1 X142.886 Y102.726 E52.81923
G1 X142.919 Y102.571 E52.82306
G1 X143.087 Y102.238 E52.83208
G1 X143.478 Y101.847 E52.84545
G1 X143.611 Y101.76 E52.84929
G1 X143.965 Y101.644 E52.8583
G1 X156.061 Y101.648 E53.15084
G1 X156.181 Y101.676 E53.15382
G1 X156.462 Y101.809 E53.16134
G1 X156.905 Y102.237 E53.17624
G1 X156.991 Y102.369 E53.18005
G1 X157.107 Y102.723 E53.18906
G1 X157.107 Y113.294 E53.44472
G1 X167.953 Y113.298 E53.70703
G1 X168.073 Y113.326 E53.71001
G1 X168.354 Y113.459 E53.71753
G1 X168.797 Y113.887 E53.73243
G1 X168.883 Y114.019 E53.73624
G1 X169 Y114.373 E53.74526
G1 X169 Y187.738 E55.51958
G1 X168.98 Y187.849 E55.52231
G1 X168.798 Y188.223 E55.53237
G1 X168.408 Y188.613 E55.54571
G1 X168.275 Y188.7 E55.54955
G1 X167.921 Y188.817 E55.55857
G1 X155.28 Y188.817 E55.86429
G1 X155.037 Y189.308 E55.87754
G1 X154.646 Y189.698 E55.8909
G1 X154.513 Y189.785 E55.89474
G1 X154.159 Y189.901 E55.90375
G1 X131.09 Y189.901 E56.46167
G1 X130.978 Y189.882 E56.46442
G1 X130.604 Y189.699 E56.47449
G1 X130.214 Y189.309 E56.48783
G1 X130.127 Y189.176 E56.49167
G1 X130.011 Y188.822 E56.50068
G1 X130.011 Y113.266 E58.32799
G1 X130.03 Y113.154 E58.33074
G1 X130.119 Y112.972 E58.33564
G1 X130.462 Y113.134 F7800
G1 F1800
G1 X130.511 Y113.03 E58.33842
G1 X130.864 Y112.677 E58.35049
G1 X131.126 Y112.574 E58.3573
G1 X143.274 Y112.574 E58.6511
G1 X143.274 Y102.745 E58.88881
G1 X143.386 Y102.487 E58.89561
G1 X143.767 Y102.116 E58.90847
G1 X144.001 Y102.032 E58.91448
G1 X156.007 Y102.032 E59.20484
G1 X156.264 Y102.145 E59.21163
G1 X156.617 Y102.497 E59.22369
G1 X156.72 Y102.759 E59.2305
G1 X156.72 Y113.682 E59.49467
G1 X167.899 Y113.682 E59.76503
G1 X168.157 Y113.794 E59.77183
G1 X168.528 Y114.175 E59.78469
G1 X168.612 Y114.409 E59.7907
G1 X168.612 Y187.716 E61.56362
G1 X168.499 Y187.974 E61.57043
G1 X168.119 Y188.345 E61.58327
G1 X167.885 Y188.429 E61.58928
G1 X154.861 Y188.429 E61.90426
G1 X154.838 Y188.846 E61.91436
G1 X154.738 Y189.058 E61.92003
G1 X154.385 Y189.411 E61.9321
G1 X154.123 Y189.513 E61.9389
G1 X131.111 Y189.513 E62.49544
G1 X130.854 Y189.401 E62.50222
G1 X130.482 Y189.02 E62.5151
G1 X130.398 Y188.786 E62.52111
G1 X130.398 Y113.287 E64.34704
G1 X130.436 Y113.189 E64.34958
G1 X130.79 Y113.335 F7800
G1 F1800
G1 X130.816 Y113.273 E64.35121
G1 X131.097 Y112.992 E64.36082
G1 X131.169 Y112.962 E64.36271
G1 X143.662 Y112.962 E64.66485
G1 X143.662 Y102.802 E64.91057
G1 X143.691 Y102.731 E64.91242
G1 X143.973 Y102.449 E64.92207
G1 X144.044 Y102.42 E64.92392
G1 X155.949 Y102.42 E65.21184
G1 X156.021 Y102.449 E65.21372
G1 X156.302 Y102.731 E65.22335
G1 X156.332 Y102.802 E65.22521
G1 X156.332 Y114.07 E65.49773
G1 X167.842 Y114.07 E65.7761
G1 X167.913 Y114.099 E65.77795
G1 X168.195 Y114.381 E65.7876
G1 X168.224 Y114.452 E65.78945
G1 X168.224 Y187.658 E67.55993
G1 X168.195 Y187.73 E67.56181
G1 X167.913 Y188.011 E67.57144
G1 X167.842 Y188.041 E67.5733
G1 X154.463 Y188.041 E67.89687
G1 X154.462 Y188.743 E67.91385
G1 X154.433 Y188.814 E67.9157
G1 X154.151 Y189.096 E67.92535
G1 X154.08 Y189.125 E67.9272
G1 X131.169 Y189.125 E68.4813
G1 X131.097 Y189.096 E68.48318
G1 X130.816 Y188.814 E68.49281
G1 X130.786 Y188.743 E68.49467
G1 X130.786 Y113.395 E70.31695
G1 X131.174 Y113.463 F7800
G1 F1800
G1 X131.288 Y113.35 E70.32083
G1 X144.049 Y113.35 E70.62945
G1 X144.049 Y102.921 E70.88167
G1 X144.163 Y102.807 E70.88557
G1 X155.83 Y102.807 E71.16774
G1 X155.944 Y102.921 E71.17164
G1 X155.944 Y114.457 E71.45064
G1 X167.723 Y114.457 E71.73551
G1 X167.836 Y114.571 E71.73939
G1 X167.836 Y187.54 E73.50414
G1 X167.723 Y187.653 E73.508
G1 X154.075 Y187.653 E73.83808
G1 X154.075 Y188.624 E73.86156
G1 X153.961 Y188.738 E73.86546
G1 X131.288 Y188.738 E74.4138
G1 X131.174 Y188.624 E74.4177
G1 X131.174 Y113.523 E76.23401
G1 E74.23401 F2400
G92 E0
G1 X144.906 Y114.257 F7800
G1 E2 F2400
;TYPE:Perimeter
;WIDTH:0.419999
G1 F1800
G1 X145.024 Y114.156 E2.00376
G1 X145.179 Y113.868 E2.01167
G1 X145.229 Y113.56 E2.01922
G1 X145.229 Y103.987 E2.25074
G1 X154.765 Y103.987 E2.48137
G1 X154.773 Y114.794 E2.74274
G1 X154.869 Y115.106 E2.75063
G1 X155.074 Y115.377 E2.75885
G1 X155.361 Y115.562 E2.76711
G1 X155.734 Y115.637 E2.77631
G1 X166.657 Y115.637 E3.04048
G1 X166.657 Y186.474 E4.75366
G1 X153.865 Y186.474 E5.06303
G1 X153.632 Y186.502 E5.06871
G1 X153.316 Y186.644 E5.07709
G1 X153.027 Y186.955 E5.08736
