;FLAVOR:Marlin
;TIME:968
;Filament used: 1.62189m
;Layer height: 0.32
;MINX:131.424
;MINY:114.439
;MINZ:0.32
;MAXX:168.577
;MAXY:185.563
;MAXZ:12.16
;Generated with Cura_SteamEngine master
M140 S60
M105
M190 S60
M104 S240
M105
M109 S240
M82 ;absolute extrusion mode
G28 ;Home
G1 Z15.0 F2000 ;Move the platform
G92 E0
G92 E0
;LAYER_COUNT:38
;LAYER:0
M107 P2
G0 F7500 X149.654 Y117.346 Z0.32
;TYPE:SKIRT
G1 F1500 X150.201 Y116.755 E0.06428
G1 X150.803 Y116.221 E0.12852
G1 X151.455 Y115.749 E0.19277
G1 X152.15 Y115.345 E0.25694
G1 X152.883 Y115.011 E0.32124
G1 X153.644 Y114.752 E0.38541
G1 X154.428 Y114.569 E0.44967
G1 X155.226 Y114.466 E0.5139
G1 X155.868 Y114.44 E0.56519
G1 X160.474 Y114.439 E0.93286
G1 X161.278 Y114.479 E0.99712
G1 X162.074 Y114.598 E1.06136
G1 X162.854 Y114.796 E1.1256
G1 X163.61 Y115.07 E1.18979
G1 X164.336 Y115.418 E1.25406
G1 X165.024 Y115.836 E1.31832
G1 X165.666 Y116.32 E1.3825
G1 X166.258 Y116.866 E1.44678
G1 X166.792 Y117.468 E1.51102
G1 X167.264 Y118.12 E1.57527
G1 X167.669 Y118.815 E1.63948
G1 X168.003 Y119.547 E1.70371
G1 X168.263 Y120.309 E1.76798
G1 X168.446 Y121.093 E1.83224
G1 X168.55 Y121.89 E1.8964
G1 X168.576 Y122.539 E1.94825
G1 X168.576 Y127.958 E2.38081
G1 X168.571 Y128.243 E2.40357
G1 X168.563 Y128.47 E2.4217
G1 X168.519 Y129.072 E2.46988
G1 X168.494 Y129.299 E2.48811
G1 X168.405 Y129.898 E2.53645
G1 X168.363 Y130.123 E2.55472
G1 X168.226 Y130.729 E2.60432
G1 X168.168 Y130.946 E2.62225
G1 X168.013 Y131.459 E2.66502
G1 X167.941 Y131.671 E2.6829
G1 X167.703 Y132.287 E2.73561
G1 X167.612 Y132.497 E2.75388
G1 X167.335 Y133.073 E2.8049
G1 X167.231 Y133.269 E2.82261
G1 X166.971 Y133.723 E2.86437
G1 X166.852 Y133.916 E2.88247
G1 X166.494 Y134.449 E2.93373
G1 X166.363 Y134.628 E2.95143
G1 X165.989 Y135.1 E2.9995
G1 X165.844 Y135.27 E3.01734
G1 X165.427 Y135.723 E3.06649
G1 X165.271 Y135.88 E3.08415
G1 X164.767 Y136.346 E3.13895
G1 X164.595 Y136.492 E3.15696
G1 X164.137 Y136.854 E3.20356
G1 X163.958 Y136.985 E3.22126
G1 X163.413 Y137.35 E3.27362
G1 X163.229 Y137.463 E3.29086
G1 X162.671 Y137.776 E3.34193
G1 X162.475 Y137.876 E3.35949
G1 X161.949 Y138.121 E3.40581
G1 X161.748 Y138.206 E3.42323
G1 X161.17 Y138.437 E3.47292
G1 X160.986 Y138.519 E3.489
G1 X160.74 Y138.636 E3.51075
G1 X160.331 Y138.849 E3.54756
G1 X159.981 Y139.044 E3.57954
G1 X159.868 Y139.111 E3.59002
G1 X159.586 Y139.29 E3.61669
G1 X159.234 Y139.525 E3.65047
G1 X158.812 Y139.818 E3.69148
G1 X158.579 Y139.986 E3.71441
G1 X158.214 Y140.267 E3.75118
G1 X158.058 Y140.391 E3.76709
G1 X157.757 Y140.638 E3.79817
G1 X157.397 Y140.948 E3.83609
G1 X157.24 Y141.087 E3.85283
G1 X156.893 Y141.409 E3.89062
G1 X156.448 Y142.099 E3.95616
G1 X156.105 Y142.613 E4.00548
G1 X155.625 Y143.259 E4.06973
G1 X155.332 Y143.597 E4.10543
G1 X155.142 Y143.811 E4.12828
G1 X154.86 Y144.158 E4.16397
G1 X154.549 Y144.557 E4.20435
G1 X154.452 Y144.689 E4.21743
G1 X153.947 Y145.405 E4.28737
G1 X153.68 Y145.791 E4.32483
G1 X153.438 Y146.176 E4.36113
G1 X153.292 Y146.415 E4.38349
G1 X153.166 Y146.632 E4.40352
G1 X153.021 Y146.889 E4.42707
G1 X152.882 Y147.148 E4.45054
G1 X152.684 Y147.538 E4.48545
G1 X152.568 Y147.776 E4.50659
G1 X152.456 Y148.019 E4.52794
G1 X152.309 Y148.371 E4.55839
G1 X152.242 Y148.544 E4.5732
G1 X152.093 Y148.949 E4.60765
G1 X152.001 Y149.232 E4.6314
G1 X151.91 Y149.577 E4.65989
G1 X151.829 Y149.984 E4.69301
G1 X151.882 Y150.299 E4.71851
G1 X151.955 Y150.598 E4.74308
G1 X152.064 Y150.966 E4.77371
G1 X152.167 Y151.268 E4.79919
G1 X152.241 Y151.457 E4.81539
G1 X152.37 Y151.775 E4.84278
G1 X152.475 Y152.019 E4.86398
G1 X152.531 Y152.143 E4.87485
G1 X152.647 Y152.388 E4.89648
G1 X152.813 Y152.727 E4.92661
G1 X152.941 Y152.972 E4.94868
G1 X153.114 Y153.279 E4.97681
G1 X153.326 Y153.641 E5.0103
G1 X153.599 Y154.084 E5.05183
G1 X153.696 Y154.233 E5.06603
G1 X153.891 Y154.519 E5.09366
G1 X154.305 Y155.109 E5.15119
G1 X154.521 Y155.405 E5.18044
G1 X154.688 Y155.625 E5.20249
G1 X155.006 Y156.023 E5.24315
G1 X155.225 Y156.29 E5.27072
G1 X155.367 Y156.452 E5.28792
G1 X155.971 Y157.229 E5.36647
G1 X156.343 Y157.774 E5.41915
G1 X156.886 Y158.587 E5.49719
G1 X157.227 Y158.901 E5.53419
G1 X157.454 Y159.101 E5.55834
G1 X157.631 Y159.253 E5.57696
G1 X157.948 Y159.519 E5.61
G1 X158.562 Y160.003 E5.67241
G1 X158.771 Y160.155 E5.69303
G1 X159.042 Y160.346 E5.7195
G1 X159.362 Y160.566 E5.7505
G1 X159.653 Y160.754 E5.77815
G1 X159.812 Y160.852 E5.79306
G1 X160.121 Y161.033 E5.82165
G1 X160.41 Y161.194 E5.84806
G1 X160.698 Y161.344 E5.87398
G1 X160.967 Y161.472 E5.89776
G1 X161.339 Y161.631 E5.93005
G1 X161.548 Y161.712 E5.94794
G1 X161.811 Y161.82 E5.97064
G1 X162.011 Y161.906 E5.98801
G1 X162.538 Y162.156 E6.03458
G1 X162.729 Y162.255 E6.05175
G1 X163.262 Y162.556 E6.10061
G1 X163.448 Y162.671 E6.11807
G1 X163.995 Y163.042 E6.17083
G1 X164.174 Y163.174 E6.18858
G1 X164.675 Y163.574 E6.23975
G1 X164.841 Y163.718 E6.2573
G1 X165.279 Y164.128 E6.30519
G1 X165.434 Y164.284 E6.32274
G1 X165.905 Y164.8 E6.37851
G1 X166.047 Y164.97 E6.39619
G1 X166.345 Y165.349 E6.43468
G1 X166.478 Y165.529 E6.45254
G1 X166.866 Y166.106 E6.50805
G1 X166.982 Y166.295 E6.52575
G1 X167.273 Y166.809 E6.5729
G1 X167.376 Y167.008 E6.59078
G1 X167.616 Y167.514 E6.63549
G1 X167.706 Y167.722 E6.65358
G1 X167.938 Y168.323 E6.705
G1 X168.01 Y168.534 E6.7228
G1 X168.172 Y169.07 E6.7675
G1 X168.231 Y169.292 E6.78583
G1 X168.376 Y169.942 E6.83899
G1 X168.416 Y170.165 E6.85708
G1 X168.494 Y170.704 E6.90055
G1 X168.519 Y170.93 E6.9187
G1 X168.563 Y171.528 E6.96657
G1 X168.571 Y171.749 E6.98422
G1 X168.576 Y172.041 E7.00753
G1 X168.577 Y177.459 E7.44002
G1 X168.537 Y178.262 E7.5042
G1 X168.418 Y179.058 E7.56844
G1 X168.22 Y179.838 E7.63268
G1 X167.946 Y180.595 E7.69695
G1 X167.598 Y181.32 E7.76114
G1 X167.18 Y182.008 E7.8254
G1 X166.695 Y182.651 E7.88969
G1 X166.15 Y183.242 E7.95386
G1 X165.548 Y183.776 E8.0181
G1 X164.896 Y184.248 E8.08235
G1 X164.201 Y184.653 E8.14656
G1 X163.469 Y184.987 E8.21079
G1 X162.707 Y185.247 E8.27506
G1 X161.923 Y185.43 E8.33932
G1 X161.125 Y185.534 E8.40356
G1 X160.561 Y185.56 E8.44863
G1 X160.227 Y185.562 E8.47529
G1 X158.958 Y185.553 E8.57659
G1 X156.214 Y185.563 E8.79563
G1 X155.809 Y185.56 E8.82796
G1 X155.006 Y185.514 E8.89216
G1 X154.211 Y185.388 E8.95642
G1 X153.432 Y185.185 E9.02068
G1 X152.678 Y184.905 E9.08488
G1 X151.955 Y184.551 E9.14914
G1 X151.27 Y184.128 E9.2134
G1 X150.631 Y183.639 E9.27763
G1 X150.044 Y183.089 E9.34185
G1 X149.514 Y182.483 E9.40611
G1 X149.047 Y181.827 E9.47039
G1 X148.648 Y181.129 E9.53457
G1 X148.319 Y180.394 E9.59885
G1 X148.065 Y179.631 E9.66304
G1 X147.888 Y178.846 E9.72727
G1 X147.79 Y178.047 E9.79153
G1 X147.77 Y177.484 E9.8365
G1 X147.076 Y177 E9.90404
G1 X146.631 Y176.677 E9.94793
G1 X146.285 Y176.419 E9.98239
G1 X145.892 Y176.117 E10.02195
G1 X145.487 Y175.797 E10.06315
G1 X144.934 Y175.348 E10.12001
G1 X144.391 Y174.891 E10.17667
G1 X144.07 Y174.613 E10.21056
G1 X143.618 Y174.212 E10.2588
G1 X142.904 Y173.553 E10.33636
G1 X142.708 Y173.365 E10.35804
G1 X142.519 Y173.178 E10.37926
G1 X142.33 Y173.001 E10.39993
G1 X142.078 Y172.755 E10.42804
G1 X141.937 Y172.611 E10.44413
G1 X141.641 Y172.291 E10.47892
G1 X141.416 Y172.035 E10.50613
G1 X141.153 Y171.721 E10.53882
G1 X140.996 Y171.523 E10.559
G1 X140.774 Y171.229 E10.5884
G1 X140.598 Y170.985 E10.61242
G1 X140.457 Y170.784 E10.63202
G1 X139.991 Y170.095 E10.69841
G1 X139.554 Y169.442 E10.76114
G1 X139.156 Y168.955 E10.81134
G1 X138.724 Y168.412 E10.86673
G1 X138.402 Y167.995 E10.90878
G1 X138.277 Y167.828 E10.92544
G1 X137.75 Y167.106 E10.99679
G1 X137.145 Y166.243 E11.08092
G1 X136.781 Y165.708 E11.13257
G1 X136.459 Y165.214 E11.17964
G1 X136.086 Y164.615 E11.23597
G1 X135.707 Y163.984 E11.29473
G1 X135.366 Y163.392 E11.34926
G1 X135.043 Y162.811 E11.40232
G1 X134.935 Y162.61 E11.42054
G1 X134.649 Y162.056 E11.47031
G1 X134.424 Y161.603 E11.51068
G1 X134.105 Y160.937 E11.56963
G1 X133.901 Y160.49 E11.60885
G1 X133.624 Y159.849 E11.66459
G1 X133.566 Y159.712 E11.67647
G1 X133.31 Y159.079 E11.73097
G1 X133.1 Y158.537 E11.77737
G1 X132.95 Y158.121 E11.81267
G1 X132.773 Y157.605 E11.85622
G1 X132.619 Y157.131 E11.896
G1 X132.477 Y156.668 E11.93466
G1 X132.339 Y156.184 E11.97483
G1 X132.205 Y155.683 E12.01623
G1 X132.114 Y155.32 E12.0461
G1 X131.99 Y154.781 E12.09025
G1 X131.9 Y154.363 E12.12438
G1 X131.853 Y154.128 E12.14351
G1 X131.751 Y153.566 E12.18911
G1 X131.685 Y153.154 E12.22241
G1 X131.646 Y152.89 E12.24372
G1 X131.617 Y152.672 E12.26127
G1 X131.528 Y151.921 E12.32164
G1 X131.499 Y151.629 E12.34506
G1 X131.477 Y151.362 E12.36645
G1 X131.447 Y150.873 E12.40555
G1 X131.436 Y150.636 E12.42449
G1 X131.427 Y150.322 E12.44957
G1 X131.424 Y150.019 E12.47376
G1 X131.427 Y149.677 E12.50106
G1 X131.435 Y149.384 E12.52445
G1 X131.45 Y149.051 E12.55106
G1 X131.464 Y148.816 E12.56986
G1 X131.487 Y148.506 E12.59467
G1 X131.505 Y148.299 E12.61125
G1 X131.552 Y147.846 E12.64761
G1 X131.601 Y147.454 E12.67914
G1 X131.667 Y146.973 E12.7179
G1 X131.755 Y146.415 E12.76299
G1 X131.806 Y146.124 E12.78657
G1 X131.923 Y145.525 E12.83529
G1 X131.967 Y145.315 E12.85242
G1 X132.056 Y144.92 E12.88474
G1 X132.155 Y144.509 E12.91849
G1 X132.255 Y144.12 E12.95055
G1 X132.373 Y143.687 E12.98637
G1 X132.512 Y143.209 E13.02611
G1 X132.621 Y142.857 E13.05552
G1 X132.681 Y142.672 E13.07105
G1 X132.842 Y142.193 E13.11139
G1 X133.075 Y141.542 E13.16658
G1 X133.298 Y140.953 E13.21685
G1 X133.516 Y140.406 E13.26386
G1 X133.729 Y139.899 E13.30775
G1 X133.915 Y139.476 E13.34464
G1 X134.144 Y138.979 E13.38832
G1 X134.394 Y138.46 E13.43431
G1 X134.688 Y137.874 E13.48664
G1 X134.987 Y137.3 E13.5383
G1 X135.198 Y136.91 E13.5737
G1 X135.367 Y136.606 E13.60146
G1 X135.809 Y135.843 E13.67185
G1 X136.012 Y135.505 E13.70332
G1 X136.346 Y134.967 E13.75387
G1 X136.689 Y134.431 E13.80467
G1 X136.959 Y134.028 E13.84339
G1 X137.413 Y133.376 E13.90681
G1 X137.851 Y132.754 E13.96754
G1 X138.145 Y132.347 E14.00761
G1 X138.266 Y132.184 E14.02382
G1 X138.537 Y131.829 E14.05947
G1 X138.91 Y131.353 E14.10774
G1 X139.157 Y131.044 E14.13932
G1 X139.65 Y130.441 E14.20149
G1 X140.182 Y129.619 E14.27965
G1 X140.416 Y129.273 E14.313
G1 X140.571 Y129.052 E14.33454
G1 X140.703 Y128.87 E14.35249
G1 X140.906 Y128.597 E14.37965
G1 X141.102 Y128.344 E14.40519
G1 X141.223 Y128.194 E14.42058
G1 X141.412 Y127.968 E14.44409
G1 X141.551 Y127.808 E14.46101
G1 X141.84 Y127.492 E14.4952
G1 X142.067 Y127.257 E14.52128
G1 X142.33 Y126.998 E14.55074
G1 X142.684 Y126.657 E14.58998
G1 X143.259 Y126.118 E14.65289
G1 X143.674 Y125.738 E14.69781
G1 X144.097 Y125.364 E14.74288
G1 X144.77 Y124.788 E14.81359
G1 X145.322 Y124.335 E14.87059
G1 X145.751 Y123.993 E14.91438
G1 X146.315 Y123.558 E14.97124
G1 X146.685 Y123.284 E15.00799
G1 X147.115 Y122.976 E15.05021
G1 X147.676 Y122.584 E15.10484
G1 X147.771 Y122.52 E15.11399
G1 X147.81 Y121.733 E15.17689
G1 X147.93 Y120.938 E15.24106
G1 X148.128 Y120.158 E15.3053
G1 X148.403 Y119.401 E15.36959
G1 X148.751 Y118.676 E15.43379
G1 X149.17 Y117.988 E15.49809
G1 X149.654 Y117.346 E15.56227
G0 F7500 X150.248 Y117.575
G1 F1500 X150.79 Y117.022 E15.62408
G1 X151.386 Y116.528 E15.68587
G1 X152.03 Y116.098 E15.74768
G1 X152.715 Y115.736 E15.80953
G1 X153.433 Y115.447 E15.87131
G1 X154.177 Y115.234 E15.93309
G1 X154.94 Y115.098 E15.99495
G1 X155.868 Y115.04 E16.06917
G1 X160.474 Y115.039 E16.43685
G1 X161.248 Y115.079 E16.49871
G1 X162.013 Y115.198 E16.56051
G1 X162.761 Y115.396 E16.62228
G1 X163.486 Y115.669 E16.68412
G1 X164.178 Y116.016 E16.74591
G1 X164.831 Y116.433 E16.80776
G1 X165.437 Y116.914 E16.86952
G1 X165.991 Y117.456 E16.93138
G1 X166.485 Y118.052 E16.99318
G1 X166.916 Y118.695 E17.05497
G1 X167.278 Y119.38 E17.11681
G1 X167.568 Y120.098 E17.17863
G1 X167.782 Y120.842 E17.24042
G1 X167.918 Y121.604 E17.30221
G1 X167.976 Y122.539 E17.37699
G1 X167.976 Y127.958 E17.80956
G1 X167.971 Y128.222 E17.83064
G1 X167.963 Y128.449 E17.84877
G1 X167.923 Y129.006 E17.89334
G1 X167.898 Y129.233 E17.91157
G1 X167.816 Y129.788 E17.95636
G1 X167.774 Y130.013 E17.97463
G1 X167.647 Y130.574 E18.02054
G1 X167.589 Y130.791 E18.03847
G1 X167.445 Y131.266 E18.07809
G1 X167.373 Y131.478 E18.09596
G1 X167.153 Y132.048 E18.14474
G1 X167.062 Y132.258 E18.163
G1 X166.805 Y132.791 E18.21024
G1 X166.701 Y132.987 E18.22795
G1 X166.46 Y133.408 E18.26667
G1 X166.341 Y133.601 E18.28477
G1 X166.009 Y134.094 E18.33222
G1 X165.878 Y134.273 E18.34992
G1 X165.532 Y134.711 E18.39448
G1 X165.387 Y134.881 E18.41232
G1 X165.001 Y135.3 E18.45779
G1 X164.845 Y135.457 E18.47546
G1 X164.379 Y135.889 E18.52618
G1 X164.207 Y136.035 E18.54419
G1 X163.782 Y136.369 E18.58734
G1 X163.603 Y136.5 E18.60505
G1 X163.099 Y136.839 E18.65353
G1 X162.915 Y136.952 E18.67077
G1 X162.399 Y137.242 E18.71802
G1 X162.203 Y137.342 E18.73558
G1 X161.715 Y137.569 E18.77854
G1 X161.514 Y137.654 E18.79596
G1 X161.268 Y137.753 E18.81713
G1 X160.921 Y137.89 E18.84691
G1 X160.527 Y138.072 E18.88155
G1 X160.163 Y138.259 E18.91422
G1 X160.023 Y138.334 E18.9269
G1 X159.684 Y138.523 E18.95788
G1 X159.546 Y138.604 E18.97065
G1 X159.273 Y138.777 E18.99645
G1 X158.836 Y139.07 E19.03845
G1 X158.519 Y139.29 E19.06925
G1 X158.222 Y139.503 E19.09843
G1 X157.834 Y139.802 E19.13753
G1 X157.646 Y139.953 E19.15678
G1 X157.388 Y140.165 E19.18343
G1 X156.963 Y140.53 E19.22815
G1 X156.858 Y140.624 E19.2394
G1 X156.427 Y141.024 E19.28634
G1 X155.949 Y141.766 E19.35679
G1 X155.606 Y142.28 E19.40612
G1 X154.89 Y143.191 E19.49861
G1 X154.716 Y143.383 E19.5193
G1 X154.361 Y143.822 E19.56436
G1 X154.081 Y144.182 E19.60077
G1 X153.928 Y144.389 E19.62132
G1 X153.49 Y145.011 E19.68204
G1 X153.185 Y145.451 E19.72478
G1 X152.953 Y145.818 E19.75944
G1 X152.767 Y146.125 E19.78809
G1 X152.63 Y146.36 E19.8098
G1 X152.485 Y146.619 E19.8335
G1 X152.355 Y146.86 E19.85535
G1 X152.158 Y147.247 E19.89002
G1 X152.021 Y147.529 E19.91504
G1 X151.888 Y147.822 E19.94073
G1 X151.752 Y148.146 E19.96878
G1 X151.689 Y148.311 E19.98288
G1 X151.523 Y148.762 E20.02124
G1 X151.44 Y149.015 E20.04249
G1 X151.4 Y149.152 E20.05389
G1 X151.334 Y149.408 E20.07499
G1 X151.275 Y149.663 E20.09588
G1 X151.232 Y149.924 E20.117
G1 X151.256 Y150.231 E20.14158
G1 X151.341 Y150.619 E20.17329
G1 X151.438 Y150.975 E20.20274
G1 X151.547 Y151.313 E20.23109
G1 X151.597 Y151.457 E20.24326
G1 X151.695 Y151.709 E20.26484
G1 X151.807 Y151.985 E20.28862
G1 X151.934 Y152.281 E20.31433
G1 X152.083 Y152.601 E20.3425
G1 X152.27 Y152.983 E20.37645
G1 X152.406 Y153.245 E20.40002
G1 X152.589 Y153.568 E20.42965
G1 X152.824 Y153.969 E20.46675
G1 X153.096 Y154.411 E20.50818
G1 X153.203 Y154.576 E20.52388
G1 X153.393 Y154.854 E20.55076
G1 X153.829 Y155.475 E20.61133
G1 X154.032 Y155.753 E20.6388
G1 X154.206 Y155.982 E20.66176
G1 X154.534 Y156.393 E20.70374
G1 X154.762 Y156.671 E20.73244
G1 X154.917 Y156.848 E20.75122
G1 X155.475 Y157.567 E20.82387
G1 X155.844 Y158.107 E20.87607
G1 X156.425 Y158.977 E20.95958
G1 X156.849 Y159.368 E21.00562
G1 X157.057 Y159.552 E21.02779
G1 X157.579 Y159.992 E21.08229
G1 X158.058 Y160.372 E21.13109
G1 X158.42 Y160.641 E21.1671
G1 X158.705 Y160.843 E21.19498
G1 X159.039 Y161.072 E21.22731
G1 X159.312 Y161.249 E21.25328
G1 X159.497 Y161.363 E21.27062
G1 X159.833 Y161.56 E21.30171
G1 X160.122 Y161.721 E21.32812
G1 X160.43 Y161.88 E21.35579
G1 X160.76 Y162.037 E21.38496
G1 X161.098 Y162.181 E21.41429
G1 X161.33 Y162.271 E21.43415
G1 X161.574 Y162.371 E21.4552
G1 X161.774 Y162.457 E21.47258
G1 X162.262 Y162.688 E21.51568
G1 X162.453 Y162.787 E21.53285
G1 X162.946 Y163.067 E21.57811
G1 X163.132 Y163.182 E21.59557
G1 X163.639 Y163.525 E21.64443
G1 X163.818 Y163.657 E21.66218
G1 X164.282 Y164.028 E21.7096
G1 X164.448 Y164.172 E21.72715
G1 X164.853 Y164.551 E21.77142
G1 X165.008 Y164.707 E21.78898
G1 X165.444 Y165.185 E21.84062
G1 X165.586 Y165.355 E21.8583
G1 X165.862 Y165.706 E21.89395
G1 X165.995 Y165.886 E21.91181
G1 X166.355 Y166.42 E21.96322
G1 X166.471 Y166.609 E21.98092
G1 X166.74 Y167.085 E22.02456
G1 X166.843 Y167.284 E22.04245
G1 X167.065 Y167.753 E22.08387
G1 X167.155 Y167.961 E22.10196
G1 X167.37 Y168.517 E22.14955
