;FLAVOR:Marlin
;TIME:7986
;Filament used: 17.1029m
;Layer height: 0.32
;MINX:102.6
;MINY:97.7
;MINZ:0.32
;MAXX:197.4
;MAXY:202.3
;MAXZ:46.08
;Generated with Cura_SteamEngine master
M140 S90
M105
M190 S90
M104 S240
M105
M109 S240
M82 ;absolute extrusion mode
G28 ;Home
G1 Z15.0 F2000 ;Move the platform
G92 E0
G92 E0
;LAYER_COUNT:144
;LAYER:0
M107 P2
G0 F7500 X106.567 Y116.127 Z0.32
;TYPE:SKIRT
G1 F1500 X106.931 Y115.798 E0.05222
G1 X107.497 Y115.334 E0.13012
G1 X107.893 Y115.04 E0.18261
G1 X108.513 Y114.625 E0.26202
G1 X108.933 Y114.373 E0.31415
G1 X109.606 Y114.014 E0.39533
G1 X110.05 Y113.805 E0.44756
G1 X110.727 Y113.525 E0.52553
G1 X111.191 Y113.359 E0.57798
G1 X111.9 Y113.144 E0.65684
G1 X112.374 Y113.025 E0.70885
G1 X113.116 Y112.877 E0.78938
G1 X113.604 Y112.805 E0.84188
G1 X114.339 Y112.733 E0.92048
G1 X114.826 Y112.709 E0.97238
G1 X115.2 Y112.7 E1.0122
G1 X122.4 Y112.7 E1.77851
G1 X122.4 Y110.3 E2.03395
G1 X122.409 Y109.927 E2.07366
G1 X122.433 Y109.438 E2.12577
G1 X122.506 Y108.699 E2.2048
G1 X122.578 Y108.212 E2.2572
G1 X122.725 Y107.473 E2.33739
G1 X122.844 Y106.999 E2.38941
G1 X123.058 Y106.294 E2.46782
G1 X123.223 Y105.832 E2.52004
G1 X123.507 Y105.145 E2.59916
G1 X123.717 Y104.7 E2.65153
G1 X124.073 Y104.033 E2.732
G1 X124.325 Y103.613 E2.78413
G1 X124.738 Y102.995 E2.86324
G1 X125.031 Y102.6 E2.91559
G1 X125.511 Y102.016 E2.99604
G1 X125.85 Y101.643 E3.04969
G1 X126.378 Y101.116 E3.12909
G1 X126.731 Y100.797 E3.17973
G1 X127.297 Y100.334 E3.25755
G1 X127.693 Y100.04 E3.31005
G1 X128.313 Y99.625 E3.38945
G1 X128.733 Y99.373 E3.44158
G1 X129.4 Y99.017 E3.52205
G1 X129.843 Y98.808 E3.57419
G1 X130.526 Y98.525 E3.65287
G1 X130.99 Y98.359 E3.70532
G1 X131.699 Y98.144 E3.78418
G1 X132.173 Y98.025 E3.83619
G1 X132.912 Y97.878 E3.91639
G1 X133.399 Y97.806 E3.96878
G1 X134.138 Y97.733 E4.04782
G1 X134.627 Y97.709 E4.09993
G1 X135 Y97.7 E4.13964
G1 X164.999 Y97.7 E7.3325
G1 X165.371 Y97.709 E7.37211
G1 X165.861 Y97.733 E7.42432
G1 X166.601 Y97.806 E7.50346
G1 X167.088 Y97.878 E7.55586
G1 X167.827 Y98.025 E7.63606
G1 X168.301 Y98.144 E7.68807
G1 X169.01 Y98.359 E7.76692
G1 X169.474 Y98.525 E7.81937
G1 X170.157 Y98.808 E7.89806
G1 X170.6 Y99.017 E7.95019
G1 X171.267 Y99.373 E8.03066
G1 X171.687 Y99.625 E8.08279
G1 X172.305 Y100.038 E8.1619
G1 X172.7 Y100.331 E8.21425
G1 X173.284 Y100.811 E8.29471
G1 X173.657 Y101.15 E8.34835
G1 X174.184 Y101.678 E8.42775
G1 X174.503 Y102.031 E8.47839
G1 X174.963 Y102.592 E8.5556
G1 X175.256 Y102.986 E8.60786
G1 X175.675 Y103.613 E8.68812
G1 X175.928 Y104.035 E8.74049
G1 X176.283 Y104.7 E8.82072
G1 X176.492 Y105.143 E8.87286
G1 X176.775 Y105.826 E8.95154
G1 X176.941 Y106.29 E9.00399
G1 X177.156 Y106.999 E9.08285
G1 X177.275 Y107.473 E9.13486
G1 X177.422 Y108.208 E9.21464
G1 X177.494 Y108.693 E9.26682
G1 X177.567 Y109.438 E9.3465
G1 X177.591 Y109.929 E9.39882
G1 X177.6 Y110.3 E9.43831
G1 X177.6 Y112.7 E9.69375
G1 X184.806 Y112.7 E10.4607
G1 X185.17 Y112.709 E10.49946
G1 X185.65 Y112.732 E10.5506
G1 X186.405 Y112.806 E10.63135
G1 X186.902 Y112.88 E10.68483
G1 X187.648 Y113.029 E10.76579
G1 X188.122 Y113.149 E10.81783
G1 X188.844 Y113.371 E10.89823
G1 X189.308 Y113.539 E10.95075
G1 X189.964 Y113.812 E11.02637
G1 X190.407 Y114.021 E11.07851
G1 X191.072 Y114.376 E11.15874
G1 X191.484 Y114.623 E11.20987
G1 X192.112 Y115.043 E11.29028
G1 X192.514 Y115.342 E11.3436
G1 X193.077 Y115.804 E11.42111
G1 X193.434 Y116.127 E11.47235
G1 X193.973 Y116.667 E11.55356
G1 X194.302 Y117.031 E11.60578
G1 X194.766 Y117.597 E11.68367
G1 X195.06 Y117.993 E11.73617
G1 X195.475 Y118.613 E11.81557
G1 X195.727 Y119.033 E11.8677
G1 X196.086 Y119.706 E11.94889
G1 X196.295 Y120.15 E12.00112
G1 X196.575 Y120.827 E12.07909
G1 X196.741 Y121.291 E12.13154
G1 X196.956 Y122 E12.2104
G1 X197.075 Y122.474 E12.26241
G1 X197.222 Y123.211 E12.3424
G1 X197.294 Y123.697 E12.39469
G1 X197.367 Y124.438 E12.47393
G1 X197.391 Y124.927 E12.52604
G1 X197.4 Y125.3 E12.56575
G1 X197.4 Y189.705 E19.42053
G1 X197.391 Y190.068 E19.45918
G1 X197.368 Y190.549 E19.51043
G1 X197.294 Y191.305 E19.59128
G1 X197.22 Y191.802 E19.64476
G1 X197.071 Y192.548 E19.72573
G1 X196.951 Y193.022 E19.77777
G1 X196.729 Y193.744 E19.85816
G1 X196.561 Y194.208 E19.91069
G1 X196.288 Y194.864 E19.98631
G1 X196.079 Y195.307 E20.03844
G1 X195.724 Y195.972 E20.11867
G1 X195.477 Y196.384 E20.1698
G1 X195.057 Y197.012 E20.25021
G1 X194.758 Y197.414 E20.30353
G1 X194.296 Y197.977 E20.38105
G1 X193.973 Y198.334 E20.43229
G1 X193.433 Y198.873 E20.51349
G1 X193.069 Y199.202 E20.56571
G1 X192.503 Y199.666 E20.64361
G1 X192.107 Y199.96 E20.6961
G1 X191.487 Y200.375 E20.77551
G1 X191.067 Y200.627 E20.82764
G1 X190.394 Y200.986 E20.90882
G1 X189.95 Y201.195 E20.96105
G1 X189.273 Y201.475 E21.03903
G1 X188.809 Y201.641 E21.09148
G1 X188.1 Y201.856 E21.17033
G1 X187.626 Y201.975 E21.22235
G1 X186.884 Y202.123 E21.30287
G1 X186.396 Y202.195 E21.35538
G1 X185.661 Y202.267 E21.43398
G1 X185.174 Y202.291 E21.48587
G1 X184.8 Y202.3 E21.52569
G1 X115.192 Y202.3 E28.93424
G1 X114.805 Y202.29 E28.97544
G1 X114.315 Y202.265 E29.02766
G1 X113.575 Y202.191 E29.10681
G1 X113.088 Y202.118 E29.15923
G1 X112.35 Y201.97 E29.23934
G1 X111.876 Y201.85 E29.29138
G1 X111.154 Y201.628 E29.37177
G1 X110.69 Y201.46 E29.42429
G1 X110.034 Y201.187 E29.49992
G1 X109.591 Y200.978 E29.55205
G1 X108.912 Y200.615 E29.634
G1 X108.492 Y200.362 E29.68618
G1 X107.866 Y199.941 E29.76648
G1 X107.471 Y199.646 E29.81895
G1 X106.921 Y199.193 E29.89479
G1 X106.565 Y198.871 E29.94588
G1 X106.024 Y198.33 E30.02731
G1 X105.696 Y197.967 E30.07938
G1 X105.231 Y197.4 E30.15742
G1 X104.938 Y197.005 E30.20977
G1 X104.521 Y196.38 E30.28973
G1 X104.269 Y195.959 E30.34196
G1 X103.917 Y195.299 E30.42157
G1 X103.707 Y194.854 E30.47394
G1 X103.421 Y194.162 E30.55363
G1 X103.256 Y193.699 E30.60595
G1 X103.044 Y192.999 E30.68379
G1 X102.925 Y192.525 E30.7358
G1 X102.778 Y191.786 E30.816
G1 X102.706 Y191.299 E30.8684
G1 X102.633 Y190.561 E30.94733
G1 X102.609 Y190.074 E30.99922
G1 X102.6 Y189.7 E31.03904
G1 X102.6 Y125.295 E37.89382
G1 X102.609 Y124.932 E37.93247
G1 X102.632 Y124.451 E37.98372
G1 X102.706 Y123.695 E38.06457
G1 X102.78 Y123.198 E38.11805
G1 X102.929 Y122.452 E38.19901
G1 X103.049 Y121.978 E38.25105
G1 X103.271 Y121.256 E38.33145
G1 X103.439 Y120.792 E38.38397
G1 X103.712 Y120.136 E38.45959
G1 X103.921 Y119.693 E38.51173
G1 X104.276 Y119.028 E38.59196
G1 X104.523 Y118.616 E38.64309
G1 X104.943 Y117.988 E38.7235
G1 X105.242 Y117.586 E38.77682
G1 X105.704 Y117.023 E38.85433
G1 X106.027 Y116.666 E38.90557
G1 X106.567 Y116.127 E38.98678
G0 F7500 X107.103 Y116.72
G1 F1500 X107.467 Y116.391 E39.039
G1 X107.974 Y115.976 E39.10873
G1 X108.37 Y115.682 E39.16123
G1 X108.924 Y115.311 E39.23219
G1 X109.344 Y115.059 E39.28432
G1 X109.947 Y114.738 E39.35703
G1 X110.391 Y114.529 E39.40926
G1 X110.996 Y114.278 E39.47897
G1 X111.46 Y114.112 E39.53142
G1 X112.095 Y113.92 E39.60203
G1 X112.569 Y113.801 E39.65404
G1 X113.232 Y113.669 E39.72599
G1 X113.72 Y113.597 E39.77849
G1 X114.378 Y113.532 E39.84886
G1 X114.865 Y113.508 E39.90076
G1 X115.2 Y113.5 E39.93642
G1 X123.2 Y113.5 E40.78788
G1 X123.2 Y110.3 E41.12847
G1 X123.208 Y109.967 E41.16392
G1 X123.232 Y109.478 E41.21603
G1 X123.297 Y108.816 E41.28683
G1 X123.369 Y108.329 E41.33922
G1 X123.501 Y107.668 E41.41096
G1 X123.62 Y107.194 E41.46298
G1 X123.811 Y106.563 E41.53315
G1 X123.976 Y106.101 E41.58536
G1 X124.23 Y105.486 E41.65618
G1 X124.44 Y105.041 E41.70855
G1 X124.759 Y104.444 E41.78059
G1 X125.011 Y104.024 E41.83272
G1 X125.381 Y103.472 E41.90345
G1 X125.674 Y103.077 E41.95579
G1 X126.103 Y102.554 E42.02779
G1 X126.442 Y102.181 E42.08143
G1 X126.915 Y101.71 E42.15248
G1 X127.268 Y101.391 E42.20312
G1 X127.774 Y100.976 E42.27277
G1 X128.17 Y100.682 E42.32526
G1 X128.724 Y100.311 E42.39623
G1 X129.144 Y100.059 E42.44836
G1 X129.742 Y99.74 E42.52049
G1 X130.185 Y99.531 E42.57263
G1 X130.795 Y99.278 E42.64291
G1 X131.259 Y99.112 E42.69536
G1 X131.894 Y98.92 E42.76597
G1 X132.368 Y98.801 E42.81798
G1 X133.029 Y98.669 E42.88972
G1 X133.516 Y98.597 E42.94212
G1 X134.178 Y98.532 E43.01292
G1 X134.667 Y98.508 E43.06503
G1 X135 Y98.5 E43.10048
G1 X164.999 Y98.5 E46.29334
G1 X165.332 Y98.508 E46.3288
G1 X165.822 Y98.532 E46.38101
G1 X166.484 Y98.597 E46.45181
G1 X166.971 Y98.669 E46.5042
G1 X167.632 Y98.801 E46.57595
G1 X168.106 Y98.92 E46.62796
G1 X168.741 Y99.112 E46.69857
G1 X169.205 Y99.278 E46.75102
G1 X169.815 Y99.531 E46.8213
G1 X170.258 Y99.74 E46.87344
G1 X170.856 Y100.059 E46.94557
G1 X171.276 Y100.311 E46.9977
G1 X171.828 Y100.681 E47.06843
G1 X172.223 Y100.974 E47.12077
G1 X172.746 Y101.403 E47.19277
G1 X173.119 Y101.742 E47.24642
G1 X173.59 Y102.215 E47.31746
G1 X173.909 Y102.568 E47.3681
G1 X174.321 Y103.069 E47.43714
G1 X174.614 Y103.463 E47.4894
G1 X174.989 Y104.024 E47.56121
G1 X175.242 Y104.446 E47.61358
G1 X175.56 Y105.042 E47.68548
G1 X175.769 Y105.485 E47.73761
G1 X176.022 Y106.095 E47.8079
G1 X176.188 Y106.559 E47.86035
G1 X176.38 Y107.194 E47.93096
G1 X176.499 Y107.668 E47.98297
G1 X176.63 Y108.325 E48.05427
G1 X176.702 Y108.81 E48.10646
G1 X176.768 Y109.477 E48.1778
G1 X176.792 Y109.968 E48.23012
G1 X176.8 Y110.3 E48.26546
G1 X176.8 Y113.5 E48.60605
G1 X184.806 Y113.5 E49.45815
G1 X185.131 Y113.508 E49.49275
G1 X185.611 Y113.531 E49.54389
G1 X186.287 Y113.597 E49.61618
G1 X186.784 Y113.671 E49.66966
G1 X187.452 Y113.805 E49.74218
G1 X187.926 Y113.925 E49.79422
G1 X188.572 Y114.123 E49.86613
G1 X189.036 Y114.291 E49.91865
G1 X189.622 Y114.535 E49.98621
G1 X190.065 Y114.744 E50.03834
G1 X190.66 Y115.062 E50.11015
G1 X191.072 Y115.309 E50.16128
G1 X191.634 Y115.685 E50.23324
G1 X192.036 Y115.984 E50.28657
G1 X192.54 Y116.398 E50.35599
G1 X192.897 Y116.721 E50.40723
G1 X193.38 Y117.203 E50.47985
G1 X193.709 Y117.567 E50.53207
G1 X194.124 Y118.074 E50.60181
G1 X194.418 Y118.47 E50.6543
G1 X194.789 Y119.024 E50.72526
G1 X195.041 Y119.444 E50.77739
G1 X195.362 Y120.047 E50.8501
G1 X195.571 Y120.491 E50.90233
G1 X195.822 Y121.096 E50.97204
G1 X195.988 Y121.56 E51.02449
G1 X196.18 Y122.195 E51.0951
G1 X196.299 Y122.669 E51.14711
G1 X196.431 Y123.328 E51.21864
G1 X196.503 Y123.814 E51.27094
G1 X196.568 Y124.478 E51.34194
G1 X196.592 Y124.967 E51.39405
G1 X196.6 Y125.3 E51.4295
G1 X196.6 Y189.705 E58.28429
G1 X196.592 Y190.03 E58.31889
G1 X196.569 Y190.511 E58.37014
G1 X196.503 Y191.187 E58.44243
G1 X196.429 Y191.684 E58.49591
G1 X196.295 Y192.352 E58.56842
G1 X196.175 Y192.826 E58.62046
G1 X195.977 Y193.472 E58.69238
G1 X195.809 Y193.936 E58.7449
G1 X195.565 Y194.522 E58.81246
G1 X195.356 Y194.965 E58.86459
G1 X195.038 Y195.56 E58.9364
G1 X194.791 Y195.972 E58.98752
G1 X194.415 Y196.534 E59.05949
G1 X194.116 Y196.936 E59.11281
G1 X193.702 Y197.44 E59.18223
G1 X193.379 Y197.797 E59.23347
G1 X192.897 Y198.28 E59.3061
G1 X192.533 Y198.609 E59.35832
G1 X192.026 Y199.024 E59.42805
G1 X191.63 Y199.318 E59.48054
G1 X191.076 Y199.689 E59.55151
G1 X190.656 Y199.941 E59.60364
G1 X190.053 Y200.262 E59.67635
G1 X189.609 Y200.471 E59.72857
G1 X189.004 Y200.722 E59.79829
G1 X188.54 Y200.888 E59.85074
G1 X187.905 Y201.08 E59.92134
G1 X187.431 Y201.199 E59.97336
G1 X186.768 Y201.331 E60.04531
G1 X186.28 Y201.403 E60.09781
G1 X185.622 Y201.468 E60.16818
G1 X185.135 Y201.492 E60.22008
G1 X184.8 Y201.5 E60.25574
G1 X115.192 Y201.5 E67.66429
G1 X114.846 Y201.491 E67.70113
G1 X114.356 Y201.466 E67.75335
G1 X113.694 Y201.4 E67.82416
G1 X113.207 Y201.327 E67.87657
G1 X112.546 Y201.194 E67.94833
G1 X112.072 Y201.074 E68.00037
G1 X111.426 Y200.876 E68.07228
G1 X110.962 Y200.708 E68.12481
G1 X110.376 Y200.464 E68.19237
G1 X109.933 Y200.255 E68.2445
G1 X109.325 Y199.93 E68.31788
G1 X108.905 Y199.677 E68.37006
G1 X108.345 Y199.3 E68.44191
G1 X107.95 Y199.005 E68.49438
G1 X107.458 Y198.6 E68.56221
G1 X107.102 Y198.278 E68.6133
G1 X106.618 Y197.794 E68.68615
G1 X106.29 Y197.431 E68.73822
G1 X105.874 Y196.923 E68.8081
G1 X105.581 Y196.528 E68.86045
G1 X105.207 Y195.969 E68.93203
G1 X104.955 Y195.548 E68.98425
G1 X104.64 Y194.958 E69.05544
G1 X104.43 Y194.513 E69.10781
G1 X104.175 Y193.894 E69.17906
G1 X104.01 Y193.431 E69.23137
G1 X103.82 Y192.804 E69.3011
G1 X103.701 Y192.33 E69.35312
G1 X103.569 Y191.669 E69.42486
G1 X103.497 Y191.182 E69.47726
G1 X103.432 Y190.522 E69.54784
G1 X103.408 Y190.035 E69.59974
G1 X103.4 Y189.7 E69.6354
G1 X103.4 Y125.295 E76.49018
G1 X103.408 Y124.97 E76.52478
G1 X103.431 Y124.489 E76.57604
G1 X103.497 Y123.813 E76.64833
G1 X103.571 Y123.316 E76.70181
G1 X103.705 Y122.648 E76.77432
G1 X103.825 Y122.174 E76.82636
G1 X104.023 Y121.528 E76.89827
G1 X104.191 Y121.064 E76.95079
G1 X104.435 Y120.478 E77.01835
G1 X104.644 Y120.035 E77.07049
G1 X104.962 Y119.44 E77.14229
G1 X105.209 Y119.028 E77.19342
G1 X105.585 Y118.466 E77.26539
G1 X105.884 Y118.064 E77.31871
G1 X106.298 Y117.56 E77.38813
G1 X106.621 Y117.203 E77.43937
G1 X107.103 Y116.72 E77.51199
G0 F7500 X107.64 Y117.314
G1 F1500 X108.004 Y116.985 E77.56421
G1 X108.45 Y116.619 E77.62562
G1 X108.846 Y116.325 E77.67811
G1 X109.336 Y115.997 E77.74087
G1 X109.756 Y115.745 E77.793
G1 X110.288 Y115.461 E77.85719
G1 X110.732 Y115.252 E77.90942
G1 X111.266 Y115.032 E77.97089
G1 X111.73 Y114.866 E78.02334
G1 X112.29 Y114.696 E78.08562
G1 X112.764 Y114.577 E78.13764
G1 X113.349 Y114.46 E78.20113
G1 X113.837 Y114.388 E78.25364
G1 X114.418 Y114.331 E78.31577
G1 X114.905 Y114.307 E78.36767
G1 X115.2 Y114.3 E78.39907
G1 X124 Y114.3 E79.33568
G1 X124 Y110.3 E79.76141
G1 X124.007 Y110.006 E79.79271
G1 X124.031 Y109.517 E79.84481
G1 X124.089 Y108.933 E79.90728
G1 X124.161 Y108.446 E79.95967
G1 X124.277 Y107.863 E80.02294
G1 X124.396 Y107.389 E80.07495
G1 X124.565 Y106.832 E80.13691
G1 X124.73 Y106.37 E80.18912
G1 X124.954 Y105.827 E80.25164
G1 X125.164 Y105.382 E80.30401
G1 X125.445 Y104.856 E80.36748
G1 X125.697 Y104.436 E80.41961
G1 X126.023 Y103.948 E80.48207
G1 X126.316 Y103.553 E80.53442
G1 X126.695 Y103.093 E80.59785
G1 X127.034 Y102.72 E80.6515
G1 X127.451 Y102.303 E80.71426
G1 X127.804 Y101.984 E80.7649
G1 X128.25 Y101.619 E80.82624
G1 X128.646 Y101.325 E80.87873
G1 X129.136 Y100.997 E80.94149
G1 X129.556 Y100.745 E80.99362
G1 X130.083 Y100.464 E81.05719
G1 X130.526 Y100.255 E81.10932
G1 X131.065 Y100.032 E81.1714
G1 X131.529 Y99.866 E81.22385
G1 X132.089 Y99.696 E81.28614
G1 X132.563 Y99.577 E81.33816
G1 X133.146 Y99.461 E81.40142
G1 X133.633 Y99.389 E81.45382
G1 X134.217 Y99.331 E81.51628
G1 X134.706 Y99.307 E81.56839
G1 X135 Y99.3 E81.59969
G1 X164.999 Y99.3 E84.79256
G1 X165.293 Y99.307 E84.82386
G1 X165.783 Y99.331 E84.87607
G1 X166.367 Y99.389 E84.93853
G1 X166.854 Y99.461 E84.99093
G1 X167.437 Y99.577 E85.0542
G1 X167.911 Y99.696 E85.10621
G1 X168.471 Y99.866 E85.1685
G1 X168.935 Y100.032 E85.22095
G1 X169.474 Y100.255 E85.28303
G1 X169.917 Y100.464 E85.33516
G1 X170.444 Y100.745 E85.39873
G1 X170.864 Y100.997 E85.45086
G1 X171.352 Y101.323 E85.51332
G1 X171.747 Y101.616 E85.56567
G1 X172.207 Y101.995 E85.6291
G1 X172.58 Y102.334 E85.68275
G1 X172.997 Y102.751 E85.74551
G1 X173.316 Y103.104 E85.79615
G1 X173.679 Y103.547 E85.85711
G1 X173.972 Y103.941 E85.90937
G1 X174.303 Y104.436 E85.97275
G1 X174.556 Y104.858 E86.02511
G1 X174.836 Y105.383 E86.08844
G1 X175.045 Y105.826 E86.14058
G1 X175.268 Y106.365 E86.20266
G1 X175.434 Y106.829 E86.25511
G1 X175.604 Y107.389 E86.3174
G1 X175.723 Y107.863 E86.36941
G1 X175.839 Y108.443 E86.43236
G1 X175.911 Y108.928 E86.48455
G1 X175.969 Y109.516 E86.54744
G1 X175.993 Y110.007 E86.59976
G1 X176 Y110.3 E86.63095
G1 X176 Y114.3 E87.05668
G1 X184.806 Y114.3 E87.99392
G1 X185.093 Y114.307 E88.02448
G1 X185.573 Y114.33 E88.07562
G1 X186.17 Y114.388 E88.13946
G1 X186.667 Y114.462 E88.19294
G1 X187.256 Y114.581 E88.2569
G1 X187.73 Y114.701 E88.30894
G1 X188.3 Y114.875 E88.37237
G1 X188.764 Y115.043 E88.42489
G1 X189.281 Y115.259 E88.48453
G1 X189.724 Y115.468 E88.53666
G1 X190.249 Y115.748 E88.59999
G1 X190.661 Y115.995 E88.65111
G1 X191.157 Y116.327 E88.71464
G1 X191.559 Y116.626 E88.76796
G1 X192.003 Y116.991 E88.82914
G1 X192.36 Y117.314 E88.88038
