;FLAVOR:Marlin
;TIME:2952
;Filament used: 5.06677m
;Layer height: 0.32
;MINX:120.44
;MINY:104.991
;MINZ:0.32
;MAXX:179.561
;MAXY:195.025
;MAXZ:17.6
;Generated with Cura_SteamEngine master
M140 S60
M105
M190 S60
M104 S240
M105
M109 S240
M82 ;absolute extrusion mode
G28 ;Home
G1 Z15.0 F2000 ;Move the platform
G92 E0
G92 E0
;LAYER_COUNT:55
;LAYER:0
M107 P2
G0 F7500 X137.348 Y118.366 Z0.32
;TYPE:SKIRT
G1 F1500 X137.894 Y117.775 E0.06423
G1 X138.496 Y117.241 E0.12846
G1 X139.148 Y116.769 E0.19271
G1 X139.843 Y116.365 E0.25688
G1 X140.576 Y116.031 E0.32118
G1 X141.338 Y115.772 E0.38543
G1 X142.121 Y115.589 E0.44961
G1 X142.919 Y115.486 E0.51384
G1 X143.561 Y115.46 E0.56513
G1 X147.794 Y115.459 E0.90303
G1 X148.598 Y115.499 E0.96729
G1 X149.394 Y115.618 E1.03153
G1 X150.174 Y115.816 E1.09577
G1 X150.93 Y116.09 E1.15996
G1 X151.656 Y116.438 E1.22423
G1 X152.344 Y116.856 E1.28849
G1 X152.986 Y117.34 E1.35266
G1 X153.363 Y117.687 E1.39357
G1 X153.658 Y117.435 E1.42454
G1 X154.073 Y117.089 E1.46767
G1 X154.562 Y116.69 E1.51805
G1 X154.982 Y116.358 E1.56078
G1 X155.382 Y116.052 E1.60098
G1 X155.808 Y115.733 E1.64347
G1 X156.373 Y115.318 E1.69942
G1 X157.173 Y114.749 E1.77779
G1 X157.494 Y114.529 E1.80885
G1 X157.494 Y113.09 E1.92372
G1 X157.534 Y112.286 E1.98798
G1 X157.654 Y111.49 E2.05224
G1 X157.852 Y110.71 E2.11647
G1 X158.127 Y109.954 E2.18069
G1 X158.475 Y109.228 E2.24496
G1 X158.893 Y108.541 E2.30915
G1 X159.378 Y107.899 E2.37338
G1 X159.924 Y107.307 E2.43766
G1 X160.526 Y106.773 E2.5019
G1 X161.178 Y106.302 E2.5661
G1 X161.874 Y105.897 E2.63038
G1 X162.606 Y105.563 E2.69461
G1 X163.368 Y105.304 E2.75885
G1 X164.152 Y105.121 E2.82312
G1 X164.95 Y105.018 E2.88735
G1 X165.593 Y104.992 E2.93871
G1 X171.459 Y104.991 E3.40696
G1 X172.262 Y105.031 E3.47114
G1 X173.058 Y105.15 E3.53539
G1 X173.838 Y105.348 E3.59963
G1 X174.595 Y105.622 E3.66389
G1 X175.32 Y105.97 E3.72808
G1 X176.008 Y106.388 E3.79234
G1 X176.651 Y106.873 E3.85664
G1 X177.242 Y107.418 E3.92081
G1 X177.776 Y108.02 E3.98504
G1 X178.248 Y108.672 E4.0493
G1 X178.653 Y109.367 E4.11351
G1 X178.987 Y110.1 E4.17781
G1 X179.247 Y110.861 E4.242
G1 X179.43 Y111.645 E4.30626
G1 X179.534 Y112.443 E4.3705
G1 X179.56 Y113.091 E4.42227
G1 X179.56 Y120.208 E4.99038
G1 X179.555 Y120.498 E5.01353
G1 X179.544 Y120.805 E5.03805
G1 X179.505 Y121.36 E5.08247
G1 X179.473 Y121.665 E5.10695
G1 X179.397 Y122.207 E5.15063
G1 X179.344 Y122.512 E5.17535
G1 X179.222 Y123.09 E5.2225
G1 X179.149 Y123.382 E5.24653
G1 X178.989 Y123.938 E5.29271
G1 X178.895 Y124.225 E5.31682
G1 X178.705 Y124.744 E5.36093
G1 X178.59 Y125.028 E5.38539
G1 X178.359 Y125.545 E5.43059
G1 X178.228 Y125.813 E5.45441
G1 X177.942 Y126.347 E5.50276
G1 X177.791 Y126.605 E5.52662
G1 X177.45 Y127.139 E5.5772
G1 X177.281 Y127.382 E5.60083
G1 X176.948 Y127.827 E5.64519
G1 X176.765 Y128.055 E5.66853
G1 X176.339 Y128.544 E5.7203
G1 X176.138 Y128.757 E5.74368
G1 X175.689 Y129.198 E5.79391
G1 X175.474 Y129.393 E5.81708
G1 X175.009 Y129.784 E5.86558
G1 X174.783 Y129.96 E5.88845
G1 X174.22 Y130.36 E5.94357
G1 X173.98 Y130.516 E5.96642
G1 X173.461 Y130.827 E6.01472
G1 X173.213 Y130.963 E6.0373
G1 X172.613 Y131.26 E6.09074
G1 X172.357 Y131.374 E6.11311
G1 X172.098 Y131.484 E6.13557
G1 X171.942 Y131.547 E6.149
G1 X171.701 Y131.651 E6.16995
G1 X171.35 Y131.815 E6.20088
G1 X171.063 Y131.959 E6.22651
G1 X170.939 Y132.024 E6.23769
G1 X170.545 Y132.24 E6.27355
G1 X170.396 Y132.326 E6.28729
G1 X169.91 Y132.615 E6.33242
G1 X169.587 Y132.819 E6.36292
G1 X169.39 Y132.952 E6.38189
G1 X168.705 Y133.439 E6.44898
G1 X168.455 Y133.622 E6.47371
G1 X167.94 Y134.011 E6.52523
G1 X167.626 Y134.266 E6.55752
G1 X167.201 Y134.62 E6.60167
G1 X166.74 Y135.023 E6.65055
G1 X166.371 Y135.357 E6.69028
G1 X166.154 Y135.559 E6.71395
G1 X165.879 Y135.823 E6.74438
G1 X165.328 Y136.37 E6.80635
G1 X164.634 Y137.512 E6.91302
G1 X164.409 Y137.876 E6.94718
G1 X164.169 Y138.257 E6.98313
G1 X163.706 Y138.916 E7.04742
G1 X163.428 Y139.254 E7.08235
G1 X163.211 Y139.503 E7.10872
G1 X162.786 Y140.057 E7.16445
G1 X162.546 Y140.379 E7.19651
G1 X162.276 Y140.748 E7.23301
G1 X162.166 Y140.906 E7.24838
G1 X161.946 Y141.232 E7.27977
G1 X161.214 Y142.344 E7.38604
G1 X161.084 Y142.545 E7.40515
G1 X160.741 Y143.12 E7.45859
G1 X160.635 Y143.304 E7.47554
G1 X160.393 Y143.738 E7.51521
G1 X160.174 Y144.144 E7.55203
G1 X159.974 Y144.536 E7.58716
G1 X159.649 Y145.207 E7.64668
G1 X159.433 Y145.682 E7.68833
G1 X159.292 Y146.011 E7.7169
G1 X159.194 Y146.251 E7.73759
G1 X159.107 Y146.477 E7.75692
G1 X158.894 Y147.059 E7.8064
G1 X158.705 Y147.615 E7.85327
G1 X158.611 Y147.925 E7.87913
G1 X158.547 Y148.156 E7.89826
G1 X158.44 Y148.583 E7.9334
G1 X158.345 Y149.032 E7.97004
G1 X158.294 Y149.331 E7.99425
G1 X158.239 Y149.726 E8.02608
G1 X158.21 Y150.007 E8.04863
G1 X158.246 Y150.342 E8.07553
G1 X158.286 Y150.626 E8.09842
G1 X158.328 Y150.869 E8.11811
G1 X158.385 Y151.156 E8.14147
G1 X158.436 Y151.392 E8.16074
G1 X158.499 Y151.654 E8.18225
G1 X158.566 Y151.91 E8.20337
G1 X158.658 Y152.23 E8.22995
G1 X158.729 Y152.462 E8.24932
G1 X158.86 Y152.859 E8.28269
G1 X158.989 Y153.212 E8.31269
G1 X159.148 Y153.628 E8.34824
G1 X159.263 Y153.916 E8.37299
G1 X159.408 Y154.26 E8.40279
G1 X159.614 Y154.722 E8.44317
G1 X159.8 Y155.121 E8.47831
G1 X159.969 Y155.466 E8.50898
G1 X160.195 Y155.898 E8.5479
G1 X160.393 Y156.262 E8.58097
G1 X160.587 Y156.611 E8.61285
G1 X160.935 Y157.208 E8.66801
G1 X161.087 Y157.458 E8.69136
G1 X161.373 Y157.905 E8.73372
G1 X161.938 Y158.759 E8.81546
G1 X162.122 Y159.029 E8.84154
G1 X162.363 Y159.372 E8.875
G1 X162.699 Y159.829 E8.92028
G1 X163.211 Y160.498 E8.98753
G1 X163.449 Y160.785 E9.01729
G1 X164.005 Y161.543 E9.09233
G1 X164.354 Y162.084 E9.14372
G1 X165.321 Y163.618 E9.28847
G1 X165.45 Y163.755 E9.30349
G1 X165.948 Y164.244 E9.35921
G1 X166.328 Y164.603 E9.40094
G1 X166.612 Y164.86 E9.43151
G1 X166.993 Y165.201 E9.47232
G1 X167.609 Y165.721 E9.53667
G1 X167.922 Y165.974 E9.5688
G1 X168.307 Y166.271 E9.60761
G1 X168.817 Y166.648 E9.65824
G1 X169.099 Y166.85 E9.68593
G1 X169.381 Y167.041 E9.71312
G1 X169.693 Y167.245 E9.74287
G1 X170.123 Y167.513 E9.78332
G1 X170.486 Y167.727 E9.81696
G1 X170.838 Y167.922 E9.84908
G1 X171.108 Y168.064 E9.87343
G1 X171.267 Y168.144 E9.88764
G1 X171.529 Y168.269 E9.91081
G1 X171.641 Y168.32 E9.92063
G1 X171.919 Y168.441 E9.94484
G1 X172.177 Y168.548 E9.96713
G1 X172.399 Y168.643 E9.98641
G1 X172.653 Y168.757 E10.00863
G1 X173.277 Y169.07 E10.06436
G1 X173.523 Y169.207 E10.08683
G1 X174.035 Y169.518 E10.13465
G1 X174.272 Y169.674 E10.1573
G1 X174.813 Y170.063 E10.21049
G1 X175.039 Y170.24 E10.2334
G1 X175.529 Y170.655 E10.28466
G1 X175.741 Y170.85 E10.30765
G1 X176.177 Y171.283 E10.35671
G1 X176.375 Y171.495 E10.37986
G1 X176.772 Y171.954 E10.4283
G1 X176.955 Y172.182 E10.45164
G1 X177.318 Y172.671 E10.50025
G1 X177.486 Y172.916 E10.52397
G1 X177.8 Y173.411 E10.57076
G1 X177.949 Y173.666 E10.59434
G1 X178.232 Y174.195 E10.64223
G1 X178.362 Y174.461 E10.66586
G1 X178.595 Y174.982 E10.71142
G1 X178.709 Y175.264 E10.7357
G1 X178.905 Y175.803 E10.78148
G1 X178.998 Y176.09 E10.80556
G1 X179.159 Y176.66 E10.85284
G1 X179.232 Y176.958 E10.87733
G1 X179.346 Y177.502 E10.9217
G1 X179.398 Y177.802 E10.946
G1 X179.473 Y178.343 E10.9896
G1 X179.505 Y178.649 E11.01416
G1 X179.544 Y179.195 E11.05786
G1 X179.555 Y179.496 E11.0819
G1 X179.56 Y179.791 E11.10545
G1 X179.561 Y186.907 E11.67348
G1 X179.521 Y187.711 E11.73774
G1 X179.402 Y188.506 E11.80191
G1 X179.204 Y189.286 E11.86614
G1 X178.93 Y190.043 E11.93041
G1 X178.582 Y190.769 E11.99467
G1 X178.164 Y191.456 E12.05887
G1 X177.679 Y192.099 E12.12316
G1 X177.133 Y192.69 E12.18739
G1 X176.532 Y193.225 E12.25161
G1 X175.88 Y193.697 E12.31587
G1 X175.184 Y194.101 E12.3801
G1 X174.452 Y194.435 E12.44433
G1 X173.691 Y194.695 E12.50853
G1 X172.907 Y194.878 E12.57279
G1 X172.109 Y194.982 E12.63703
G1 X171.537 Y195.008 E12.68274
G1 X169.613 Y195.025 E12.83632
G1 X165.561 Y195.009 E13.15977
G1 X164.757 Y194.966 E13.22404
G1 X163.962 Y194.843 E13.28826
G1 X163.183 Y194.642 E13.35248
G1 X162.427 Y194.365 E13.41675
G1 X161.703 Y194.014 E13.48098
G1 X161.017 Y193.593 E13.54523
G1 X160.377 Y193.106 E13.60942
G1 X159.788 Y192.558 E13.67364
G1 X159.256 Y191.954 E13.73789
G1 X158.786 Y191.3 E13.80218
G1 X158.384 Y190.603 E13.86641
G1 X158.053 Y189.869 E13.93068
G1 X157.797 Y189.107 E13.99485
G1 X157.617 Y188.322 E14.05913
G1 X157.516 Y187.524 E14.12334
G1 X157.493 Y186.909 E14.17247
G1 X157.493 Y185.471 E14.28726
G1 X157.278 Y185.326 E14.30796
G1 X156.917 Y185.075 E14.34305
G1 X156.419 Y184.72 E14.39187
G1 X155.963 Y184.387 E14.43695
G1 X155.526 Y184.06 E14.48051
G1 X155.108 Y183.74 E14.52254
G1 X154.552 Y183.302 E14.57903
G1 X154.193 Y183.01 E14.61597
G1 X154.015 Y183.245 E14.63951
G1 X153.47 Y183.837 E14.70374
G1 X152.868 Y184.371 E14.76797
G1 X152.216 Y184.843 E14.83223
G1 X151.521 Y185.248 E14.89644
G1 X150.789 Y185.582 E14.96066
G1 X150.027 Y185.842 E15.02493
G1 X149.243 Y186.025 E15.0892
G1 X148.445 Y186.129 E15.15344
G1 X147.897 Y186.154 E15.19722
G1 X146.902 Y186.165 E15.27665
G1 X146.387 Y186.16 E15.31777
G1 X145.198 Y186.166 E15.41268
G1 X143.509 Y186.155 E15.5475
G1 X142.706 Y186.11 E15.6117
G1 X141.911 Y185.985 E15.67594
G1 X141.132 Y185.782 E15.7402
G1 X140.377 Y185.503 E15.80445
G1 X139.654 Y185.15 E15.86868
G1 X138.969 Y184.727 E15.93294
G1 X138.33 Y184.238 E15.99717
G1 X137.742 Y183.689 E16.06139
G1 X137.212 Y183.083 E16.12565
G1 X136.744 Y182.429 E16.18985
G1 X136.344 Y181.73 E16.25413
G1 X136.015 Y180.996 E16.31834
G1 X135.76 Y180.233 E16.38256
G1 X135.583 Y179.448 E16.44679
G1 X135.484 Y178.649 E16.51106
G1 X135.463 Y178.086 E16.55603
G1 X135.026 Y177.757 E16.5997
G1 X134.668 Y177.48 E16.63583
G1 X134.297 Y177.184 E16.67372
G1 X133.744 Y176.725 E16.73108
G1 X133.324 Y176.365 E16.77524
G1 X132.726 Y175.833 E16.83913
G1 X132.31 Y175.45 E16.88427
G1 X131.932 Y175.093 E16.92577
G1 X131.498 Y174.67 E16.97415
G1 X131.048 Y174.218 E17.02506
G1 X130.907 Y174.073 E17.04121
G1 X130.638 Y173.789 E17.07243
G1 X130.372 Y173.513 E17.10303
G1 X130.075 Y173.188 E17.13817
G1 X129.829 Y172.903 E17.16823
G1 X129.531 Y172.536 E17.20596
G1 X129.364 Y172.318 E17.22788
G1 X129.169 Y172.053 E17.25415
G1 X129.048 Y171.881 E17.27093
G1 X128.843 Y171.574 E17.3004
G1 X128.589 Y171.176 E17.33809
G1 X128.249 Y170.628 E17.38957
G1 X127.866 Y170.003 E17.44808
G1 X127.325 Y169.276 E17.52042
G1 X127.002 Y168.832 E17.56425
G1 X126.695 Y168.392 E17.60708
G1 X126.314 Y167.828 E17.66141
G1 X125.632 Y166.775 E17.76155
G1 X125.317 Y166.271 E17.80899
G1 X125.026 Y165.783 E17.85435
G1 X124.695 Y165.208 E17.90731
G1 X124.489 Y164.839 E17.94104
G1 X124.168 Y164.245 E17.99494
G1 X123.947 Y163.824 E18.03289
G1 X123.617 Y163.167 E18.09158
G1 X123.351 Y162.608 E18.141
G1 X123.082 Y162.016 E18.1929
G1 X122.876 Y161.544 E18.23401
G1 X122.725 Y161.188 E18.26488
G1 X122.434 Y160.462 E18.32732
G1 X122.368 Y160.292 E18.34187
G1 X122.136 Y159.666 E18.39516
G1 X121.955 Y159.155 E18.43844
G1 X121.811 Y158.724 E18.47471
G1 X121.655 Y158.23 E18.51606
G1 X121.491 Y157.677 E18.56211
G1 X121.361 Y157.208 E18.60096
G1 X121.233 Y156.717 E18.64146
G1 X121.098 Y156.149 E18.68806
G1 X120.977 Y155.599 E18.73302
G1 X120.861 Y155.01 E18.78094
G1 X120.829 Y154.839 E18.79482
G1 X120.76 Y154.438 E18.8273
G1 X120.689 Y153.972 E18.86493
G1 X120.636 Y153.582 E18.89635
G1 X120.615 Y153.413 E18.90994
G1 X120.546 Y152.796 E18.9595
G1 X120.523 Y152.557 E18.97867
G1 X120.491 Y152.166 E19.00998
G1 X120.476 Y151.947 E19.02751
G1 X120.46 Y151.654 E19.05093
G1 X120.451 Y151.418 E19.06978
G1 X120.443 Y151.104 E19.09485
G1 X120.44 Y150.827 E19.11697
G1 X120.443 Y150.484 E19.14435
G1 X120.45 Y150.215 E19.16583
G1 X120.474 Y149.692 E19.20762
G1 X120.494 Y149.387 E19.23202
G1 X120.513 Y149.153 E19.25076
G1 X120.554 Y148.732 E19.28452
G1 X120.598 Y148.344 E19.31569
G1 X120.65 Y147.925 E19.3494
G1 X120.708 Y147.52 E19.38206
G1 X120.781 Y147.059 E19.41931
G1 X120.885 Y146.472 E19.4669
G1 X120.927 Y146.254 E19.48462
G1 X121.008 Y145.862 E19.51657
G1 X121.096 Y145.468 E19.5488
G1 X121.191 Y145.066 E19.58177
G1 X121.307 Y144.604 E19.6198
G1 X121.448 Y144.085 E19.66273
G1 X121.566 Y143.679 E19.69648
G1 X121.765 Y143.038 E19.75005
G1 X121.924 Y142.557 E19.79049
G1 X122.181 Y141.824 E19.8525
G1 X122.385 Y141.28 E19.89887
G1 X122.663 Y140.575 E19.95937
G1 X122.838 Y140.157 E19.99554
G1 X123.121 Y139.515 E20.05154
G1 X123.396 Y138.916 E20.10416
G1 X123.665 Y138.358 E20.1536
G1 X123.973 Y137.741 E20.20865
G1 X124.167 Y137.372 E20.24193
G1 X124.442 Y136.861 E20.28825
G1 X124.761 Y136.289 E20.34053
G1 X125.133 Y135.649 E20.39962
G1 X125.237 Y135.475 E20.4158
G1 X125.534 Y134.994 E20.46093
G1 X126.275 Y133.843 E20.5702
G1 X126.501 Y133.504 E20.60272
G1 X126.821 Y133.038 E20.64785
G1 X127.193 Y132.519 E20.69882
G1 X127.476 Y132.133 E20.73702
G1 X127.941 Y131.513 E20.79889
G1 X128.443 Y130.669 E20.87728
G1 X128.641 Y130.352 E20.90711
G1 X128.783 Y130.131 E20.92808
G1 X128.923 Y129.921 E20.94823
G1 X129.11 Y129.649 E20.97458
G1 X129.259 Y129.44 E20.99506
G1 X129.37 Y129.289 E21.01002
G1 X129.571 Y129.027 E21.03638
G1 X129.699 Y128.867 E21.05274
G1 X129.944 Y128.575 E21.08317
G1 X130.15 Y128.341 E21.10805
G1 X130.442 Y128.027 E21.14228
G1 X130.826 Y127.626 E21.1866
G1 X131.38 Y127.063 E21.24965
G1 X131.93 Y126.525 E21.31106
G1 X132.048 Y126.412 E21.32411
G1 X132.563 Y125.93 E21.38041
G1 X133.068 Y125.475 E21.43467
G1 X133.509 Y125.091 E21.48135
G1 X134.122 Y124.575 E21.54531
G1 X134.468 Y124.294 E21.58089
G1 X134.876 Y123.976 E21.62218
G1 X135.392 Y123.585 E21.67386
G1 X135.464 Y123.532 E21.681
G1 X135.503 Y122.753 E21.74326
G1 X135.623 Y121.957 E21.80752
G1 X135.821 Y121.177 E21.87176
G1 X136.096 Y120.421 E21.93597
G1 X136.444 Y119.696 E22.00017
G1 X136.863 Y119.008 E22.06447
G1 X137.348 Y118.366 E22.12869
G0 F7500 X137.941 Y118.595
G1 F1500 X138.483 Y118.042 E22.1905
G1 X139.079 Y117.548 E22.2523
G1 X139.723 Y117.118 E22.31411
G1 X140.408 Y116.756 E22.37596
G1 X141.126 Y116.467 E22.43774
G1 X141.871 Y116.253 E22.49961
G1 X142.633 Y116.118 E22.56139
G1 X143.561 Y116.06 E22.63561
G1 X147.794 Y116.059 E22.9735
G1 X148.568 Y116.099 E23.03537
G1 X149.333 Y116.218 E23.09717
G1 X150.081 Y116.416 E23.15893
G1 X150.806 Y116.689 E23.22077
G1 X151.498 Y117.036 E23.28257
G1 X152.151 Y117.453 E23.34442
G1 X152.757 Y117.934 E23.40617
G1 X153.311 Y118.476 E23.46804
G1 X153.334 Y118.504 E23.47093
G1 X153.561 Y118.307 E23.49493
G1 X154.043 Y117.895 E23.54554
G1 X154.453 Y117.553 E23.58816
G1 X154.936 Y117.16 E23.63787
G1 X155.347 Y116.835 E23.67969
G1 X155.742 Y116.532 E23.71943
G1 X156.164 Y116.216 E23.76151
G1 X156.721 Y115.807 E23.81668
G1 X157.521 Y115.238 E23.89504
G1 X158.094 Y114.846 E23.95046
G1 X158.094 Y113.09 E24.09063
G1 X158.134 Y112.317 E24.15242
G1 X158.254 Y111.552 E24.21423
G1 X158.452 Y110.803 E24.27607
G1 X158.726 Y110.079 E24.33787
G1 X159.073 Y109.387 E24.39966
G1 X159.49 Y108.734 E24.46151
G1 X159.972 Y108.128 E24.52332
G1 X160.514 Y107.575 E24.58512
G1 X161.11 Y107.08 E24.64697
G1 X161.753 Y106.65 E24.70872
G1 X162.438 Y106.288 E24.77056
G1 X163.156 Y105.999 E24.83234
G1 X163.901 Y105.786 E24.8942
G1 X164.663 Y105.65 E24.95598
G1 X165.593 Y105.592 E25.03036
G1 X171.459 Y105.591 E25.49861
G1 X172.232 Y105.631 E25.5604
G1 X172.997 Y105.75 E25.6222
G1 X173.746 Y105.948 E25.68404
G1 X174.47 Y106.222 E25.74584
G1 X175.162 Y106.569 E25.80763
G1 X175.815 Y106.985 E25.86943
G1 X176.422 Y107.467 E25.9313
G1 X176.975 Y108.008 E25.99306
G1 X177.47 Y108.604 E26.0549
G1 X177.9 Y109.247 E26.11665
G1 X178.262 Y109.932 E26.17849
G1 X178.552 Y110.65 E26.24031
G1 X178.766 Y111.394 E26.3021
G1 X178.902 Y112.157 E26.36397
G1 X178.96 Y113.091 E26.43867
G1 X178.96 Y120.208 E27.00678
G1 X178.955 Y120.477 E27.02826
G1 X178.944 Y120.784 E27.05278
G1 X178.908 Y121.298 E27.09391
G1 X178.876 Y121.603 E27.11839
G1 X178.806 Y122.104 E27.15877
G1 X178.753 Y122.409 E27.18348
G1 X178.64 Y122.944 E27.22713
G1 X178.567 Y123.236 E27.25115
G1 X178.418 Y123.751 E27.29395
G1 X178.324 Y124.038 E27.31806
