;FLAVOR:Marlin
;TIME:1078
;Filament used: 2.60661m
;Layer height: 0.32
;MINX:127.499
;MINY:127.5
;MINZ:0.32
;MAXX:172.5
;MAXY:172.5
;MAXZ:20.16
;Generated with Cura_SteamEngine master
M140 S90
M105
M190 S90
M104 S240
M105
M109 S240
M82 ;absolute extrusion mode
G28 ;Home
G1 Z15.0 F2000 ;Move the platform
G92 E0
G92 E0
G1 F1500 E-4
;LAYER_COUNT:63
;LAYER:0
M107 P2
G0 F7500 X129.917 Y129.54 Z0.32
;TYPE:SKIRT
G1 F1500 E0
G1 X130.514 Y129.039 E0.08295
G1 X131.159 Y128.601 E0.16593
G1 X131.845 Y128.232 E0.24884
G1 X132.566 Y127.935 E0.33183
G1 X133.313 Y127.713 E0.41477
G1 X134.079 Y127.569 E0.49773
G1 X135.099 Y127.5 E0.60654
G1 X164.9 Y127.5 E3.77833
G1 X165.678 Y127.54 E3.86124
G1 X166.449 Y127.659 E3.94427
G1 X167.203 Y127.857 E4.02724
G1 X167.932 Y128.131 E4.11013
G1 X168.63 Y128.478 E4.1931
G1 X169.289 Y128.895 E4.2761
G1 X169.901 Y129.378 E4.35908
G1 X170.461 Y129.92 E4.44202
G1 X170.963 Y130.517 E4.52504
G1 X171.4 Y131.162 E4.60796
G1 X171.769 Y131.848 E4.69087
G1 X172.066 Y132.569 E4.77386
G1 X172.288 Y133.317 E4.85691
G1 X172.432 Y134.083 E4.93986
G1 X172.5 Y135.1 E5.04834
G1 X172.5 Y164.9 E8.22003
G1 X172.46 Y165.678 E8.30294
G1 X172.341 Y166.449 E8.38598
G1 X172.143 Y167.203 E8.46895
G1 X171.869 Y167.932 E8.55183
G1 X171.522 Y168.63 E8.6348
G1 X171.105 Y169.289 E8.7178
G1 X170.622 Y169.901 E8.80078
G1 X170.08 Y170.461 E8.88373
G1 X169.483 Y170.963 E8.96674
G1 X168.838 Y171.4 E9.04966
G1 X168.152 Y171.769 E9.13257
G1 X167.431 Y172.066 E9.21556
G1 X166.683 Y172.288 E9.29861
G1 X165.917 Y172.432 E9.38156
G1 X164.898 Y172.5 E9.49026
G1 X159.897 Y172.499 E10.02253
G1 X159.119 Y172.459 E10.10544
G1 X158.349 Y172.339 E10.18838
G1 X157.595 Y172.141 E10.27135
G1 X156.865 Y171.867 E10.35434
G1 X156.167 Y171.52 E10.43731
G1 X155.509 Y171.103 E10.52022
G1 X154.896 Y170.62 E10.60328
G1 X154.525 Y170.273 E10.65735
G1 X129.937 Y145.686 E14.35821
G1 X129.415 Y145.107 E14.44118
G1 X128.955 Y144.478 E14.52412
G1 X128.561 Y143.805 E14.60712
G1 X128.239 Y143.096 E14.69
G1 X127.991 Y142.357 E14.77297
G1 X127.817 Y141.574 E14.85833
G1 X127.752 Y141.188 E14.9
G1 X127.713 Y140.93 E14.92777
G1 X127.664 Y140.582 E14.96517
G1 X127.623 Y140.257 E15.00004
G1 X127.578 Y139.824 E15.04637
G1 X127.554 Y139.54 E15.0767
G1 X127.527 Y139.132 E15.12022
G1 X127.512 Y138.815 E15.154
G1 X127.502 Y138.404 E15.19776
G1 X127.5 Y138.221 E15.21724
G1 X127.499 Y135.102 E15.5492
G1 X127.539 Y134.324 E15.63211
G1 X127.658 Y133.554 E15.71504
G1 X127.856 Y132.8 E15.79801
G1 X128.129 Y132.07 E15.88096
G1 X128.476 Y131.372 E15.96392
G1 X128.893 Y130.713 E16.04692
G1 X129.375 Y130.1 E16.12992
G1 X129.917 Y129.54 E16.21287
G0 F7500 X130.701 Y129.914
G1 F1500 X131.289 Y129.468 E16.29142
G1 X131.921 Y129.088 E16.3699
G1 X132.59 Y128.78 E16.44829
G1 X133.289 Y128.545 E16.52678
G1 X134.01 Y128.388 E16.60532
G1 X135.099 Y128.3 E16.7216
G1 X164.9 Y128.3 E19.89339
G1 X165.636 Y128.34 E19.97184
G1 X166.364 Y128.459 E20.05035
G1 X167.074 Y128.657 E20.1288
G1 X167.759 Y128.93 E20.20729
G1 X168.41 Y129.276 E20.28575
G1 X169.02 Y129.69 E20.36422
G1 X169.581 Y130.168 E20.44266
G1 X170.088 Y130.704 E20.52118
G1 X170.533 Y131.291 E20.59958
G1 X170.913 Y131.924 E20.67816
G1 X171.221 Y132.593 E20.75655
G1 X171.455 Y133.292 E20.835
G1 X171.613 Y134.013 E20.91356
G1 X171.7 Y135.1 E21.02962
G1 X171.7 Y164.9 E24.20131
G1 X171.66 Y165.636 E24.27976
G1 X171.541 Y166.364 E24.35827
G1 X171.343 Y167.074 E24.43672
G1 X171.07 Y167.759 E24.51521
G1 X170.724 Y168.41 E24.59367
G1 X170.31 Y169.02 E24.67214
G1 X169.832 Y169.581 E24.75058
G1 X169.296 Y170.088 E24.8291
G1 X168.709 Y170.533 E24.9075
G1 X168.076 Y170.913 E24.98608
G1 X167.407 Y171.221 E25.06447
G1 X166.708 Y171.455 E25.14292
G1 X165.987 Y171.613 E25.22148
G1 X164.899 Y171.7 E25.33765
G1 X159.898 Y171.699 E25.86992
G1 X159.161 Y171.659 E25.94848
G1 X158.434 Y171.539 E26.0269
G1 X157.724 Y171.342 E26.10532
G1 X157.039 Y171.068 E26.18384
G1 X156.388 Y170.722 E26.26231
G1 X155.778 Y170.308 E26.34077
G1 X155.091 Y169.707 E26.43792
G1 X130.503 Y145.12 E30.13879
G1 X130.01 Y144.572 E30.21724
G1 X129.58 Y143.973 E30.29572
G1 X129.218 Y143.331 E30.37417
G1 X128.927 Y142.653 E30.45269
G1 X128.711 Y141.948 E30.53117
G1 X128.605 Y141.441 E30.5863
G1 X128.54 Y141.055 E30.62796
G1 X128.455 Y140.465 E30.6914
G1 X128.418 Y140.174 E30.72262
G1 X128.373 Y139.741 E30.76896
G1 X128.352 Y139.487 E30.79608
G1 X128.325 Y139.079 E30.8396
G1 X128.312 Y138.795 E30.86986
G1 X128.3 Y138.221 E30.93097
G1 X128.299 Y135.102 E31.26293
G1 X128.339 Y134.366 E31.34138
G1 X128.458 Y133.638 E31.41989
G1 X128.655 Y132.928 E31.49831
G1 X128.928 Y132.243 E31.5768
G1 X129.274 Y131.592 E31.65526
G1 X129.688 Y130.982 E31.73373
G1 X130.166 Y130.42 E31.81225
G1 X130.701 Y129.914 E31.89063
G0 F7500 X130.954 Y130.762
G1 F1500 X131.481 Y130.313 E31.96431
G1 X132.057 Y129.928 E32.03805
G1 X132.673 Y129.612 E32.11174
G1 X133.321 Y129.369 E32.1854
G1 X133.994 Y129.203 E32.25917
G1 X134.681 Y129.115 E32.33289
G1 X135.099 Y129.1 E32.3774
G1 X164.9 Y129.1 E35.5492
G1 X165.591 Y129.14 E35.62287
G1 X166.274 Y129.259 E35.69665
G1 X166.937 Y129.457 E35.7703
G1 X167.574 Y129.729 E35.84402
G1 X168.175 Y130.073 E35.91772
G1 X168.733 Y130.484 E35.99148
G1 X169.239 Y130.956 E36.06513
G1 X169.688 Y131.484 E36.1389
G1 X170.073 Y132.059 E36.21255
G1 X170.388 Y132.676 E36.28628
G1 X170.631 Y133.324 E36.35994
G1 X170.798 Y133.997 E36.43374
G1 X170.886 Y134.683 E36.50735
G1 X170.9 Y135.1 E36.55176
G1 X170.9 Y164.9 E39.72344
G1 X170.86 Y165.591 E39.79711
G1 X170.741 Y166.274 E39.8709
G1 X170.543 Y166.937 E39.94454
G1 X170.271 Y167.574 E40.01826
G1 X169.927 Y168.175 E40.09197
G1 X169.516 Y168.733 E40.16573
G1 X169.044 Y169.239 E40.23938
G1 X168.516 Y169.688 E40.31314
G1 X167.941 Y170.073 E40.38679
G1 X167.324 Y170.388 E40.46053
G1 X166.676 Y170.631 E40.53418
G1 X166.003 Y170.798 E40.60798
G1 X165.317 Y170.886 E40.6816
G1 X164.899 Y170.9 E40.72611
G1 X159.898 Y170.899 E41.25838
G1 X159.206 Y170.859 E41.33215
G1 X158.524 Y170.739 E41.40585
G1 X157.86 Y170.542 E41.47957
G1 X157.224 Y170.27 E41.55319
G1 X156.623 Y169.926 E41.62689
G1 X156.065 Y169.515 E41.70066
G1 X155.656 Y169.142 E41.75957
G1 X131.068 Y144.555 E45.46044
G1 X130.608 Y144.038 E45.53409
G1 X130.21 Y143.471 E45.60782
G1 X129.88 Y142.862 E45.68154
G1 X129.622 Y142.219 E45.75528
G1 X129.394 Y141.308 E45.85523
G1 X129.329 Y140.922 E45.89689
G1 X129.247 Y140.348 E45.95861
G1 X129.214 Y140.091 E45.98618
G1 X129.169 Y139.658 E46.03252
G1 X129.15 Y139.434 E46.05644
G1 X129.123 Y139.026 E46.09996
G1 X129.112 Y138.776 E46.1266
G1 X129.1 Y138.221 E46.18568
G1 X129.099 Y135.102 E46.51764
G1 X129.139 Y134.411 E46.59131
G1 X129.258 Y133.728 E46.6651
G1 X129.455 Y133.064 E46.73881
G1 X129.727 Y132.428 E46.81244
G1 X130.071 Y131.826 E46.88623
G1 X130.481 Y131.269 E46.95984
G1 X130.954 Y130.762 E47.03364
G0 F7500 X131.738 Y131.132
G1 F1500 X132.255 Y130.747 E47.10225
G1 X132.816 Y130.428 E47.17094
G1 X133.411 Y130.182 E47.23946
G1 X134.033 Y130.01 E47.30815
G1 X134.671 Y129.918 E47.37675
G1 X135.099 Y129.9 E47.42235
G1 X164.9 Y129.9 E50.59414
G1 X165.543 Y129.94 E50.66271
G1 X166.177 Y130.059 E50.73136
G1 X166.791 Y130.256 E50.8
G1 X167.376 Y130.527 E50.86861
G1 X167.923 Y130.869 E50.93728
G1 X168.423 Y131.275 E51.00583
G1 X168.869 Y131.74 E51.0744
G1 X169.254 Y132.257 E51.14301
G1 X169.573 Y132.818 E51.2117
G1 X169.819 Y133.414 E51.28032
G1 X169.99 Y134.035 E51.34888
G1 X170.082 Y134.673 E51.41748
G1 X170.1 Y135.1 E51.46297
G1 X170.1 Y164.9 E54.63465
G1 X170.06 Y165.543 E54.70322
G1 X169.941 Y166.177 E54.77188
G1 X169.744 Y166.791 E54.84051
G1 X169.473 Y167.376 E54.90913
G1 X169.131 Y167.923 E54.97779
G1 X168.725 Y168.423 E55.04634
G1 X168.26 Y168.869 E55.11492
G1 X167.743 Y169.254 E55.18352
G1 X167.182 Y169.573 E55.25221
G1 X166.586 Y169.819 E55.32084
G1 X165.965 Y169.99 E55.38939
G1 X165.327 Y170.082 E55.458
G1 X164.899 Y170.1 E55.50359
G1 X159.898 Y170.099 E56.03586
G1 X159.255 Y170.059 E56.10443
G1 X158.621 Y169.94 E56.17308
G1 X158.007 Y169.743 E56.24171
G1 X157.422 Y169.471 E56.31038
G1 X156.876 Y169.13 E56.37889
G1 X156.222 Y168.576 E56.47012
G1 X131.634 Y143.989 E60.17098
G1 X131.207 Y143.506 E60.2396
G1 X130.844 Y142.973 E60.30823
G1 X130.549 Y142.4 E60.37683
G1 X130.327 Y141.795 E60.44542
G1 X130.183 Y141.175 E60.51316
G1 X130.118 Y140.789 E60.55482
G1 X130.038 Y140.231 E60.61482
G1 X130.01 Y140.009 E60.63863
G1 X129.965 Y139.576 E60.68497
G1 X129.948 Y139.381 E60.7058
G1 X129.921 Y138.973 E60.74932
G1 X129.912 Y138.756 E60.77244
G1 X129.9 Y138.221 E60.82939
G1 X129.899 Y135.102 E61.16135
G1 X129.939 Y134.458 E61.23003
G1 X130.058 Y133.825 E61.29858
G1 X130.254 Y133.211 E61.36718
G1 X130.525 Y132.626 E61.4358
G1 X130.867 Y132.079 E61.50446
G1 X131.273 Y131.578 E61.57309
G1 X131.738 Y131.132 E61.64167
G0 F7500 X132.062 Y131.917
G1 F1500 X132.517 Y131.537 E61.70476
G1 X133.02 Y131.222 E61.76793
G1 X133.56 Y130.978 E61.831
G1 X134.128 Y130.808 E61.8941
G1 X134.714 Y130.717 E61.95722
G1 X135.099 Y130.7 E61.99823
G1 X164.9 Y130.7 E65.17003
G1 X165.492 Y130.74 E65.23318
G1 X166.072 Y130.859 E65.2962
G1 X166.632 Y131.055 E65.35934
G1 X167.16 Y131.325 E65.42246
G1 X167.647 Y131.663 E65.48555
G1 X168.084 Y132.064 E65.54868
G1 X168.464 Y132.519 E65.61177
G1 X168.778 Y133.022 E65.67488
G1 X169.023 Y133.562 E65.738
G1 X169.192 Y134.131 E65.80117
G1 X169.283 Y134.716 E65.86418
G1 X169.3 Y135.1 E65.90509
G1 X169.3 Y164.9 E69.07678
G1 X169.26 Y165.492 E69.13993
G1 X169.141 Y166.072 E69.20295
G1 X168.945 Y166.632 E69.2661
G1 X168.675 Y167.16 E69.32921
G1 X168.337 Y167.647 E69.39231
G1 X167.936 Y168.084 E69.45543
G1 X167.481 Y168.464 E69.51853
G1 X166.978 Y168.778 E69.58164
G1 X166.438 Y169.023 E69.64475
G1 X165.869 Y169.192 E69.70792
G1 X165.284 Y169.283 E69.77094
G1 X164.899 Y169.3 E69.81195
G1 X159.898 Y169.299 E70.34422
G1 X159.307 Y169.259 E70.40727
G1 X158.726 Y169.14 E70.47039
G1 X158.166 Y168.943 E70.53357
G1 X157.638 Y168.674 E70.59664
G1 X157.151 Y168.335 E70.65979
G1 X156.788 Y168.01 E70.71165
G1 X132.2 Y143.423 E74.41252
G1 X131.81 Y142.977 E74.47557
G1 X131.483 Y142.482 E74.53872
G1 X131.226 Y141.947 E74.60189
G1 X131.043 Y141.383 E74.66499
G1 X130.972 Y141.043 E74.70196
G1 X130.907 Y140.657 E74.74362
G1 X130.829 Y140.114 E74.80201
G1 X130.806 Y139.926 E74.82217
G1 X130.761 Y139.493 E74.8685
G1 X130.747 Y139.329 E74.88602
G1 X130.72 Y138.921 E74.92954
G1 X130.711 Y138.737 E74.94915
G1 X130.7 Y138.22 E75.00418
G1 X130.699 Y135.101 E75.33615
G1 X130.739 Y134.51 E75.39919
G1 X130.858 Y133.929 E75.46231
G1 X131.054 Y133.369 E75.52546
G1 X131.323 Y132.841 E75.58853
G1 X131.661 Y132.354 E75.65162
G1 X132.062 Y131.917 E75.71475
G0 F7500 X132.845 Y132.293
G1 F1500 X133.287 Y131.989 E75.77184
G1 X133.769 Y131.755 E75.82887
G1 X134.281 Y131.594 E75.88599
G1 X134.811 Y131.512 E75.94307
G1 X135.099 Y131.5 E75.97375
G1 X164.9 Y131.5 E79.14555
G1 X165.435 Y131.54 E79.20265
G1 X165.958 Y131.659 E79.25973
G1 X166.457 Y131.854 E79.31676
G1 X166.922 Y132.122 E79.37388
G1 X167.342 Y132.455 E79.43092
G1 X167.708 Y132.847 E79.488
G1 X168.011 Y133.289 E79.54504
G1 X168.246 Y133.772 E79.60221
G1 X168.406 Y134.283 E79.6592
G1 X168.489 Y134.813 E79.7163
G1 X168.5 Y135.1 E79.74686
G1 X168.5 Y164.9 E82.91855
G1 X168.46 Y165.435 E82.97565
G1 X168.341 Y165.958 E83.03274
G1 X168.146 Y166.457 E83.08976
G1 X167.878 Y166.922 E83.14688
G1 X167.545 Y167.342 E83.20393
G1 X167.153 Y167.708 E83.26101
G1 X166.711 Y168.011 E83.31804
G1 X166.228 Y168.246 E83.37521
G1 X165.717 Y168.406 E83.4322
G1 X165.187 Y168.489 E83.4893
G1 X164.899 Y168.5 E83.51998
G1 X159.898 Y168.499 E84.05224
G1 X159.363 Y168.459 E84.10934
G1 X158.841 Y168.34 E84.16633
G1 X158.341 Y168.144 E84.22349
G1 X157.876 Y167.877 E84.28056
G1 X157.353 Y167.445 E84.35275
G1 X132.765 Y142.858 E88.05362
G1 X132.416 Y142.451 E88.11068
G1 X132.13 Y141.997 E88.16779
G1 X131.915 Y141.506 E88.22484
G1 X131.761 Y140.91 E88.29036
G1 X131.696 Y140.524 E88.33202
G1 X131.601 Y139.843 E88.4052
G1 X131.556 Y139.41 E88.45153
G1 X131.545 Y139.276 E88.46584
G1 X131.518 Y138.868 E88.50936
G1 X131.511 Y138.718 E88.52535
G1 X131.5 Y138.22 E88.57836
G1 X131.499 Y135.101 E88.91033
G1 X131.539 Y134.566 E88.96743
G1 X131.658 Y134.043 E89.02451
G1 X131.853 Y133.544 E89.08153
G1 X132.12 Y133.079 E89.1386
G1 X132.453 Y132.659 E89.19565
G1 X132.845 Y132.293 E89.25273
G0 F7500 X133.241 Y133.006
G1 F1500 X133.62 Y132.723 E89.30307
G1 X134.041 Y132.508 E89.35339
G1 X134.492 Y132.367 E89.40368
G1 X135.099 Y132.3 E89.46867
G1 X164.9 Y132.3 E92.64047
G1 X165.371 Y132.34 E92.69078
G1 X165.829 Y132.459 E92.74114
G1 X166.26 Y132.653 E92.79145
G1 X166.653 Y132.916 E92.84178
G1 X166.995 Y133.242 E92.89206
G1 X167.278 Y133.621 E92.94241
G1 X167.493 Y134.043 E92.99282
G1 X167.634 Y134.494 E93.04311
G1 X167.7 Y135.1 E93.10799
G1 X167.7 Y164.9 E96.27967
G1 X167.66 Y165.371 E96.32998
G1 X167.541 Y165.829 E96.38035
G1 X167.347 Y166.26 E96.43065
G1 X167.084 Y166.653 E96.48098
G1 X166.758 Y166.995 E96.53127
G1 X166.379 Y167.278 E96.58161
G1 X165.957 Y167.493 E96.63202
G1 X165.506 Y167.634 E96.68231
G1 X164.899 Y167.7 E96.7473
G1 X159.898 Y167.699 E97.27957
G1 X159.427 Y167.659 E97.32988
G1 X158.97 Y167.54 E97.38014
G1 X158.538 Y167.346 E97.43054
G1 X158.146 Y167.082 E97.48084
G1 X157.919 Y166.879 E97.51325
G1 X133.331 Y142.292 E101.21412
G1 X133.026 Y141.931 E101.26442
G1 X132.786 Y141.523 E101.3148
G1 X132.619 Y141.081 E101.36509
G1 X132.55 Y140.777 E101.39827
G1 X132.485 Y140.391 E101.43993
G1 X132.397 Y139.76 E101.50774
G1 X132.352 Y139.327 E101.55407
G1 X132.343 Y139.223 E101.56518
G1 X132.316 Y138.815 E101.6087
G1 X132.311 Y138.698 E101.62116
G1 X132.3 Y138.22 E101.67205
G1 X132.299 Y135.101 E102.00402
G1 X132.339 Y134.63 E102.05433
G1 X132.457 Y134.172 E102.10466
G1 X132.651 Y133.741 E102.15497
G1 X132.915 Y133.348 E102.20536
G1 X133.241 Y133.006 E102.25565
G0 F7500 X133.706 Y133.665
G1 F1500 X134.019 Y133.417 E102.29815
G1 X134.375 Y133.236 E102.34065
G1 X134.76 Y133.129 E102.38318
G1 X135.099 Y133.1 E102.4194
G1 X164.9 Y133.1 E105.59119
G1 X165.298 Y133.14 E105.63376
G1 X165.679 Y133.258 E105.67621
G1 X166.03 Y133.45 E105.7188
G1 X166.335 Y133.707 E105.76124
G1 X166.583 Y134.02 E105.80375
G1 X166.764 Y134.376 E105.84625
G1 X166.871 Y134.761 E105.88878
G1 X166.9 Y135.1 E105.925
G1 X166.9 Y164.9 E109.09668
G1 X166.86 Y165.298 E109.13926
G1 X166.742 Y165.679 E109.18171
G1 X166.55 Y166.03 E109.22429
G1 X166.293 Y166.335 E109.26674
G1 X165.98 Y166.583 E109.30924
G1 X165.624 Y166.764 E109.35175
G1 X165.239 Y166.871 E109.39428
G1 X164.9 Y166.9 E109.43049
G1 X159.899 Y166.899 E109.96276
G1 X159.501 Y166.859 E110.00533
G1 X159.119 Y166.741 E110.04788
G1 X158.769 Y166.549 E110.09037
G1 X158.485 Y166.313 E110.12967
G1 X133.897 Y141.726 E113.83054
G1 X133.644 Y141.417 E113.87304
G1 X133.458 Y141.064 E113.91551
G1 X133.339 Y140.644 E113.96197
G1 X133.264 Y140.19 E114.01095
G1 X133.193 Y139.678 E114.06596
G1 X133.141 Y139.17 E114.12031
G1 X133.114 Y138.762 E114.16383
G1 X133.1 Y138.22 E114.22154
G1 X133.099 Y135.101 E114.5535
G1 X133.139 Y134.703 E114.59607
G1 X133.257 Y134.321 E114.63863
G1 X133.448 Y133.971 E114.68106
G1 X133.706 Y133.665 E114.72366
G0 F7500 X134.242 Y134.26
G1 F1500 X134.485 Y134.069 E114.75656
G1 X134.768 Y133.946 E114.7894
G1 X135.099 Y133.9 E114.82497
G1 X164.9 Y133.9 E117.99676
G1 X165.207 Y133.94 E118.02971
G1 X165.493 Y134.057 E118.0626
G1 X165.74 Y134.243 E118.09551
G1 X165.931 Y134.486 E118.12841
G1 X166.054 Y134.77 E118.16135
G1 X166.1 Y135.1 E118.19681
G1 X166.1 Y164.9 E121.3685
G1 X166.06 Y165.207 E121.40145
G1 X165.943 Y165.493 E121.43433
G1 X165.757 Y165.74 E121.46724
G1 X165.514 Y165.931 E121.50014
G1 X165.23 Y166.054 E121.53308
G1 X164.9 Y166.1 E121.56854
G1 X159.899 Y166.099 E122.10081
G1 X159.592 Y166.059 E122.13376
G1 X159.306 Y165.942 E122.16665
G1 X159.05 Y165.748 E122.20084
G1 X134.462 Y141.161 E125.9017
G1 X134.274 Y140.916 E125.93457
G1 X134.128 Y140.511 E125.98039
G1 X134.057 Y140.085 E126.02636
G1 X133.988 Y139.595 E126.07902
G1 X133.943 Y139.162 E126.12536
G1 X133.91 Y138.659 E126.17901
