;FLAVOR:Marlin
;TIME:2053
;Filament used: 4.30909m
;Layer height: 0.32
;MINX:102.6
;MINY:105.2
;MINZ:0.32
;MAXX:197.4
;MAXY:194.8
;MAXZ:2.24
;Generated with Cura_SteamEngine master
M140 S90
M105
M190 S90
M104 S240
M105
M109 S240
M82 ;absolute extrusion mode
G28 ;Home
G1 Z15.0 F2000 ;Move the platform
G92 E0
G92 E0
;LAYER_COUNT:7
;LAYER:0
M107 P2
G0 F7500 X106.458 Y108.731 Z0.32
;TYPE:SKIRT
G1 F1500 X106.973 Y108.261 E0.07421
G1 X107.329 Y107.965 E0.12348
G1 X107.889 Y107.542 E0.19818
G1 X108.268 Y107.282 E0.2471
G1 X108.862 Y106.913 E0.32152
G1 X109.265 Y106.688 E0.37065
G1 X109.911 Y106.367 E0.44742
G1 X110.334 Y106.181 E0.4966
G1 X110.985 Y105.93 E0.57086
G1 X111.425 Y105.783 E0.62024
G1 X112.079 Y105.596 E0.69263
G1 X112.526 Y105.49 E0.74153
G1 X113.233 Y105.358 E0.81808
G1 X113.693 Y105.294 E0.86751
G1 X114.393 Y105.229 E0.94233
G1 X114.853 Y105.208 E0.99134
G1 X115.2 Y105.2 E1.02828
G1 X184.799 Y105.2 E8.43587
G1 X185.145 Y105.208 E8.47271
G1 X185.606 Y105.229 E8.52182
G1 X186.291 Y105.291 E8.59503
G1 X186.751 Y105.354 E8.64444
G1 X187.489 Y105.493 E8.72437
G1 X187.936 Y105.6 E8.77329
G1 X188.575 Y105.783 E8.84404
G1 X189.015 Y105.93 E8.89341
G1 X189.664 Y106.18 E8.96743
G1 X190.085 Y106.365 E9.01638
G1 X190.731 Y106.686 E9.09315
G1 X191.136 Y106.912 E9.14252
G1 X191.732 Y107.282 E9.21718
G1 X192.111 Y107.542 E9.2661
G1 X192.669 Y107.964 E9.34056
G1 X193.024 Y108.259 E9.38968
G1 X193.541 Y108.73 E9.46412
G1 X193.869 Y109.058 E9.51349
G1 X194.339 Y109.573 E9.5877
G1 X194.635 Y109.929 E9.63697
G1 X195.058 Y110.489 E9.71167
G1 X195.318 Y110.868 E9.76059
G1 X195.687 Y111.462 E9.83501
G1 X195.912 Y111.865 E9.88414
G1 X196.233 Y112.511 E9.96091
G1 X196.419 Y112.934 E10.01009
G1 X196.669 Y113.58 E10.08382
G1 X196.816 Y114.019 E10.13309
G1 X197.005 Y114.682 E10.20647
G1 X197.111 Y115.13 E10.25547
G1 X197.242 Y115.828 E10.33105
G1 X197.306 Y116.286 E10.38027
G1 X197.371 Y116.993 E10.45584
G1 X197.392 Y117.455 E10.50506
G1 X197.4 Y117.8 E10.54179
G1 X197.399 Y182.235 E17.39976
G1 X197.391 Y182.592 E17.43777
G1 X197.371 Y183.017 E17.48305
G1 X197.309 Y183.691 E17.55509
G1 X197.246 Y184.151 E17.60451
G1 X197.107 Y184.889 E17.68443
G1 X197 Y185.336 E17.73335
G1 X196.819 Y185.97 E17.80353
G1 X196.673 Y186.408 E17.85267
G1 X196.42 Y187.064 E17.9275
G1 X196.234 Y187.487 E17.97668
G1 X195.917 Y188.126 E18.0526
G1 X195.692 Y188.53 E18.10182
G1 X195.317 Y189.135 E18.17758
G1 X195.056 Y189.515 E18.22664
G1 X194.636 Y190.069 E18.30063
G1 X194.341 Y190.424 E18.34976
G1 X193.87 Y190.941 E18.4242
G1 X193.542 Y191.269 E18.47357
G1 X193.027 Y191.739 E18.54777
G1 X192.671 Y192.035 E18.59705
G1 X192.111 Y192.458 E18.67175
G1 X191.732 Y192.718 E18.72066
G1 X191.138 Y193.087 E18.79509
G1 X190.735 Y193.312 E18.84421
G1 X190.089 Y193.633 E18.92099
G1 X189.666 Y193.819 E18.97017
G1 X189.015 Y194.07 E19.04443
G1 X188.575 Y194.217 E19.0938
G1 X187.921 Y194.404 E19.1662
G1 X187.474 Y194.51 E19.2151
G1 X186.767 Y194.642 E19.29164
G1 X186.307 Y194.706 E19.34107
G1 X185.607 Y194.771 E19.4159
G1 X185.147 Y194.792 E19.46491
G1 X184.8 Y194.8 E19.50185
G1 X115.165 Y194.799 E26.91327
G1 X114.808 Y194.791 E26.95128
G1 X114.383 Y194.771 E26.99656
G1 X113.709 Y194.709 E27.0686
G1 X113.249 Y194.646 E27.11802
G1 X112.511 Y194.507 E27.19794
G1 X112.064 Y194.4 E27.24686
G1 X111.425 Y194.217 E27.31761
G1 X110.985 Y194.07 E27.36698
G1 X110.334 Y193.819 E27.44124
G1 X109.911 Y193.633 E27.49042
G1 X109.265 Y193.312 E27.5672
G1 X108.862 Y193.087 E27.61632
G1 X108.268 Y192.718 E27.69075
G1 X107.889 Y192.458 E27.73967
G1 X107.329 Y192.035 E27.81436
G1 X106.973 Y191.739 E27.86364
G1 X106.458 Y191.269 E27.93784
G1 X106.13 Y190.941 E27.98721
G1 X105.659 Y190.424 E28.06165
G1 X105.364 Y190.069 E28.11078
G1 X104.944 Y189.515 E28.18477
G1 X104.683 Y189.135 E28.23384
G1 X104.308 Y188.53 E28.30959
G1 X104.083 Y188.126 E28.35881
G1 X103.766 Y187.487 E28.43473
G1 X103.58 Y187.064 E28.48391
G1 X103.327 Y186.408 E28.55874
G1 X103.181 Y185.97 E28.60788
G1 X102.996 Y185.321 E28.67971
G1 X102.89 Y184.874 E28.7286
G1 X102.758 Y184.167 E28.80515
G1 X102.694 Y183.707 E28.85458
G1 X102.629 Y183.007 E28.92941
G1 X102.608 Y182.547 E28.97842
G1 X102.6 Y182.2 E29.01536
G1 X102.601 Y117.765 E35.87333
G1 X102.609 Y117.408 E35.91134
G1 X102.629 Y116.983 E35.95662
G1 X102.691 Y116.309 E36.02866
G1 X102.754 Y115.849 E36.07808
G1 X102.893 Y115.111 E36.158
G1 X103 Y114.664 E36.20692
G1 X103.181 Y114.03 E36.2771
G1 X103.327 Y113.592 E36.32624
G1 X103.58 Y112.936 E36.40107
G1 X103.766 Y112.513 E36.45025
G1 X104.083 Y111.874 E36.52617
G1 X104.308 Y111.47 E36.57539
G1 X104.683 Y110.865 E36.65114
G1 X104.944 Y110.485 E36.70021
G1 X105.364 Y109.931 E36.7742
G1 X105.659 Y109.576 E36.82333
G1 X106.13 Y109.059 E36.89777
G1 X106.458 Y108.731 E36.94714
G0 F7500 X107.024 Y109.297
G1 F1500 X107.485 Y108.876 E37.01358
G1 X107.841 Y108.58 E37.06286
G1 X108.341 Y108.202 E37.12957
G1 X108.72 Y107.942 E37.17849
G1 X109.252 Y107.612 E37.24512
G1 X109.655 Y107.387 E37.29424
G1 X110.233 Y107.099 E37.36297
G1 X110.656 Y106.913 E37.41216
G1 X111.238 Y106.688 E37.47857
G1 X111.678 Y106.541 E37.52794
G1 X112.264 Y106.374 E37.59279
G1 X112.711 Y106.268 E37.64169
G1 X113.343 Y106.15 E37.71012
G1 X113.803 Y106.086 E37.75955
G1 X114.43 Y106.028 E37.82657
G1 X114.89 Y106.007 E37.87558
G1 X115.2 Y106 E37.90858
G1 X184.799 Y106 E45.31617
G1 X185.108 Y106.007 E45.34906
G1 X185.569 Y106.028 E45.39818
G1 X186.183 Y106.084 E45.4638
G1 X186.643 Y106.147 E45.51322
G1 X187.303 Y106.271 E45.58469
G1 X187.75 Y106.378 E45.63361
G1 X188.322 Y106.541 E45.69691
G1 X188.762 Y106.688 E45.74629
G1 X189.343 Y106.913 E45.8126
G1 X189.764 Y107.098 E45.86154
G1 X190.342 Y107.385 E45.93023
G1 X190.747 Y107.611 E45.97959
G1 X191.28 Y107.942 E46.04637
G1 X191.659 Y108.202 E46.09529
G1 X192.158 Y108.579 E46.16185
G1 X192.513 Y108.874 E46.21098
G1 X192.975 Y109.296 E46.27757
G1 X193.303 Y109.624 E46.32694
G1 X193.724 Y110.085 E46.39339
G1 X194.02 Y110.441 E46.44267
G1 X194.398 Y110.941 E46.50938
G1 X194.658 Y111.32 E46.5583
G1 X194.988 Y111.852 E46.62493
G1 X195.213 Y112.255 E46.67405
G1 X195.501 Y112.833 E46.74278
G1 X195.687 Y113.256 E46.79196
G1 X195.91 Y113.834 E46.8579
G1 X196.057 Y114.273 E46.90717
G1 X196.226 Y114.866 E46.9728
G1 X196.332 Y115.314 E47.0218
G1 X196.45 Y115.939 E47.0895
G1 X196.514 Y116.397 E47.13872
G1 X196.572 Y117.029 E47.20626
G1 X196.593 Y117.491 E47.25549
G1 X196.6 Y117.8 E47.28838
G1 X196.599 Y182.235 E54.14636
G1 X196.591 Y182.555 E54.18043
G1 X196.571 Y182.98 E54.22571
G1 X196.516 Y183.583 E54.29015
G1 X196.453 Y184.043 E54.33957
G1 X196.329 Y184.703 E54.41104
G1 X196.222 Y185.15 E54.45996
G1 X196.06 Y185.717 E54.52273
G1 X195.914 Y186.155 E54.57187
G1 X195.688 Y186.742 E54.63881
G1 X195.502 Y187.165 E54.68799
G1 X195.218 Y187.737 E54.75596
G1 X194.993 Y188.141 E54.80518
G1 X194.657 Y188.682 E54.87296
G1 X194.396 Y189.062 E54.92203
G1 X194.021 Y189.558 E54.98821
G1 X193.726 Y189.913 E55.03733
G1 X193.304 Y190.375 E55.10393
G1 X192.976 Y190.703 E55.1533
G1 X192.515 Y191.124 E55.21975
G1 X192.159 Y191.42 E55.26902
G1 X191.659 Y191.798 E55.33574
G1 X191.28 Y192.058 E55.38465
G1 X190.748 Y192.388 E55.45128
G1 X190.345 Y192.613 E55.50041
G1 X189.767 Y192.901 E55.56914
G1 X189.344 Y193.087 E55.61832
G1 X188.762 Y193.312 E55.68473
G1 X188.322 Y193.459 E55.73411
G1 X187.736 Y193.626 E55.79896
G1 X187.289 Y193.732 E55.84785
G1 X186.657 Y193.85 E55.91628
G1 X186.197 Y193.914 E55.96571
G1 X185.57 Y193.972 E56.03273
G1 X185.11 Y193.993 E56.08174
G1 X184.8 Y194 E56.11474
G1 X115.165 Y193.999 E63.52617
G1 X114.845 Y193.991 E63.56023
G1 X114.42 Y193.971 E63.60552
G1 X113.817 Y193.916 E63.66996
G1 X113.357 Y193.853 E63.71938
G1 X112.697 Y193.729 E63.79085
G1 X112.25 Y193.622 E63.83977
G1 X111.678 Y193.459 E63.90308
G1 X111.238 Y193.312 E63.95245
G1 X110.656 Y193.087 E64.01886
G1 X110.233 Y192.901 E64.06804
G1 X109.655 Y192.613 E64.13678
G1 X109.252 Y192.388 E64.1859
G1 X108.72 Y192.058 E64.25253
G1 X108.341 Y191.798 E64.30145
G1 X107.841 Y191.42 E64.36816
G1 X107.485 Y191.124 E64.41744
G1 X107.024 Y190.703 E64.48388
G1 X106.696 Y190.375 E64.53325
G1 X106.274 Y189.913 E64.59985
G1 X105.979 Y189.558 E64.64898
G1 X105.604 Y189.062 E64.71516
G1 X105.343 Y188.682 E64.76422
G1 X105.007 Y188.141 E64.832
G1 X104.782 Y187.737 E64.88122
G1 X104.498 Y187.165 E64.94919
G1 X104.312 Y186.742 E64.99837
G1 X104.086 Y186.155 E65.06532
G1 X103.94 Y185.717 E65.11446
G1 X103.774 Y185.136 E65.17877
G1 X103.668 Y184.689 E65.22766
G1 X103.55 Y184.057 E65.29609
G1 X103.486 Y183.597 E65.34552
G1 X103.428 Y182.97 E65.41254
G1 X103.407 Y182.51 E65.46155
G1 X103.4 Y182.2 E65.49455
G1 X103.401 Y117.765 E72.35253
G1 X103.409 Y117.445 E72.3866
G1 X103.429 Y117.02 E72.43188
G1 X103.484 Y116.417 E72.49633
G1 X103.547 Y115.957 E72.54574
G1 X103.671 Y115.297 E72.61722
G1 X103.778 Y114.85 E72.66613
G1 X103.94 Y114.283 E72.7289
G1 X104.086 Y113.845 E72.77804
G1 X104.312 Y113.258 E72.84498
G1 X104.498 Y112.835 E72.89416
G1 X104.782 Y112.263 E72.96213
G1 X105.007 Y111.859 E73.01135
G1 X105.343 Y111.318 E73.07913
G1 X105.604 Y110.938 E73.1282
G1 X105.979 Y110.442 E73.19438
G1 X106.274 Y110.087 E73.2435
G1 X106.696 Y109.625 E73.3101
G1 X107.024 Y109.297 E73.35947
G0 F7500 X107.589 Y109.862
G1 F1500 X107.996 Y109.491 E73.41809
G1 X108.352 Y109.195 E73.46736
G1 X108.794 Y108.861 E73.52633
G1 X109.173 Y108.601 E73.57524
G1 X109.642 Y108.31 E73.63399
G1 X110.045 Y108.085 E73.68311
G1 X110.555 Y107.832 E73.74371
G1 X110.978 Y107.646 E73.79289
G1 X111.492 Y107.447 E73.85155
G1 X111.932 Y107.3 E73.90092
G1 X112.449 Y107.153 E73.95813
G1 X112.896 Y107.047 E74.00703
G1 X113.453 Y106.942 E74.06735
G1 X113.913 Y106.878 E74.11678
G1 X114.466 Y106.827 E74.17589
G1 X114.926 Y106.806 E74.2249
G1 X115.2 Y106.8 E74.25407
G1 X184.799 Y106.8 E81.66166
G1 X185.072 Y106.806 E81.69072
G1 X185.533 Y106.827 E81.73984
G1 X186.074 Y106.876 E81.79765
G1 X186.534 Y106.939 E81.84707
G1 X187.117 Y107.049 E81.91022
G1 X187.564 Y107.156 E81.95914
G1 X188.068 Y107.3 E82.01492
G1 X188.508 Y107.447 E82.0643
G1 X189.021 Y107.645 E82.12282
G1 X189.442 Y107.83 E82.17177
G1 X189.952 Y108.084 E82.23241
G1 X190.357 Y108.31 E82.28177
G1 X190.827 Y108.601 E82.3406
G1 X191.206 Y108.861 E82.38952
G1 X191.647 Y109.194 E82.44834
G1 X192.002 Y109.489 E82.49746
G1 X192.41 Y109.861 E82.55623
G1 X192.738 Y110.189 E82.6056
G1 X193.109 Y110.596 E82.66421
G1 X193.405 Y110.952 E82.71349
G1 X193.739 Y111.394 E82.77245
G1 X193.999 Y111.773 E82.82137
G1 X194.29 Y112.242 E82.88011
G1 X194.515 Y112.645 E82.92924
G1 X194.768 Y113.155 E82.98983
G1 X194.954 Y113.578 E83.03901
G1 X195.152 Y114.088 E83.09724
G1 X195.299 Y114.527 E83.14651
G1 X195.448 Y115.051 E83.2045
G1 X195.554 Y115.499 E83.25349
G1 X195.657 Y116.05 E83.31315
G1 X195.721 Y116.508 E83.36237
G1 X195.773 Y117.066 E83.42202
G1 X195.794 Y117.528 E83.47124
G1 X195.8 Y117.8 E83.5002
G1 X195.799 Y182.235 E90.35817
G1 X195.792 Y182.517 E90.3882
G1 X195.772 Y182.942 E90.43348
G1 X195.724 Y183.474 E90.49033
G1 X195.661 Y183.934 E90.53975
G1 X195.551 Y184.517 E90.60289
G1 X195.444 Y184.964 E90.65181
G1 X195.301 Y185.464 E90.70716
G1 X195.155 Y185.902 E90.7563
G1 X194.955 Y186.42 E90.8154
G1 X194.769 Y186.843 E90.86458
G1 X194.519 Y187.347 E90.92446
G1 X194.294 Y187.751 E90.97368
G1 X193.998 Y188.229 E91.03352
G1 X193.737 Y188.609 E91.08258
G1 X193.406 Y189.047 E91.14101
G1 X193.111 Y189.402 E91.19014
G1 X192.739 Y189.81 E91.2489
G1 X192.411 Y190.138 E91.29827
G1 X192.004 Y190.509 E91.35689
G1 X191.648 Y190.805 E91.40617
G1 X191.206 Y191.139 E91.46513
G1 X190.827 Y191.399 E91.51405
G1 X190.358 Y191.69 E91.57279
G1 X189.955 Y191.915 E91.62192
G1 X189.445 Y192.168 E91.68251
G1 X189.022 Y192.354 E91.73169
G1 X188.508 Y192.553 E91.79035
G1 X188.068 Y192.7 E91.83973
G1 X187.551 Y192.847 E91.89693
G1 X187.104 Y192.953 E91.94583
G1 X186.547 Y193.058 E92.00616
G1 X186.087 Y193.122 E92.05559
G1 X185.534 Y193.173 E92.11469
G1 X185.074 Y193.194 E92.1637
G1 X184.8 Y193.2 E92.19287
G1 X115.165 Y193.199 E99.60429
G1 X114.883 Y193.192 E99.63432
G1 X114.458 Y193.172 E99.6796
G1 X113.926 Y193.124 E99.73645
G1 X113.466 Y193.061 E99.78587
G1 X112.883 Y192.951 E99.84901
G1 X112.436 Y192.844 E99.89793
G1 X111.932 Y192.7 E99.95372
G1 X111.492 Y192.553 E100.0031
G1 X110.978 Y192.354 E100.06176
G1 X110.555 Y192.168 E100.11094
G1 X110.045 Y191.915 E100.17153
G1 X109.642 Y191.69 E100.22066
G1 X109.173 Y191.399 E100.2794
G1 X108.794 Y191.139 E100.32832
G1 X108.352 Y190.805 E100.38728
G1 X107.996 Y190.509 E100.43656
G1 X107.589 Y190.138 E100.49518
G1 X107.261 Y189.81 E100.54455
G1 X106.889 Y189.402 E100.60331
G1 X106.594 Y189.047 E100.65244
G1 X106.263 Y188.609 E100.71087
G1 X106.002 Y188.229 E100.75993
G1 X105.706 Y187.751 E100.81977
G1 X105.481 Y187.347 E100.86899
G1 X105.231 Y186.843 E100.92887
G1 X105.045 Y186.42 E100.97805
G1 X104.845 Y185.902 E101.03715
G1 X104.699 Y185.464 E101.08629
G1 X104.553 Y184.951 E101.14306
G1 X104.447 Y184.504 E101.19195
G1 X104.342 Y183.947 E101.25228
G1 X104.278 Y183.487 E101.30171
G1 X104.227 Y182.934 E101.36081
G1 X104.206 Y182.474 E101.40982
G1 X104.2 Y182.2 E101.43899
G1 X104.201 Y117.765 E108.29697
G1 X104.208 Y117.483 E108.32699
G1 X104.228 Y117.058 E108.37227
G1 X104.276 Y116.526 E108.42913
G1 X104.339 Y116.066 E108.47854
G1 X104.449 Y115.483 E108.54169
G1 X104.556 Y115.036 E108.59061
G1 X104.699 Y114.536 E108.64596
G1 X104.845 Y114.098 E108.6951
G1 X105.045 Y113.58 E108.75419
G1 X105.231 Y113.157 E108.80338
G1 X105.481 Y112.653 E108.86325
G1 X105.706 Y112.249 E108.91247
G1 X106.002 Y111.771 E108.97231
G1 X106.263 Y111.391 E109.02138
G1 X106.594 Y110.953 E109.07981
G1 X106.889 Y110.598 E109.12893
G1 X107.261 Y110.19 E109.1877
G1 X107.589 Y109.862 E109.23707
G0 F7500 X108.155 Y110.428
G1 F1500 X108.507 Y110.107 E109.28777
G1 X108.863 Y109.811 E109.33705
G1 X109.246 Y109.521 E109.38818
G1 X109.625 Y109.261 E109.4371
G1 X110.032 Y109.009 E109.48805
G1 X110.435 Y108.784 E109.53717
G1 X110.877 Y108.564 E109.58972
G1 X111.3 Y108.378 E109.6389
G1 X111.745 Y108.206 E109.68968
G1 X112.185 Y108.059 E109.73905
G1 X112.633 Y107.931 E109.78864
G1 X113.08 Y107.825 E109.83754
G1 X113.563 Y107.735 E109.88983
G1 X114.023 Y107.671 E109.93926
G1 X114.503 Y107.626 E109.99057
G1 X114.963 Y107.605 E110.03958
G1 X115.2 Y107.6 E110.06481
G1 X184.799 Y107.6 E117.4724
G1 X185.036 Y107.605 E117.49763
G1 X185.497 Y107.626 E117.54675
G1 X185.966 Y107.669 E117.59687
G1 X186.426 Y107.732 E117.64629
G1 X186.931 Y107.827 E117.70098
G1 X187.378 Y107.934 E117.7499
G1 X187.815 Y108.059 E117.79828
G1 X188.255 Y108.206 E117.84765
G1 X188.699 Y108.377 E117.89829
G1 X189.12 Y108.562 E117.94723
G1 X189.562 Y108.782 E117.99978
G1 X189.967 Y109.008 E118.04914
G1 X190.375 Y109.261 E118.10024
G1 X190.754 Y109.521 E118.14916
G1 X191.135 Y109.81 E118.20005
G1 X191.49 Y110.105 E118.24918
G1 X191.844 Y110.427 E118.30011
G1 X192.172 Y110.755 E118.34948
G1 X192.493 Y111.107 E118.40019
G1 X192.789 Y111.463 E118.44946
G1 X193.079 Y111.846 E118.50059
G1 X193.339 Y112.225 E118.54951
G1 X193.591 Y112.632 E118.60046
G1 X193.816 Y113.035 E118.64958
G1 X194.036 Y113.477 E118.70213
G1 X194.222 Y113.9 E118.75131
G1 X194.393 Y114.342 E118.80175
G1 X194.54 Y114.781 E118.85103
G1 X194.669 Y115.235 E118.90126
G1 X194.775 Y115.683 E118.95026
G1 X194.865 Y116.16 E119.00192
G1 X194.929 Y116.618 E119.05114
G1 X194.974 Y117.102 E119.10288
G1 X194.995 Y117.564 E119.1521
G1 X195 Y117.8 E119.17722
G1 X194.999 Y182.235 E126.0352
G1 X194.993 Y182.479 E126.06118
G1 X194.973 Y182.904 E126.10646
G1 X194.931 Y183.366 E126.15583
G1 X194.868 Y183.826 E126.20525
G1 X194.773 Y184.331 E126.25994
G1 X194.666 Y184.778 E126.30886
G1 X194.542 Y185.211 E126.3568
G1 X194.396 Y185.649 E126.40594
G1 X194.223 Y186.098 E126.45715
G1 X194.037 Y186.521 E126.50633
G1 X193.82 Y186.958 E126.55826
G1 X193.595 Y187.362 E126.60748
G1 X193.338 Y187.776 E126.65934
G1 X193.077 Y188.156 E126.70841
G1 X192.79 Y188.535 E126.759
G1 X192.495 Y188.89 E126.80813
G1 X192.173 Y189.244 E126.85906
G1 X191.845 Y189.572 E126.90843
G1 X191.493 Y189.893 E126.95914
