;FLAVOR:Marlin
;TIME:10123
;Filament used: 40.8058m
;Layer height: 0.32
;MINX:119.435
;MINY:82.934
;MINZ:0.32
;MAXX:180.565
;MAXY:217.065
;MAXZ:30.08
;Generated with Cura_SteamEngine master
M140 S90
M105
M190 S90
M104 S240
M105
M109 S240
M82 ;absolute extrusion mode
G28 ;Home
G1 Z15.0 F2000 ;Move the platform
G92 E0
G92 E0
G1 F1500 E-4
;LAYER_COUNT:94
;LAYER:0
M107 P2
G0 F7500 X121.375 Y104.41 Z0.32
;TYPE:SKIRT
G1 F1500 E0
G1 X122.131 Y103.582 E0.11933
G1 X126.488 Y99.469 E0.75704
G1 X127.541 Y98.482 E0.91065
G1 X139.771 Y86.989 E2.69688
G1 X140.047 Y86.742 E2.73631
G1 X140.381 Y86.46 E2.78283
G1 X140.812 Y86.11 E2.84192
G1 X141.271 Y85.766 E2.90297
G1 X141.725 Y85.451 E2.96178
G1 X142.288 Y85.1 E3.0324
G1 X142.679 Y84.867 E3.08084
G1 X143.21 Y84.582 E3.14498
G1 X143.707 Y84.34 E3.20382
G1 X144.221 Y84.113 E3.26362
G1 X144.738 Y83.907 E3.32285
G1 X145.292 Y83.711 E3.3854
G1 X145.822 Y83.546 E3.44448
G1 X146.361 Y83.399 E3.50394
G1 X146.899 Y83.274 E3.56273
G1 X147.474 Y83.164 E3.62503
G1 X148.025 Y83.08 E3.68436
G1 X148.58 Y83.016 E3.74382
G1 X149.132 Y82.973 E3.80275
G1 X149.363 Y82.958 E3.82738
G1 X149.617 Y82.946 E3.85445
G1 X149.975 Y82.938 E3.89256
G1 X164.751 Y82.937 E5.46521
G1 X171.685 Y82.951 E6.20321
G1 X172.094 Y82.934 E6.24678
G1 X172.872 Y82.982 E6.32974
G1 X173.641 Y83.109 E6.4127
G1 X174.313 Y83.288 E6.48671
G1 X174.71 Y83.414 E6.53104
G1 X174.922 Y83.485 E6.55484
G1 X175.647 Y83.771 E6.63779
G1 X176.626 Y84.305 E6.75648
G1 X176.702 Y84.354 E6.7661
G1 X177.335 Y84.809 E6.84907
G1 X177.917 Y85.327 E6.932
G1 X178.528 Y86.004 E7.02906
G1 X178.787 Y86.329 E7.07329
G1 X179.24 Y86.963 E7.15622
G1 X179.627 Y87.64 E7.23922
G1 X179.942 Y88.353 E7.32218
G1 X180.148 Y88.97 E7.39141
G1 X180.255 Y89.343 E7.43271
G1 X180.432 Y90.103 E7.51577
G1 X180.529 Y90.876 E7.59869
G1 X180.542 Y91.5 E7.66511
G1 X180.548 Y91.5 E7.66575
G1 X180.548 Y97.275 E8.2804
G1 X180.513 Y97.95 E8.35234
G1 X180.547 Y98.456 E8.40631
G1 X180.565 Y105.88 E9.19647
G1 X180.561 Y106.966 E9.31206
G1 X180.561 Y200.037 E19.21783
G1 X180.564 Y201.138 E19.33501
G1 X180.548 Y208.516 E20.12027
G1 X180.53 Y209.019 E20.17384
G1 X180.512 Y209.282 E20.2019
G1 X180.419 Y210.056 E20.28487
G1 X180.247 Y210.816 E20.36781
G1 X179.9 Y211.793 E20.47815
G1 X179.64 Y212.335 E20.54213
G1 X179.499 Y212.602 E20.57427
G1 X179.101 Y213.272 E20.65721
G1 X178.635 Y213.897 E20.74019
G1 X178.177 Y214.403 E20.81283
G1 X177.952 Y214.63 E20.84685
G1 X177.375 Y215.155 E20.92987
G1 X176.748 Y215.618 E21.01283
G1 X176.017 Y216.045 E21.10293
G1 X175.724 Y216.195 E21.13797
G1 X175.013 Y216.514 E21.22091
G1 X174.273 Y216.759 E21.30387
G1 X173.512 Y216.926 E21.38679
G1 X172.755 Y217.014 E21.46791
G1 X172.494 Y217.031 E21.49574
G1 X172.02 Y217.047 E21.54622
G1 X165.142 Y217.065 E22.27827
G1 X164.137 Y217.061 E22.38523
G1 X132.87 Y217.061 E25.71305
G1 X132.185 Y217.064 E25.78596
G1 X128.328 Y217.049 E26.19647
G1 X128.09 Y217.065 E26.22186
G1 X127.311 Y217.037 E26.30483
G1 X126.539 Y216.928 E26.38781
G1 X125.687 Y216.712 E26.48136
G1 X125.29 Y216.586 E26.52569
G1 X125.078 Y216.515 E26.54948
G1 X124.353 Y216.229 E26.63243
G1 X123.374 Y215.695 E26.75112
G1 X123.298 Y215.646 E26.76075
G1 X122.665 Y215.191 E26.84372
G1 X122.083 Y214.673 E26.92664
G1 X121.472 Y213.996 E27.0237
G1 X121.213 Y213.671 E27.06794
G1 X120.76 Y213.037 E27.15087
G1 X120.373 Y212.36 E27.23386
G1 X120.058 Y211.647 E27.31683
G1 X119.852 Y211.03 E27.38606
G1 X119.745 Y210.657 E27.42736
G1 X119.568 Y209.897 E27.51041
G1 X119.471 Y209.124 E27.59333
G1 X119.458 Y208.518 E27.65784
G1 X119.452 Y208.518 E27.65848
G1 X119.435 Y201.301 E28.42661
G1 X119.439 Y200.246 E28.53889
G1 X119.439 Y118.023 E37.29009
G1 X119.436 Y116.952 E37.40408
G1 X119.452 Y109.782 E38.1672
G1 X119.494 Y109.004 E38.25013
G1 X119.566 Y108.485 E38.30589
G1 X119.599 Y108.297 E38.32621
G1 X119.716 Y107.751 E38.38564
G1 X119.767 Y107.549 E38.40781
G1 X119.997 Y106.804 E38.4908
G1 X120.301 Y106.086 E38.57378
G1 X120.812 Y105.193 E38.68329
G1 X120.944 Y104.995 E38.70862
G1 X121.294 Y104.513 E38.77201
G1 X121.375 Y104.41 E38.78596
G0 F7500 X122.004 Y104.905
G1 F1500 X122.681 Y104.164 E38.89279
G1 X127.035 Y100.053 E39.53012
G1 X128.089 Y99.065 E39.68388
G1 X140.319 Y87.572 E41.47011
G1 X140.566 Y87.351 E41.50539
G1 X140.885 Y87.081 E41.54987
G1 X141.316 Y86.731 E41.60896
G1 X141.727 Y86.423 E41.66362
G1 X142.181 Y86.108 E41.72243
G1 X142.749 Y85.754 E41.79367
G1 X143.085 Y85.557 E41.83512
G1 X143.56 Y85.301 E41.89255
G1 X144.057 Y85.059 E41.95139
G1 X144.517 Y84.856 E42.0049
G1 X145.034 Y84.65 E42.06413
G1 X145.53 Y84.474 E42.12015
G1 X146.06 Y84.309 E42.17923
G1 X146.542 Y84.178 E42.23239
G1 X147.08 Y84.053 E42.29118
G1 X147.594 Y83.955 E42.34687
G1 X148.145 Y83.871 E42.40619
G1 X148.642 Y83.814 E42.45943
G1 X149.194 Y83.771 E42.51836
G1 X149.401 Y83.758 E42.54044
G1 X149.655 Y83.746 E42.5675
G1 X149.976 Y83.738 E42.60168
G1 X164.749 Y83.737 E44.174
G1 X171.574 Y83.751 E44.90041
G1 X171.628 Y83.745 E44.90619
G1 X172.366 Y83.743 E44.98474
G1 X173.099 Y83.82 E45.06318
G1 X174.072 Y84.051 E45.16962
G1 X174.455 Y84.173 E45.2124
G1 X174.667 Y84.244 E45.2362
G1 X175.353 Y84.516 E45.31474
G1 X176.193 Y84.977 E45.41672
G1 X176.269 Y85.026 E45.42634
G1 X176.866 Y85.458 E45.50478
G1 X177.413 Y85.953 E45.58329
G1 X177.902 Y86.503 E45.66162
G1 X178.161 Y86.828 E45.70585
G1 X178.588 Y87.429 E45.78432
G1 X178.948 Y88.072 E45.86275
G1 X179.237 Y88.751 E45.94129
G1 X179.379 Y89.191 E45.9905
G1 X179.486 Y89.564 E46.0318
G1 X179.651 Y90.283 E46.11032
G1 X179.737 Y91.015 E46.18876
G1 X179.744 Y91.5 E46.24039
G1 X179.748 Y97.275 E46.85503
G1 X179.709 Y97.988 E46.93103
G1 X179.747 Y98.458 E46.98122
G1 X179.765 Y105.877 E47.77084
G1 X179.761 Y106.963 E47.88643
G1 X179.761 Y200.037 E57.79252
G1 X179.764 Y201.137 E57.9096
G1 X179.748 Y208.515 E58.69486
G1 X179.732 Y208.964 E58.74268
G1 X179.714 Y209.227 E58.77073
G1 X179.624 Y209.959 E58.84923
G1 X179.455 Y210.677 E58.92774
G1 X179.166 Y211.474 E59.01797
G1 X178.933 Y211.961 E59.07543
G1 X178.792 Y212.228 E59.10756
G1 X178.413 Y212.861 E59.18609
G1 X177.968 Y213.448 E59.26449
G1 X177.609 Y213.84 E59.32106
G1 X177.384 Y214.067 E59.35508
G1 X176.837 Y214.562 E59.4336
G1 X176.24 Y214.994 E59.51203
G1 X175.653 Y215.333 E59.58417
G1 X175.36 Y215.483 E59.61921
G1 X174.686 Y215.783 E59.69773
G1 X173.984 Y216.008 E59.77619
G1 X173.262 Y216.156 E59.85463
G1 X172.703 Y216.216 E59.91447
G1 X172.442 Y216.233 E59.9423
G1 X172.018 Y216.247 E59.98746
G1 X165.145 Y216.265 E60.71897
G1 X164.14 Y216.261 E60.82593
G1 X132.866 Y216.261 E64.1545
G1 X132.188 Y216.264 E64.22666
G1 X128.315 Y216.249 E64.63888
G1 X127.799 Y216.264 E64.69382
G1 X127.064 Y216.204 E64.77231
G1 X126.34 Y216.065 E64.85077
G1 X125.928 Y215.949 E64.89633
G1 X125.545 Y215.827 E64.93911
G1 X125.333 Y215.756 E64.96291
G1 X124.647 Y215.484 E65.04145
G1 X123.807 Y215.023 E65.14343
G1 X123.731 Y214.974 E65.15306
G1 X123.134 Y214.542 E65.23149
G1 X122.587 Y214.047 E65.31
G1 X122.098 Y213.497 E65.38833
G1 X121.839 Y213.172 E65.43256
G1 X121.412 Y212.571 E65.51103
G1 X121.052 Y211.928 E65.58946
G1 X120.763 Y211.249 E65.668
G1 X120.621 Y210.809 E65.71721
G1 X120.514 Y210.436 E65.75851
G1 X120.349 Y209.717 E65.83703
G1 X120.263 Y208.985 E65.91547
G1 X120.256 Y208.516 E65.96539
G1 X120.235 Y201.346 E66.72852
G1 X120.239 Y200.249 E66.84528
G1 X120.239 Y118.023 E75.59679
G1 X120.236 Y116.954 E75.71057
G1 X120.252 Y109.784 E76.47369
G1 X120.294 Y109.048 E76.55215
G1 X120.354 Y108.623 E76.59783
G1 X120.387 Y108.435 E76.61815
G1 X120.492 Y107.946 E76.67138
G1 X120.543 Y107.744 E76.69355
G1 X120.762 Y107.04 E76.77202
G1 X121.056 Y106.364 E76.85048
G1 X121.478 Y105.637 E76.93995
G1 X121.61 Y105.439 E76.96528
G1 X121.923 Y105.008 E77.02197
G1 X122.004 Y104.905 E77.03591
G0 F7500 X122.633 Y105.399
G1 F1500 X123.23 Y104.745 E77.13016
G1 X127.582 Y100.636 E77.76719
G1 X128.644 Y99.641 E77.92208
G1 X140.867 Y88.155 E79.70726
G1 X141.085 Y87.96 E79.73839
G1 X141.39 Y87.702 E79.78091
G1 X141.821 Y87.352 E79.84
G1 X142.183 Y87.08 E79.88819
G1 X142.637 Y86.765 E79.94701
G1 X143.138 Y86.453 E80.00982
G1 X143.491 Y86.246 E80.05338
G1 X143.91 Y86.021 E80.104
G1 X144.407 Y85.779 E80.16283
G1 X144.813 Y85.599 E80.2101
G1 X145.33 Y85.393 E80.26933
G1 X145.768 Y85.238 E80.31878
G1 X146.298 Y85.073 E80.37786
G1 X146.723 Y84.958 E80.42472
G1 X147.261 Y84.833 E80.48351
G1 X147.715 Y84.746 E80.53271
G1 X148.266 Y84.662 E80.59203
G1 X148.704 Y84.611 E80.63896
G1 X149.256 Y84.568 E80.69789
G1 X149.693 Y84.545 E80.74447
G1 X149.976 Y84.538 E80.77459
G1 X164.747 Y84.537 E82.34671
G1 X171.705 Y84.551 E83.08727
G1 X171.927 Y84.535 E83.11096
G1 X172.619 Y84.564 E83.18467
G1 X173.303 Y84.672 E83.25837
G1 X173.831 Y84.813 E83.31654
G1 X174.201 Y84.932 E83.35791
G1 X174.413 Y85.003 E83.3817
G1 X175.056 Y85.26 E83.4554
G1 X175.759 Y85.649 E83.54091
G1 X175.835 Y85.698 E83.55054
G1 X176.395 Y86.106 E83.62428
G1 X176.903 Y86.576 E83.69794
G1 X177.276 Y87.002 E83.75821
G1 X177.535 Y87.327 E83.80244
G1 X177.935 Y87.892 E83.87612
G1 X178.267 Y88.5 E83.94985
G1 X178.61 Y89.412 E84.05355
G1 X178.717 Y89.785 E84.09485
G1 X178.87 Y90.46 E84.16851
G1 X178.943 Y91.149 E84.24226
G1 X178.946 Y91.5 E84.27962
G1 X178.948 Y97.275 E84.89426
G1 X178.912 Y97.895 E84.96036
G1 X178.933 Y98.058 E84.97785
G1 X178.947 Y98.46 E85.02067
G1 X178.965 Y105.874 E85.80976
G1 X178.961 Y106.96 E85.92534
G1 X178.961 Y200.037 E95.83176
G1 X178.964 Y201.135 E95.94862
G1 X178.948 Y208.513 E96.73388
G1 X178.934 Y208.91 E96.77616
G1 X178.916 Y209.173 E96.80422
G1 X178.829 Y209.86 E96.87792
G1 X178.663 Y210.532 E96.95159
G1 X178.422 Y211.178 E97.02498
G1 X178.226 Y211.588 E97.07334
G1 X178.085 Y211.855 E97.10548
G1 X177.726 Y212.448 E97.17926
G1 X177.302 Y212.995 E97.25292
G1 X177.04 Y213.277 E97.29389
G1 X176.815 Y213.504 E97.32791
G1 X176.3 Y213.967 E97.40161
G1 X175.735 Y214.367 E97.47529
G1 X175.288 Y214.621 E97.53001
G1 X174.995 Y214.771 E97.56505
G1 X174.362 Y215.05 E97.63867
G1 X173.7 Y215.255 E97.71243
G1 X173.019 Y215.382 E97.78616
G1 X172.651 Y215.417 E97.8255
G1 X172.39 Y215.434 E97.85334
G1 X172.016 Y215.447 E97.89317
G1 X165.148 Y215.465 E98.62415
G1 X164.143 Y215.461 E98.73112
G1 X132.862 Y215.461 E102.06043
G1 X132.191 Y215.464 E102.13185
G1 X128.338 Y215.449 E102.54194
G1 X128.218 Y215.461 E102.55477
G1 X127.526 Y215.449 E102.62843
G1 X126.84 Y215.357 E102.7021
G1 X126.169 Y215.187 E102.77577
G1 X125.799 Y215.068 E102.81714
G1 X125.587 Y214.997 E102.84093
G1 X124.944 Y214.74 E102.91463
G1 X124.241 Y214.351 E103.00015
G1 X124.165 Y214.302 E103.00977
G1 X123.605 Y213.894 E103.08351
G1 X123.097 Y213.424 E103.15717
G1 X122.724 Y212.998 E103.21744
G1 X122.465 Y212.673 E103.26167
G1 X122.065 Y212.108 E103.33535
G1 X121.733 Y211.5 E103.40908
G1 X121.39 Y210.588 E103.51278
G1 X121.283 Y210.215 E103.55408
G1 X121.13 Y209.54 E103.62775
G1 X121.057 Y208.851 E103.70149
G1 X121.054 Y208.514 E103.73736
G1 X121.035 Y201.344 E104.50048
G1 X121.039 Y200.252 E104.61671
G1 X121.039 Y118.023 E113.36854
G1 X121.036 Y116.956 E113.4821
G1 X121.052 Y109.786 E114.24523
G1 X121.142 Y108.762 E114.35463
G1 X121.175 Y108.574 E114.37495
G1 X121.268 Y108.142 E114.42198
G1 X121.319 Y107.94 E114.44415
G1 X121.527 Y107.28 E114.51781
G1 X121.809 Y106.647 E114.59156
G1 X122.144 Y106.081 E114.66156
G1 X122.276 Y105.883 E114.68689
G1 X122.552 Y105.502 E114.73696
G1 X122.633 Y105.399 E114.75091
G0 F7500 X123.262 Y105.894
G1 F1500 X123.779 Y105.327 E114.83258
G1 X128.129 Y101.22 E115.4693
G1 X129.191 Y100.225 E115.62419
G1 X141.415 Y88.738 E117.40952
G1 X141.604 Y88.569 E117.43651
G1 X141.894 Y88.323 E117.47698
G1 X142.325 Y87.973 E117.53608
G1 X142.639 Y87.738 E117.57782
G1 X143.093 Y87.423 E117.63663
G1 X143.527 Y87.152 E117.69109
G1 X143.897 Y86.935 E117.73674
G1 X144.261 Y86.74 E117.78069
G1 X144.758 Y86.498 E117.83953
G1 X145.109 Y86.342 E117.88041
G1 X145.626 Y86.136 E117.93964
G1 X146.005 Y86.002 E117.98243
G1 X146.535 Y85.837 E118.04151
G1 X146.904 Y85.737 E118.0822
G1 X147.442 Y85.612 E118.14098
G1 X147.835 Y85.536 E118.18358
G1 X148.386 Y85.452 E118.24291
G1 X148.766 Y85.409 E118.28361
G1 X149.318 Y85.366 E118.34254
G1 X149.477 Y85.356 E118.35949
G1 X149.731 Y85.344 E118.38656
G1 X149.976 Y85.338 E118.41264
G1 X164.746 Y85.337 E119.98465
G1 X171.665 Y85.351 E120.72106
G1 X172.207 Y85.337 E120.77876
G1 X172.848 Y85.4 E120.84731
G1 X173.589 Y85.576 E120.92837
G1 X173.947 Y85.69 E120.96836
G1 X174.159 Y85.761 E120.99216
G1 X174.757 Y86.003 E121.06082
G1 X175.326 Y86.322 E121.13025
G1 X175.402 Y86.371 E121.13987
G1 X175.921 Y86.753 E121.20846
G1 X176.389 Y87.196 E121.27705
G1 X176.651 Y87.5 E121.31976
G1 X176.91 Y87.825 E121.36399
G1 X177.279 Y88.353 E121.43255
G1 X177.581 Y88.923 E121.50121
G1 X177.841 Y89.632 E121.58158
G1 X177.948 Y90.005 E121.62288
G1 X178.087 Y90.635 E121.69155
G1 X178.147 Y91.277 E121.76017
G1 X178.148 Y97.275 E122.39855
G1 X178.109 Y97.907 E122.46595
G1 X178.129 Y98.048 E122.4811
G1 X178.147 Y98.462 E122.52521
G1 X178.165 Y105.871 E123.31377
G1 X178.161 Y106.957 E123.42936
G1 X178.161 Y200.037 E133.33609
G1 X178.164 Y201.133 E133.45274
G1 X178.148 Y208.511 E134.238
G1 X178.136 Y208.855 E134.27463
G1 X178.118 Y209.118 E134.30269
G1 X178.034 Y209.757 E134.37129
G1 X177.872 Y210.381 E134.4399
G1 X177.689 Y210.859 E134.49438
G1 X177.518 Y211.214 E134.53631
G1 X177.377 Y211.481 E134.56845
G1 X177.041 Y212.032 E134.63714
G1 X176.472 Y212.714 E134.73167
G1 X176.247 Y212.941 E134.76569
G1 X175.766 Y213.37 E134.83429
G1 X175.235 Y213.735 E134.90287
G1 X174.924 Y213.909 E134.9408
G1 X174.631 Y214.059 E134.97583
G1 X174.04 Y214.316 E135.04442
G1 X173.421 Y214.499 E135.11312
G1 X172.599 Y214.619 E135.20154
G1 X172.338 Y214.636 E135.22937
G1 X172.014 Y214.647 E135.26388
G1 X165.151 Y214.665 E135.99433
G1 X164.146 Y214.661 E136.10129
G1 X132.858 Y214.661 E139.43135
G1 X132.194 Y214.664 E139.50202
G1 X128.25 Y214.649 E139.92179
G1 X127.919 Y214.666 E139.95707
G1 X127.276 Y214.618 E140.0257
G1 X126.411 Y214.424 E140.12005
G1 X126.053 Y214.31 E140.16003
G1 X125.841 Y214.239 E140.18383
G1 X125.243 Y213.997 E140.25249
G1 X124.674 Y213.678 E140.32192
G1 X124.598 Y213.629 E140.33154
G1 X124.079 Y213.247 E140.40013
G1 X123.611 Y212.804 E140.46872
G1 X123.349 Y212.5 E140.51143
G1 X123.09 Y212.175 E140.55566
G1 X122.721 Y211.647 E140.62422
G1 X122.419 Y211.077 E140.69288
G1 X122.159 Y210.368 E140.77325
G1 X122.052 Y209.995 E140.81455
G1 X121.913 Y209.365 E140.88322
G1 X121.853 Y208.723 E140.95185
G1 X121.835 Y201.31 E141.74083
G1 X121.839 Y200.255 E141.85312
G1 X121.839 Y118.023 E150.60527
G1 X121.836 Y116.957 E150.71873
G1 X121.852 Y109.787 E151.48185
G1 X121.93 Y108.9 E151.57662
G1 X121.963 Y108.712 E151.59694
G1 X122.043 Y108.338 E151.63764
G1 X122.094 Y108.136 E151.65982
G1 X122.29 Y107.522 E151.72841
G1 X122.561 Y106.937 E151.79703
G1 X122.809 Y106.525 E151.84821
G1 X122.941 Y106.327 E151.87354
G1 X123.181 Y105.997 E151.91697
G1 X123.262 Y105.894 E151.93092
G0 F7500 X123.89 Y106.388
G1 F1500 X124.328 Y105.909 E152
G1 X128.676 Y101.804 E152.63643
G1 X129.738 Y100.809 E152.79132
G1 X141.963 Y89.321 E154.5768
G1 X142.122 Y89.178 E154.59956
G1 X142.398 Y88.944 E154.63807
G1 X142.829 Y88.594 E154.69716
G1 X143.095 Y88.395 E154.73252
G1 X143.549 Y88.08 E154.79133
G1 X143.916 Y87.851 E154.83737
G1 X144.303 Y87.624 E154.88512
G1 X144.611 Y87.459 E154.92231
G1 X145.108 Y87.217 E154.98115
G1 X145.405 Y87.086 E155.0157
G1 X145.922 Y86.88 E155.07493
G1 X146.243 Y86.766 E155.11118
G1 X146.773 Y86.601 E155.17026
G1 X147.085 Y86.516 E155.20468
G1 X147.623 Y86.391 E155.26347
G1 X147.956 Y86.327 E155.29956
G1 X148.507 Y86.243 E155.35888
G1 X148.828 Y86.206 E155.39327
G1 X149.38 Y86.163 E155.4522
G1 X149.768 Y86.143 E155.49355
G1 X149.976 Y86.138 E155.51569
G1 X164.744 Y86.137 E157.08749
G1 X171.728 Y86.151 E157.83081
G1 X171.87 Y86.137 E157.846
G1 X172.463 Y86.156 E157.90915
G1 X173.047 Y86.255 E157.97219
G1 X173.348 Y86.339 E158.00545
G1 X173.693 Y86.449 E158.04399
G1 X173.905 Y86.52 E158.06779
G1 X174.454 Y86.746 E158.13098
G1 X174.892 Y86.994 E158.18455
