%
(Header)
(Generated by gcodetools from Inkscape.)
(Using default header. To add your own header create file "header" in the output dir.)
M3
(Header end.)
G21 (All units in mm)

(Pass at depth -1.0)
(Start cutting path id: text19774)
(Change tool to Default tool)

G00 Z15.000000
G00 X147.013784 Y114.861269

G01 Z-0.125000 F100.0(Penetrate)
G01 X147.013784 Y93.432892 Z-0.125000 F400.000000
G03 X145.936122 Y96.852142 Z-0.125000 I-23.111726 J-5.404786
G03 X144.917979 Y98.666215 Z-0.125000 I-7.418778 J-2.971016
G03 X143.451766 Y99.984429 Z-0.125000 I-3.798687 J-2.750651
G03 X141.895467 Y100.398870 Z-0.125000 I-1.556299 J-2.714873
G03 X139.743445 Y99.383504 Z-0.125000 I0.000000 J-2.788237
G03 X137.176353 Y94.670497 Z-0.125000 I10.946808 J-9.018163
G03 X135.919613 Y88.856671 Z-0.125000 I30.450842 J-9.625122
G03 X135.365695 Y79.606992 Z-0.125000 I76.951518 J-9.249678
G03 X135.919613 Y70.357314 Z-0.125000 I77.505437 J0.000000
G03 X137.176353 Y64.543487 Z-0.125000 I31.707583 J3.811295
G03 X139.743445 Y59.830481 Z-0.125000 I13.513900 J4.305157
G03 X141.895467 Y58.815115 Z-0.125000 I2.152021 J1.772871
G03 X143.457310 Y59.223639 Z-0.125000 I0.000000 J3.189827
G03 X144.917979 Y60.512411 Z-0.125000 I-2.273909 J4.049336
G03 X145.939517 Y62.358782 Z-0.125000 I-6.733487 J4.931202
G03 X147.013784 Y65.781092 Z-0.125000 I-22.409135 J8.914015
G01 X147.013784 Y59.840553 Z-0.125000
G01 X149.637099 Y59.840553 Z-0.125000
G01 X149.637099 Y114.861269 Z-0.125000
G01 X147.013784 Y114.861269 Z-0.125000
G00 Z15.000000

(Change tool to Default tool)

G00 Z15.000000
G00 X155.120399 Y114.861269

G01 Z-0.125000 F100.0(Penetrate)
G01 X155.120399 Y106.622292 Z-0.125000 F400.000000
G01 X157.743715 Y106.622292 Z-0.125000
G01 X157.743715 Y114.861269 Z-0.125000
G01 X155.120399 Y114.861269 Z-0.125000
G00 Z15.000000

(Change tool to Default tool)

G00 Z15.000000
G00 X2.587444 Y112.633565

G01 Z-0.125000 F100.0(Penetrate)
G01 X2.587444 Y59.840553 Z-0.125000 F400.000000
G01 X5.467388 Y59.840553 Z-0.125000
G01 X5.467388 Y82.152938 Z-0.125000
G01 X8.603961 Y82.152938 Z-0.125000
G02 X10.064959 Y81.723754 Z-0.125000 I0.000000 J-2.701308
G02 X11.298561 Y80.420283 Z-0.125000 I-2.029401 J-3.156096
G02 X12.073485 Y78.603800 Z-0.125000 I-7.186229 J-4.139229
G02 X13.351591 Y73.383570 Z-0.125000 I-58.959854 J-17.202134
G01 X16.074706 Y59.840553 Z-0.125000
G01 X19.168507 Y59.840553 Z-0.125000
G01 X16.245792 Y74.267577 Z-0.125000
G03 X15.248915 Y78.692339 Z-0.125000 I-86.426594 J-17.146816
G03 X14.477906 Y81.268931 Z-0.125000 I-30.038019 J-7.584802
G03 X13.420562 Y83.686269 Z-0.125000 I-15.029814 J-5.134133
G03 X12.681505 Y84.592809 Z-0.125000 I-2.745766 J-1.483959
G03 X14.091642 Y86.127228 Z-0.125000 I-2.942253 J4.119112
G03 X15.390363 Y89.154292 Z-0.125000 I-10.873321 J6.457185
G03 X16.050976 Y92.482110 Z-0.125000 I-19.736477 J5.647411
G03 X16.331335 Y97.428609 Z-0.125000 I-43.496507 J4.946500
G03 X15.744683 Y104.934243 Z-0.125000 I-48.306912 J0.000000
G03 X14.534934 Y108.849996 Z-0.125000 I-14.141828 J-2.224283
G03 X12.135186 Y111.679198 Z-0.125000 I-6.513764 J-3.092677
G03 X9.088703 Y112.633565 Z-0.125000 I-3.046483 J-4.385229
G01 X2.587444 Y112.633565 Z-0.125000
G00 Z15.000000

(Change tool to Default tool)

G00 Z15.000000
G00 X85.082155 Y112.633565

G01 Z-0.125000 F100.0(Penetrate)
G01 X85.082155 Y59.840553 Z-0.125000 F400.000000
G01 X87.876559 Y59.840553 Z-0.125000
G01 X87.876559 Y104.005630 Z-0.125000
G01 X97.314786 Y59.840553 Z-0.125000
G01 X101.192730 Y59.840553 Z-0.125000
G01 X101.192730 Y112.633565 Z-0.125000
G01 X98.398333 Y112.633565 Z-0.125000
G01 X98.398333 Y68.468488 Z-0.125000
G01 X88.960099 Y112.633565 Z-0.125000
G01 X85.082155 Y112.633565 Z-0.125000
G00 Z15.000000

(Change tool to Default tool)

G00 Z15.000000
G00 X55.423010 Y110.688743

G01 Z-0.125000 F100.0(Penetrate)
G01 X55.423010 Y99.444147 Z-0.125000 F400.000000
G01 X53.498295 Y99.444147 Z-0.125000
G01 X53.498295 Y94.387615 Z-0.125000
G01 X55.423010 Y94.387615 Z-0.125000
G01 X55.423010 Y72.888521 Z-0.125000
G03 X55.835278 Y65.543771 Z-0.125000 I65.631176 J0.000000
G03 X56.577839 Y62.634023 Z-0.125000 I10.868378 J1.223963
G03 X58.243858 Y60.605025 Z-0.125000 I4.165998 J1.722230
G03 X60.769441 Y59.840553 Z-0.125000 I2.525583 J3.789647
G01 X63.464042 Y59.840553 Z-0.125000
G01 X63.464042 Y65.286043 Z-0.125000
G01 X60.769441 Y65.286043 Z-0.125000
G02 X59.400128 Y65.682588 Z-0.125000 I0.000000 J2.562465
G02 X58.588097 Y66.665099 Z-0.125000 I1.094733 J1.731602
G02 X58.263936 Y68.081716 Z-0.125000 I4.849880 J1.855182
G02 X58.060583 Y72.888521 Z-0.125000 I56.709131 J4.806804
G01 X58.060583 Y94.387615 Z-0.125000
G01 X63.464042 Y94.387615 Z-0.125000
G01 X63.464042 Y99.444147 Z-0.125000
G01 X58.060583 Y99.444147 Z-0.125000
G01 X58.060583 Y110.688743 Z-0.125000
G01 X55.423010 Y110.688743 Z-0.125000
G00 Z15.000000

(Change tool to Default tool)

G00 Z15.000000
G00 X5.467388 Y106.763742

G01 Z-0.125000 F100.0(Penetrate)
G01 X9.088703 Y106.763742 Z-0.125000 F400.000000
G02 X10.798142 Y106.190697 Z-0.125000 I-0.000000 J-2.836216
G02 X12.225276 Y104.394605 Z-0.125000 I-2.767610 J-3.664111
G02 X12.946896 Y101.984957 Z-0.125000 I-8.272514 J-3.790257
G02 X13.294562 Y97.428609 Z-0.125000 I-29.682857 J-4.556348
G02 X12.950144 Y92.869536 Z-0.125000 I-30.346541 J-0.000000
G02 X12.225276 Y90.391897 Z-0.125000 I-9.564709 J1.453438
G02 X10.798142 Y88.595806 Z-0.125000 I-4.194744 J1.868020
G02 X9.088703 Y88.022760 Z-0.125000 I-1.709439 J2.263170
G01 X5.467388 Y88.022760 Z-0.125000
G01 X5.467388 Y106.763742 Z-0.125000
G00 Z15.000000

(Change tool to Default tool)

G00 Z15.000000
G00 X27.802636 Y100.398870

G01 Z-0.125000 F100.0(Penetrate)
G03 X26.559670 Y100.235138 Z-0.125000 I-0.000102 J-4.799075 F400.000000
G03 X25.165064 Y99.691672 Z-0.125000 I1.771572 J-6.607190
G03 X23.885702 Y98.912899 Z-0.125000 I3.859643 J-7.780835
G03 X22.370663 Y97.640776 Z-0.125000 I8.965170 J-12.215337
G01 X22.370663 Y91.629521 Z-0.125000
G02 X23.680010 Y93.135655 Z-0.125000 I9.936745 J-7.316236
G02 X24.865664 Y94.069374 Z-0.125000 I4.933445 J-5.044937
G02 X26.219339 Y94.686940 Z-0.125000 I3.003812 J-4.791829
G02 X27.531750 Y94.882664 Z-0.125000 I1.312412 J-4.302281
G02 X29.313456 Y94.293885 Z-0.125000 I-0.000000 J-2.990204
G02 X30.867924 Y92.407435 Z-0.125000 I-3.023403 J-4.075014
G02 X31.687901 Y89.879883 Z-0.125000 I-8.392596 J-4.119470
G02 X32.065524 Y85.476815 Z-0.125000 I-25.480943 J-4.403068
G01 X32.065524 Y84.840333 Z-0.125000
G01 X28.387179 Y84.840333 Z-0.125000
G03 X25.336957 Y83.959749 Z-0.125000 I0.000000 J-5.723068
G03 X22.997978 Y81.445740 Z-0.125000 I3.568246 J-5.664890
G03 X21.779871 Y77.907564 Z-0.125000 I10.700728 J-5.662768
G03 X21.201577 Y71.368033 Z-0.125000 I36.686387 J-6.539531
G03 X21.642233 Y65.728400 Z-0.125000 I36.309056 J-0.000000
G03 X22.641548 Y62.209708 Z-0.125000 I14.997541 J2.358082
G03 X24.580731 Y59.550446 Z-0.125000 I6.770348 J2.900387
G03 X26.548007 Y58.815115 Z-0.125000 I1.967276 J2.263919
G03 X28.282374 Y59.237366 Z-0.125000 I0.000000 J3.773014
G03 X29.827151 Y60.512411 Z-0.125000 I-2.183835 J4.219126
G03 X30.909666 Y62.369915 Z-0.125000 I-6.524322 J5.046428
G03 X32.065524 Y65.851809 Z-0.125000 I-22.150936 J9.286074
G01 X32.065524 Y59.840553 Z-0.125000
G01 X34.688839 Y59.840553 Z-0.125000
G01 X34.688839 Y82.435820 Z-0.125000
G03 X34.124449 Y91.383424 Z-0.125000 I-71.208007 J-0.000000
G03 X32.977982 Y95.943479 Z-0.125000 I-19.430945 J-2.461091
G03 X30.563069 Y99.374337 Z-0.125000 I-8.019604 J-3.079506
G03 X27.802636 Y100.398870 Z-0.125000 I-2.760433 J-3.206496
G01 X27.802636 Y100.398870 Z-0.125000
G00 Z15.000000

(Change tool to Default tool)

G00 Z15.000000
G00 X45.249109 Y100.398870

G01 Z-0.125000 F100.0(Penetrate)
G03 X42.768395 Y99.643968 Z-0.125000 I-0.000041 J-4.453302 F400.000000
G03 X40.715336 Y97.357893 Z-0.125000 I3.483273 J-5.193164
G03 X39.619836 Y94.193288 Z-0.125000 I9.903395 J-5.200203
G03 X39.118535 Y88.729958 Z-0.125000 I29.519867 J-5.463330
G03 X39.455285 Y84.199253 Z-0.125000 I30.646936 J0.000000
G03 X40.202078 Y81.481098 Z-0.125000 I11.668607 J1.744200
G03 X41.648029 Y79.196055 Z-0.125000 I7.316013 J3.029483
G03 X43.723594 Y77.591454 Z-0.125000 I5.525425 J5.002504
G01 X44.636052 Y77.061047 Z-0.125000
G02 X46.852160 Y75.536488 Z-0.125000 I-5.790309 J-10.789788
G02 X47.786881 Y74.338293 Z-0.125000 I-2.555405 J-2.957180
G02 X48.283702 Y72.868156 Z-0.125000 I-4.649902 J-2.390414
G02 X48.513996 Y70.271859 Z-0.125000 I-14.519988 J-2.596297
G02 X48.206908 Y67.496003 Z-0.125000 I-12.699418 J-0.000000
G02 X47.515995 Y65.816451 Z-0.125000 I-5.240380 J1.173834
G02 X46.291211 Y64.675513 Z-0.125000 I-2.842056 J1.823052
G02 X44.664566 Y64.260604 Z-0.125000 I-1.626645 J2.981168
G02 X43.344453 Y64.472186 Z-0.125000 I0.000000 J4.224051
G02 X41.870165 Y65.179969 Z-0.125000 I1.975215 J6.003648
G02 X40.566090 Y66.249321 Z-0.125000 I5.136564 J7.593869
G02 X39.004478 Y68.008797 Z-0.125000 I12.533853 J12.697085
G01 X39.004478 Y61.290326 Z-0.125000
G03 X40.603376 Y60.150563 Z-0.125000 I10.658427 J13.260629
G03 X41.927193 Y59.451596 Z-0.125000 I5.265887 J8.370284
G03 X43.356200 Y58.961646 Z-0.125000 I3.227865 J7.085587
G03 X44.607537 Y58.815115 Z-0.125000 I1.251337 J5.269761
G03 X47.218177 Y59.604665 Z-0.125000 I0.000000 J4.710799
G03 X49.440711 Y62.032900 Z-0.125000 I-3.802798 J5.711902
G03 X50.669775 Y65.388954 Z-0.125000 I-10.388609 J5.707630
G03 X51.208597 Y70.766909 Z-0.125000 I-26.569125 J5.377955
G03 X50.836472 Y75.532969 Z-0.125000 I-30.707168 J0.000000
G03 X50.025253 Y78.298652 Z-0.125000 I-11.026385 J-1.732400
G03 X48.471512 Y80.667406 Z-0.125000 I-7.476917 J-3.210400
G03 X46.061767 Y82.506536 Z-0.125000 I-6.782428 J-6.388500
G01 X45.163566 Y83.001586 Z-0.125000
G02 X43.235407 Y84.349795 Z-0.125000 I5.429535 J9.818019
G02 X42.354908 Y85.441457 Z-0.125000 I2.614528 J3.009714
G02 X41.870378 Y86.803361 Z-0.125000 I4.305219 J2.298829
G02 X41.656308 Y89.012841 Z-0.125000 I11.295313 J2.209480
G02 X41.965829 Y91.891021 Z-0.125000 I13.536583 J-0.000000
G02 X42.625793 Y93.468250 Z-0.125000 I4.614190 J-1.004038
G02 X43.831296 Y94.540503 Z-0.125000 I2.627899 J-1.740687
G02 X45.562766 Y94.953380 Z-0.125000 I1.731470 J-3.424168
G02 X46.798719 Y94.780649 Z-0.125000 I0.000000 J-4.508213
G02 X48.043510 Y94.246182 Z-0.125000 I-1.456441 J-5.108913
G02 X49.144988 Y93.429150 Z-0.125000 I-3.333736 J-5.645352
G02 X50.353168 Y92.124552 Z-0.125000 I-7.455069 J-8.115835
G01 X50.353168 Y98.277258 Z-0.125000
G03 X49.192970 Y99.221928 Z-0.125000 I-5.730922 J-5.853656
G03 X47.986481 Y99.868480 Z-0.125000 I-3.826413 J-5.691267
G03 X46.676144 Y100.261896 Z-0.125000 I-2.609922 J-6.313934
G03 X45.249109 Y100.398870 Z-0.125000 I-1.427035 J-7.365141
G01 X45.249109 Y100.398870 Z-0.125000
G00 Z15.000000

(Change tool to Default tool)

G00 Z15.000000
G00 X72.597174 Y100.398870

G01 Z-0.125000 F100.0(Penetrate)
G03 X71.354202 Y100.235138 Z-0.125000 I-0.000102 J-4.799107 F400.000000
G03 X69.959595 Y99.691672 Z-0.125000 I1.771567 J-6.607186
G03 X68.680238 Y98.912900 Z-0.125000 I3.859756 J-7.781000
G03 X67.165197 Y97.640776 Z-0.125000 I8.964967 J-12.215095
G01 X67.165197 Y91.629521 Z-0.125000
G02 X68.474543 Y93.135654 Z-0.125000 I9.936766 J-7.316252
G02 X69.660199 Y94.069374 Z-0.125000 I4.933403 J-5.044889
G02 X71.013870 Y94.686940 Z-0.125000 I3.003789 J-4.791767
G02 X72.326283 Y94.882664 Z-0.125000 I1.312413 J-4.302287
G02 X74.107993 Y94.293884 Z-0.125000 I0.000000 J-2.990212
G02 X75.662454 Y92.407435 Z-0.125000 I-3.023373 J-4.074975
G02 X76.482436 Y89.879881 Z-0.125000 I-8.392470 J-4.119446
G02 X76.860058 Y85.476815 Z-0.125000 I-25.481008 J-4.403066
G01 X76.860058 Y84.840333 Z-0.125000
G01 X73.181716 Y84.840333 Z-0.125000
G03 X70.131492 Y83.959749 Z-0.125000 I0.000000 J-5.723072
G03 X67.792516 Y81.445740 Z-0.125000 I3.568234 J-5.664872
G03 X66.574406 Y77.907563 Z-0.125000 I10.700684 J-5.662762
G03 X65.996112 Y71.368033 Z-0.125000 I36.686373 J-6.539530
G03 X66.436768 Y65.728399 Z-0.125000 I36.309096 J0.000000
G03 X67.436081 Y62.209708 Z-0.125000 I14.997594 J2.358088
G03 X69.375265 Y59.550448 Z-0.125000 I6.770366 J2.900406
G03 X71.342545 Y58.815115 Z-0.125000 I1.967280 J2.263923
G03 X73.076911 Y59.237366 Z-0.125000 I-0.000000 J3.773014
G03 X74.621683 Y60.512411 Z-0.125000 I-2.183814 J4.219087
G03 X75.704201 Y62.369915 Z-0.125000 I-6.524339 J5.046445
G03 X76.860058 Y65.851809 Z-0.125000 I-22.150652 J9.285982
G01 X76.860058 Y59.840553 Z-0.125000
G01 X79.483374 Y59.840553 Z-0.125000
G01 X79.483374 Y82.435820 Z-0.125000
G03 X78.918984 Y91.383424 Z-0.125000 I-71.208007 J-0.000000
G03 X77.772516 Y95.943479 Z-0.125000 I-19.430945 J-2.461091
G03 X75.357604 Y99.374337 Z-0.125000 I-8.019609 J-3.079508
G03 X72.597174 Y100.398870 Z-0.125000 I-2.760430 J-3.206491
G01 X72.597174 Y100.398870 Z-0.125000
G00 Z15.000000

(Change tool to Default tool)

G00 Z15.000000
G00 X113.576494 Y100.398870

G01 Z-0.125000 F100.0(Penetrate)
G03 X110.788292 Y99.242355 Z-0.125000 I0.000000 J-3.939247 F400.000000
G03 X107.859379 Y94.670497 Z-0.125000 I9.021080 J-9.003381
G03 X106.403678 Y88.860126 Z-0.125000 I25.706575 J-9.527929
G03 X105.749317 Y79.253393 Z-0.125000 I70.191435 J-9.606733
G03 X106.436552 Y69.980869 Z-0.125000 I62.898457 J0.000000
G03 X107.973436 Y64.331320 Z-0.125000 I24.667684 J3.676695
G03 X111.001733 Y59.988137 Z-0.125000 I11.072518 J4.493010
G03 X114.032723 Y58.815115 Z-0.125000 I3.030990 J3.329398
G03 X115.511877 Y59.003265 Z-0.125000 I-0.000000 J5.908294
G03 X117.040979 Y59.593029 Z-0.125000 I-1.786799 J6.909857
G03 X118.432535 Y60.491667 Z-0.125000 I-4.270683 J8.139966
G03 X119.935184 Y61.856091 Z-0.125000 I-8.501527 J10.872439
G01 X119.935184 Y68.008797 Z-0.125000
G02 X118.422012 Y66.295319 Z-0.125000 I-12.375046 J9.403524
G02 X117.112267 Y65.250685 Z-0.125000 I-5.833327 J5.970342
G02 X115.634896 Y64.553282 Z-0.125000 I-3.281426 J5.037811
G02 X114.189549 Y64.331320 Z-0.125000 I-1.445348 J4.594857
G02 X112.096067 Y65.106696 Z-0.125000 I0.000000 J3.213845
G02 X110.112003 Y67.831988 Z-0.125000 I4.773345 J5.559949
G02 X109.093549 Y71.459925 Z-0.125000 I14.992024 J6.165562
G02 X108.486689 Y78.086504 Z-0.125000 I49.927777 J7.913443
G01 X120.548239 Y78.086504 Z-0.125000
G01 X120.548239 Y81.268931 Z-0.125000
G03 X119.962347 Y90.004889 Z-0.125000 I-65.421781 J0.000000
G03 X118.666292 Y95.236263 Z-0.125000 I-24.566909 J-3.310134
G03 X116.067388 Y99.356731 Z-0.125000 I-10.707301 J-3.873581
G03 X113.576494 Y100.398870 Z-0.125000 I-2.490894 J-2.455766
G01 X113.576494 Y100.398870 Z-0.125000
G00 Z15.000000

(Change tool to Default tool)

G00 Z15.000000
G00 X132.846458 Y100.398870

G01 Z-0.125000 F100.0(Penetrate)
G03 X131.165676 Y99.968044 Z-0.125000 I-0.000050 J-3.493833 F400.000000
G03 X129.624337 Y98.630857 Z-0.125000 I2.324629 J-4.236462
G03 X128.564956 Y96.772963 Z-0.125000 I6.311416 J-4.829784
G03 X127.471506 Y93.291441 Z-0.125000 I21.458141 J-8.651878
G01 X127.471506 Y99.444147 Z-0.125000
G01 X124.833935 Y99.444147 Z-0.125000
G01 X124.833935 Y59.840553 Z-0.125000
G01 X127.471506 Y59.840553 Z-0.125000
G01 X127.471506 Y80.703165 Z-0.125000
G02 X127.853027 Y87.360076 Z-0.125000 I58.266815 J-0.000000
G02 X128.654854 Y90.993021 Z-0.125000 I18.020917 J-2.072437
G02 X130.378907 Y93.870266 Z-0.125000 I7.318276 J-2.429978
G02 X132.076570 Y94.599781 Z-0.125000 I1.697663 J-1.610568
G02 X132.680339 Y94.517124 Z-0.125000 I-0.000000 J-2.246452
G02 X133.217142 Y94.281540 Z-0.125000 I-0.558816 J-2.002694
G02 X133.691436 Y93.938943 Z-0.125000 I-1.040172 J-1.939628
G02 X134.186624 Y93.362176 Z-0.125000 I-2.556442 J-2.695813
G01 X134.172390 Y100.045271 Z-0.125000
G03 X133.767185 Y100.203612 Z-0.125000 I-1.985221 J-4.482670
G03 X133.445278 Y100.292796 Z-0.125000 I-0.930662 J-2.733652
G03 X133.113650 Y100.375422 Z-0.125000 I-0.763839 J-2.358897
G03 X132.846480 Y100.398888 Z-0.125000 I-0.267170 J-1.509223
G01 X132.846458 Y100.398870 Z-0.125000
G00 Z15.000000

(Change tool to Default tool)

G00 Z15.000000
G00 X155.120399 Y99.444147

G01 Z-0.125000 F100.0(Penetrate)
G01 X155.120399 Y59.840553 Z-0.125000 F400.000000
G01 X157.743715 Y59.840553 Z-0.125000
G01 X157.743715 Y99.444147 Z-0.125000
G01 X155.120399 Y99.444147 Z-0.125000
G00 Z15.000000

(Change tool to Default tool)

G00 Z15.000000
G00 X142.537041 Y94.953380

G01 Z-0.125000 F100.0(Penetrate)
G02 X144.067001 Y94.217721 Z-0.125000 I0.000000 J-1.958768 F400.000000
G02 X145.816180 Y90.851589 Z-0.125000 I-7.639584 J-6.107377
G02 X146.635503 Y86.730595 Z-0.125000 I-22.384073 J-6.592277
G02 X147.013784 Y79.606992 Z-0.125000 I-66.884987 J-7.123603
G02 X146.636650 Y72.482774 Z-0.125000 I-67.478233 J-0.000000
G02 X145.816180 Y68.327038 Z-0.125000 I-23.656348 J2.511628
G02 X144.070180 Y64.993807 Z-0.125000 I-9.262299 J2.727835
G02 X142.537041 Y64.260604 Z-0.125000 I-1.533139 J1.236307
G02 X141.003895 Y64.993810 Z-0.125000 I-0.000000 J1.969521
G02 X139.257895 Y68.327038 Z-0.125000 I7.516278 J6.061056
G02 X138.447282 Y72.481535 Z-0.125000 I23.092965 J6.662163
G02 X138.074547 Y79.606992 Z-0.125000 I67.921295 J7.125457
G02 X138.448416 Y86.731848 Z-0.125000 I68.076541 J0.000000
G02 X139.257895 Y90.851589 Z-0.125000 I23.445314 J-2.467325
G02 X141.007074 Y94.217718 Z-0.125000 I9.388741 J-2.741238
G02 X142.537041 Y94.953380 Z-0.125000 I1.529967 J-1.223116
G01 X142.537041 Y94.953380 Z-0.125000
G00 Z15.000000

(Change tool to Default tool)

G00 Z15.000000
G00 X113.605007 Y94.882592

G01 Z-0.125000 F100.0(Penetrate)
G02 X115.103485 Y94.251498 Z-0.125000 I-0.000000 J-2.094550 F400.000000
G02 X116.713063 Y91.700165 Z-0.125000 I-5.158016 J-5.037466
G02 X117.537656 Y88.452190 Z-0.125000 I-14.655162 J-5.449301
G02 X117.924924 Y83.178322 Z-0.125000 I-38.547966 J-5.481783
G01 X108.572234 Y83.143018 Z-0.125000
G02 X109.147792 Y88.646128 Z-0.125000 I40.394739 J-1.443139
G02 X110.083490 Y91.806293 Z-0.125000 I14.127858 J-2.464531
G02 X111.844164 Y94.221838 Z-0.125000 I6.208506 J-2.675893
G02 X113.605007 Y94.882646 Z-0.125000 I1.760842 J-2.015638
G01 X113.605007 Y94.882592 Z-0.125000
G00 Z15.000000

(Change tool to Default tool)

G00 Z15.000000
G00 X29.456466 Y79.748370

G01 Z-0.125000 F100.0(Penetrate)
G01 X32.065524 Y79.748370 Z-0.125000 F400.000000
G01 X32.065524 Y78.298580 Z-0.125000
G02 X31.658726 Y72.001732 Z-0.125000 I-48.938075 J-0.000000
G02 X30.739609 Y68.079441 Z-0.125000 I-19.781638 J2.566633
G02 X28.906053 Y64.991605 Z-0.125000 I-8.341967 J2.865157
G02 X27.246607 Y64.260532 Z-0.125000 I-1.659446 J1.517831
G02 X25.955274 Y64.714937 Z-0.125000 I0.000000 J2.062067
G02 X24.737349 Y66.276069 Z-0.125000 I2.701440 J3.363190
G02 X24.104681 Y68.386402 Z-0.125000 I7.925086 J3.525908
G02 X23.824892 Y71.792275 Z-0.125000 I20.589955 J3.405873
G02 X24.241395 Y76.013433 Z-0.125000 I21.598447 J-0.000000
G02 X25.051007 Y77.944981 Z-0.125000 I5.164165 J-1.029120
G02 X26.577012 Y79.181824 Z-0.125000 I2.816097 J-1.914668
G02 X29.456466 Y79.748370 Z-0.125000 I2.879454 J-7.034091
G01 X29.456466 Y79.748370 Z-0.125000
G00 Z15.000000

(Change tool to Default tool)

G00 Z15.000000
G00 X74.250999 Y79.748370

G01 Z-0.125000 F100.0(Penetrate)
G01 X76.860058 Y79.748370 Z-0.125000 F400.000000
G01 X76.860058 Y78.298580 Z-0.125000
G02 X76.453260 Y72.001732 Z-0.125000 I-48.937993 J0.000000
G02 X75.534141 Y68.079441 Z-0.125000 I-19.781612 J2.566634
G02 X73.700591 Y64.991606 Z-0.125000 I-8.341946 J2.865135
G02 X72.041144 Y64.260532 Z-0.125000 I-1.659446 J1.517829
G02 X70.749805 Y64.714939 Z-0.125000 I-0.000000 J2.062073
G02 X69.531886 Y66.276069 Z-0.125000 I2.701429 J3.363173
G02 X68.899215 Y68.386403 Z-0.125000 I7.924944 J3.525874
G02 X68.619428 Y71.792275 Z-0.125000 I20.590119 J3.405872
G02 X69.035930 Y76.013431 Z-0.125000 I21.598533 J-0.000000
G02 X69.845545 Y77.944981 Z-0.125000 I5.164119 J-1.029106
G02 X71.371550 Y79.181824 Z-0.125000 I2.816097 J-1.914666
G02 X74.250999 Y79.748370 Z-0.125000 I2.879450 J-7.034078
G01 X74.250999 Y79.748370 Z-0.125000
G00 Z15.000000

(End cutting path id: text19774)


(Pass at depth -2.0)

(Footer)
M5
G00 X0.0000 Y0.0000
M2
(Using default footer. To add your own footer create file "footer" in the output dir.)
(end)
%