%
(Header)
(Generated by gcodetools from Inkscape.)
(Using default header. To add your own header create file "header" in the output dir.)
M3
(Header end.)
G21 (All units in mm)

(Pass at depth -1.0)
(Start cutting path id: text46063)
(Change tool to Default tool)

G00 Z28.000000
G00 X2.838498 Y120.219938

G01 Z-0.125000 F100.0(Penetrate)
G03 X3.097335 Y119.066072 Z-0.125000 I2.651445 J-0.011188 F400.000000
G03 X3.956678 Y117.882155 Z-0.125000 I3.640664 J1.738732
G03 X5.151823 Y117.147578 Z-0.125000 I2.085116 J2.052920
G03 X7.272414 Y116.822942 Z-0.125000 I2.084767 J6.529743
G03 X10.582500 Y116.967038 Z-0.125000 I-0.226238 J43.287458
G03 X14.690796 Y117.431432 Z-0.125000 I-5.488149 J66.955741
G02 X18.797369 Y117.914197 Z-0.125000 I11.225363 J-77.779545
G02 X21.331696 Y118.035859 Z-0.125000 I2.689496 J-29.567688
G02 X23.728733 Y117.849599 Z-0.125000 I0.075989 J-14.539343
G02 X24.367303 Y117.544900 Z-0.125000 I-0.200944 J-1.242615
G02 X24.782917 Y116.544631 Z-0.125000 I-3.318890 J-1.965486
G02 X25.479257 Y113.242655 Z-0.125000 I-36.247330 J-9.368456
G03 X26.185156 Y109.995703 Z-0.125000 I34.035429 J5.699215
G03 X27.008101 Y107.549735 Z-0.125000 I20.010951 J5.371253
G03 X28.360013 Y105.706552 Z-0.125000 I4.346904 J1.770924
G03 X29.893394 Y105.158293 Z-0.125000 I1.520923 J1.835323
G03 X31.552879 Y105.911975 Z-0.125000 I-0.011652 J2.229454
G03 X32.307446 Y107.893734 Z-0.125000 I-2.258504 J1.994472
G03 X32.231279 Y109.090726 Z-0.125000 I-8.856320 J0.037371
G03 X31.689988 Y112.579607 Z-0.125000 I-77.420243 J-10.225125
G02 X31.080691 Y116.133267 Z-0.125000 I77.459839 J15.110029
G02 X30.865906 Y118.148584 Z-0.125000 I24.585718 J3.639359
G02 X31.151657 Y118.194956 Z-0.125000 I0.501776 J-2.188384
G02 X38.497241 Y118.885823 Z-0.125000 I137.035042 J-1417.616485
G03 X44.359276 Y119.447014 Z-0.125000 I-66.321185 J723.668736
G03 X49.873225 Y120.021822 Z-0.125000 I-62.906484 J630.176288
G02 X55.315868 Y120.667421 Z-0.125000 I110.559493 J-908.793054
G02 X57.928133 Y120.951798 Z-0.125000 I22.723638 J-196.597922
G02 X60.474635 Y121.156191 Z-0.125000 I5.465652 J-52.130291
G02 X62.942617 Y121.231422 Z-0.125000 I2.723573 J-48.828382
G03 X68.734424 Y121.940168 Z-0.125000 I-0.131136 J25.091082
G03 X70.931676 Y123.172864 Z-0.125000 I-1.103040 J4.540764
G03 X71.420071 Y124.082826 Z-0.125000 I-1.824310 J1.565190
G03 X71.649734 Y125.710766 Z-0.125000 I-5.836347 J1.653536
G03 X70.775654 Y127.737395 Z-0.125000 I-2.759499 J0.011644
G03 X68.554164 Y128.607942 Z-0.125000 I-2.204626 J-2.356128
G03 X67.218789 Y128.516996 Z-0.125000 I0.055877 J-10.669657
G03 X58.519925 Y127.288415 Z-0.125000 I60.021094 J-456.384551
G02 X49.805120 Y126.194009 Z-0.125000 I-26.309843 J174.261039
G02 X39.867319 Y125.417031 Z-0.125000 I-22.641411 J225.648542
G01 X29.128924 Y124.854074 Z-0.125000
G01 X28.508977 Y128.461535 Z-0.125000
G03 X27.181237 Y132.704543 Z-0.125000 I-61.258124 J-16.839901
G03 X26.416143 Y134.406771 Z-0.125000 I-10.473949 J-3.684630
G03 X25.288695 Y135.679325 Z-0.125000 I-3.429741 J-1.902937
G03 X24.162825 Y136.041266 Z-0.125000 I-1.115914 J-1.539150
G03 X23.336800 Y135.834894 Z-0.125000 I0.009375 J-1.793842
G03 X22.463888 Y135.146365 Z-0.125000 I1.419225 J-2.696885
G03 X21.940665 Y134.157792 Z-0.125000 I1.823984 J-1.598131
G03 X21.673574 Y132.101253 Z-0.125000 I8.054267 J-2.091653
G03 X21.763221 Y130.589879 Z-0.125000 I11.935965 J-0.050366
G03 X22.219931 Y127.670272 Z-0.125000 I45.184010 J5.572549
G02 X22.695173 Y124.819609 Z-0.125000 I-553.598172 J-93.756880
G02 X22.770822 Y124.314010 Z-0.125000 I-17.890948 J-2.935348
G02 X21.494855 Y124.147801 Z-0.125000 I-4.119029 J26.640398
G02 X13.373109 Y123.315978 Z-0.125000 I-119.593307 J1127.619034
G03 X5.196603 Y122.418803 Z-0.125000 I34.501952 J-352.144637
G03 X4.117155 Y122.191050 Z-0.125000 I0.765481 J-6.299976
G03 X3.187584 Y121.391287 Z-0.125000 I0.898790 J-1.984777
G03 X2.838498 Y120.219938 Z-0.125000 I1.821409 J-1.180509
G01 X2.838498 Y120.219938 Z-0.125000
G00 Z28.000000

(Change tool to Default tool)

G00 Z28.000000
G00 X9.570226 Y92.499707

G01 Z-0.125000 F100.0(Penetrate)
G03 X9.747068 Y91.681324 Z-0.125000 I1.944092 J-0.008203 F400.000000
G03 X10.410074 Y90.667303 Z-0.125000 I3.704047 J1.698086
G03 X11.355022 Y89.994391 Z-0.125000 I2.231538 J2.133740
G03 X12.595943 Y89.665070 Z-0.125000 I1.577303 J3.440831
G03 X14.455067 Y89.994526 Z-0.125000 I-0.029136 J5.574669
G03 X15.991422 Y90.886995 Z-0.125000 I-1.674297 J4.650868
G03 X17.042688 Y92.229452 Z-0.125000 I-3.286187 J3.656230
G03 X17.344655 Y93.426370 Z-0.125000 I-2.264067 J1.207746
G03 X17.023489 Y94.503592 Z-0.125000 I-1.939687 J0.008185
G03 X16.010663 Y95.446722 Z-0.125000 I-2.456242 J-1.622354
G03 X14.618966 Y95.996937 Z-0.125000 I-2.706475 J-4.810513
G03 X12.976124 Y96.191103 Z-0.125000 I-1.607571 J-6.554527
G03 X11.615304 Y95.827996 Z-0.125000 I0.014561 J-2.786106
G03 X10.499629 Y94.785306 Z-0.125000 I1.616646 J-2.848032
G03 X9.736174 Y93.337729 Z-0.125000 I6.938274 J-4.584372
G03 X9.570226 Y92.499707 Z-0.125000 I2.080862 J-0.847503
G01 X9.570226 Y92.499707 Z-0.125000
G00 Z28.000000

(Change tool to Default tool)

G00 Z28.000000
G00 X9.811415 Y149.658075

G01 Z-0.125000 F100.0(Penetrate)
G03 X9.988260 Y148.839681 Z-0.125000 I1.944123 J-0.008204 F400.000000
G03 X10.651263 Y147.825662 Z-0.125000 I3.704027 J1.698072
G03 X11.596211 Y147.152750 Z-0.125000 I2.231538 J2.133740
G03 X12.837133 Y146.823429 Z-0.125000 I1.577303 J3.440831
G03 X14.696252 Y147.152882 Z-0.125000 I-0.029136 J5.574689
G03 X16.232612 Y148.045364 Z-0.125000 I-1.674234 J4.650724
G03 X17.284036 Y149.388806 Z-0.125000 I-3.282336 J3.652031
G03 X17.585852 Y150.586585 Z-0.125000 I-2.268874 J1.208627
G03 X17.264690 Y151.663802 Z-0.125000 I-1.939681 J0.008185
G03 X16.251860 Y152.606928 Z-0.125000 I-2.456194 J-1.622317
G03 X14.860164 Y153.157147 Z-0.125000 I-2.706535 J-4.810620
G03 X13.217321 Y153.351319 Z-0.125000 I-1.607572 J-6.554366
G03 X11.856442 Y152.987420 Z-0.125000 I0.014534 J-2.780959
G03 X10.740819 Y151.943665 Z-0.125000 I1.624011 J-2.853930
G03 X9.977362 Y150.496086 Z-0.125000 I6.938313 J-4.584398
G03 X9.811415 Y149.658075 Z-0.125000 I2.080827 J-0.847491
G01 X9.811415 Y149.658075 Z-0.125000
G00 Z28.000000

(Change tool to Default tool)

G00 Z28.000000
G00 X15.542498 Y68.069906

G01 Z-0.125000 F100.0(Penetrate)
G03 X15.963685 Y61.457933 Z-0.125000 I48.871988 J-0.206224 F400.000000
G03 X16.773573 Y58.764728 Z-0.125000 I8.714193 J1.152116
G03 X19.544405 Y54.594062 Z-0.125000 I16.826980 J8.173455
G03 X24.084144 Y50.440240 Z-0.125000 I21.227502 J18.642010
G03 X29.334996 Y47.499042 Z-0.125000 I14.045202 J18.916860
G03 X33.249670 Y46.751662 Z-0.125000 I3.860619 J9.595437
G03 X35.914316 Y47.607787 Z-0.125000 I-0.024305 J4.650497
G03 X41.891554 Y52.876936 Z-0.125000 I-21.772784 J30.723516
G03 X46.611707 Y59.364119 Z-0.125000 I-29.369867 J26.330677
G03 X47.440015 Y62.408068 Z-0.125000 I-5.273568 J3.069697
G02 X47.867339 Y64.120638 Z-0.125000 I7.223128 J-0.892731
G02 X49.654492 Y68.185294 Z-0.125000 I43.067458 J-16.510734
G02 X51.257401 Y71.216211 Z-0.125000 I40.377701 J-19.414552
G02 X51.787960 Y71.870041 Z-0.125000 I2.330985 J-1.349332
G02 X52.517813 Y72.287423 Z-0.125000 I1.134698 J-1.137363
G02 X54.263309 Y72.515592 Z-0.125000 I1.782465 J-6.845293
G02 X56.822489 Y72.327616 Z-0.125000 I0.085459 J-16.351374
G02 X57.861655 Y71.964679 Z-0.125000 I-0.454706 J-2.971067
G02 X58.734435 Y71.271668 Z-0.125000 I-1.842327 J-3.216332
G02 X60.674154 Y68.938396 Z-0.125000 I-20.124884 J-18.703325
G02 X61.645606 Y67.290566 Z-0.125000 I-9.069362 J-6.456963
G02 X62.215488 Y65.716795 Z-0.125000 I-7.617452 J-3.648442
G02 X62.442796 Y64.059301 Z-0.125000 I-11.522664 J-2.424543
G02 X62.546752 Y60.650229 Z-0.125000 I-49.044613 J-3.201682
G02 X62.443138 Y56.669743 Z-0.125000 I-91.312717 J0.385310
G02 X62.313753 Y55.771236 Z-0.125000 I-4.770083 J0.228324
G02 X61.866191 Y55.097213 Z-0.125000 I-1.530034 J0.530361
G02 X60.825358 Y54.433488 Z-0.125000 I-2.519971 J2.803779
G02 X59.819696 Y54.054415 Z-0.125000 I-3.426023 J7.565547
G02 X59.340701 Y53.981790 Z-0.125000 I-0.487741 J1.600967
G02 X59.086825 Y54.059261 Z-0.125000 I-0.002337 J0.447058
G02 X57.862197 Y54.987720 Z-0.125000 I8.461901 J12.433038
G03 X56.501884 Y55.801896 Z-0.125000 I-3.167798 J-3.749226
G03 X55.181644 Y56.050263 Z-0.125000 I-1.301765 J-3.286598
G03 X52.999342 Y55.252578 Z-0.125000 I0.017943 J-3.433096
G03 X52.205657 Y53.565302 Z-0.125000 I1.416455 J-1.696602
G03 X52.658506 Y51.640766 Z-0.125000 I4.239875 J-0.017891
G03 X53.956268 Y50.089531 Z-0.125000 I3.957813 J1.992631
G03 X55.768635 Y49.204242 Z-0.125000 I3.263110 J4.382467
G03 X58.471450 Y48.846055 Z-0.125000 I2.650640 J9.624674
G03 X61.572481 Y49.205827 Z-0.125000 I-0.074128 J14.183392
G03 X64.691001 Y50.273271 Z-0.125000 I-3.553335 J15.470074
G01 X69.219812 Y52.259514 Z-0.125000
G01 X68.755798 Y59.099294 Z-0.125000
G03 X67.474322 Y68.514023 Z-0.125000 I-64.530132 J-3.988871
G03 X65.914955 Y72.513593 Z-0.125000 I-12.945103 J-2.743315
G03 X63.053696 Y75.555432 Z-0.125000 I-8.002394 J-4.660710
G03 X57.816663 Y77.918762 Z-0.125000 I-9.730858 J-14.578960
G03 X55.754027 Y78.345961 Z-0.125000 I-4.432886 J-16.210123
G03 X53.935793 Y78.470054 Z-0.125000 I-1.753266 J-12.306576
G03 X47.438375 Y75.886010 Z-0.125000 I0.050104 J-9.586680
G03 X41.809405 Y67.130635 Z-0.125000 I14.503658 J-15.511797
G02 X39.565381 Y61.210039 Z-0.125000 I-72.379450 J24.047691
G02 X37.602150 Y57.288354 Z-0.125000 I-33.447060 J14.291652
G02 X35.100034 Y54.056280 Z-0.125000 I-13.899129 J8.175490
G02 X33.843336 Y53.532228 Z-0.125000 I-1.266060 J1.267233
G02 X29.638302 Y54.536776 Z-0.125000 I-0.047582 J9.104217
G02 X25.173903 Y57.983640 Z-0.125000 I7.066503 J13.767169
G02 X22.148365 Y62.892528 Z-0.125000 I12.726486 J11.230648
G02 X21.190293 Y67.908902 Z-0.125000 I12.359351 J4.960178
G02 X21.388317 Y69.896292 Z-0.125000 I10.517194 J-0.044379
G02 X21.913158 Y71.586266 Z-0.125000 I8.150745 J-1.604823
G02 X22.734199 Y73.165396 Z-0.125000 I11.412996 J-4.930980
G02 X23.476753 Y74.128587 Z-0.125000 I4.912380 J-3.019285
G03 X24.246852 Y75.028275 Z-0.125000 I-38.557627 J33.783266
G03 X24.967021 Y75.910283 Z-0.125000 I-37.440540 J31.305621
G03 X25.540301 Y76.849073 Z-0.125000 I-3.453952 J2.753619
G03 X25.681066 Y77.497401 Z-0.125000 I-1.453614 J0.655055
G03 X25.178274 Y78.319226 Z-0.125000 I-0.916719 J0.003868
G03 X23.073771 Y78.815590 Z-0.125000 I-2.080423 J-4.111097
G03 X21.122096 Y78.261847 Z-0.125000 I0.019787 J-3.785963
G03 X18.045462 Y75.748328 Z-0.125000 I7.557040 J-12.389793
G03 X16.723227 Y73.995397 Z-0.125000 I9.408567 J-8.472021
G03 X16.054359 Y72.569312 Z-0.125000 I5.536325 J-3.466569
G03 X15.715587 Y71.020457 Z-0.125000 I7.369850 J-2.423442
G03 X15.542498 Y68.069906 Z-0.125000 I27.017482 J-3.065286
G01 X15.542498 Y68.069906 Z-0.125000
G00 Z28.000000

(Change tool to Default tool)

G00 Z28.000000
G00 X28.287260 Y92.534645

G01 Z-0.125000 F100.0(Penetrate)
G03 X28.468995 Y91.585071 Z-0.125000 I2.516176 J-0.010617 F400.000000
G03 X29.126040 Y90.448818 Z-0.125000 I4.306455 J1.732136
G03 X30.360788 Y89.627012 Z-0.125000 I1.759863 J1.305664
G03 X34.416368 Y89.144652 Z-0.125000 I3.969017 J16.080235
G03 X39.005004 Y89.248594 Z-0.125000 I-0.688480 J131.730899
G03 X52.641396 Y89.874364 Z-0.125000 I-47.243041 J1178.381759
G03 X66.184112 Y90.760145 Z-0.125000 I-43.720423 J772.412410
G03 X67.335332 Y90.964818 Z-0.125000 I-0.425543 J5.733486
G03 X68.345381 Y91.818616 Z-0.125000 I-0.601295 J1.735684
G03 X68.829604 Y93.695452 Z-0.125000 I-3.459694 J1.893483
G03 X68.564802 Y95.050218 Z-0.125000 I-3.521949 J0.014861
G03 X67.710969 Y96.414276 Z-0.125000 I-4.423863 J-1.819861
G03 X66.830162 Y96.623166 Z-0.125000 I-0.998290 J-2.247937
G03 X60.509015 Y96.757688 Z-0.125000 I-5.697708 J-119.151703
G03 X51.687427 Y96.549641 Z-0.125000 I1.256460 J-240.405615
G03 X41.508302 Y95.961027 Z-0.125000 I13.502370 J-321.811971
G03 X31.428793 Y94.919905 Z-0.125000 I9.605207 J-142.304083
G03 X29.212190 Y94.248645 Z-0.125000 I1.031307 J-7.400947
G03 X28.516849 Y93.435357 Z-0.125000 I1.537691 J-2.018581
G03 X28.287260 Y92.534645 Z-0.125000 I1.683696 J-0.908786
G01 X28.287260 Y92.534645 Z-0.125000
G00 Z28.000000

(Change tool to Default tool)

G00 Z28.000000
G00 X28.528450 Y149.693003

G01 Z-0.125000 F100.0(Penetrate)
G03 X28.710184 Y148.743430 Z-0.125000 I2.516176 J-0.010617 F400.000000
G03 X29.367229 Y147.607177 Z-0.125000 I4.306455 J1.732136
G03 X30.601998 Y146.785919 Z-0.125000 I1.757981 J1.304268
G03 X34.657565 Y146.304858 Z-0.125000 I3.968788 J16.123013
G03 X39.246199 Y146.408335 Z-0.125000 I-0.692499 J132.499715
G03 X52.882586 Y147.032723 Z-0.125000 I-46.197076 J1158.145321
G03 X66.425302 Y147.918504 Z-0.125000 I-43.720423 J772.412410
G03 X67.576521 Y148.123177 Z-0.125000 I-0.425543 J5.733486
G03 X68.586776 Y148.977595 Z-0.125000 I-0.601147 J1.735255
G03 X69.070802 Y150.855667 Z-0.125000 I-3.466243 J1.894746
G03 X68.805848 Y152.209517 Z-0.125000 I-3.515603 J0.014835
G03 X67.952159 Y153.572644 Z-0.125000 I-4.426790 J-1.823494
G03 X67.071351 Y153.781533 Z-0.125000 I-0.998283 J-2.247920
G03 X60.750204 Y153.916047 Z-0.125000 I-5.697677 J-119.157584
G03 X51.928616 Y153.708000 Z-0.125000 I1.256460 J-240.405615
G03 X41.749491 Y153.119386 Z-0.125000 I13.502370 J-321.811971
G03 X31.669994 Y152.079763 Z-0.125000 I9.644938 J-142.892713
G03 X29.453387 Y151.408851 Z-0.125000 I1.028107 J-7.393881
G03 X28.757873 Y150.594667 Z-0.125000 I1.535750 J-2.016073
G03 X28.528450 Y149.693003 Z-0.125000 I1.688933 J-0.909759
G01 X28.528450 Y149.693003 Z-0.125000
G00 Z28.000000

(Change tool to Default tool)

G00 Z28.000000
G00 X29.607662 Y187.969858

G01 Z-0.125000 F100.0(Penetrate)
G03 X30.060652 Y182.364296 Z-0.125000 I33.177359 J-0.139998 F400.000000
G03 X31.192646 Y178.475999 Z-0.125000 I16.992367 J2.838034
G03 X33.189181 Y175.004285 Z-0.125000 I16.073514 J6.933712
G03 X37.863036 Y169.452666 Z-0.125000 I46.180908 J34.136019
G03 X44.832578 Y164.645432 Z-0.125000 I15.346657 J14.793780
G03 X52.949986 Y163.005614 Z-0.125000 I8.010873 J18.744072
G03 X57.356859 Y163.286895 Z-0.125000 I-0.197316 J37.753505
G03 X59.944607 Y163.865316 Z-0.125000 I-1.658369 J13.497009
G03 X62.283635 Y165.007107 Z-0.125000 I-4.221280 J11.614256
G03 X65.963694 Y167.635102 Z-0.125000 I-19.849481 J31.686466
G03 X69.621049 Y172.414510 Z-0.125000 I-7.812051 J9.767095
G03 X71.099010 Y179.444816 Z-0.125000 I-16.339387 J7.105489
G03 X70.398135 Y184.499963 Z-0.125000 I-18.032073 J0.076089
G03 X68.245532 Y189.375975 Z-0.125000 I-18.894623 J-5.428212
G03 X64.554358 Y193.369437 Z-0.125000 I-12.522983 J-7.872432
G03 X57.684981 Y197.237692 Z-0.125000 I-18.583607 J-24.967831
G03 X49.992977 Y199.612017 Z-0.125000 I-16.482586 J-39.751069
G03 X42.866396 Y200.328852 Z-0.125000 I-6.948799 J-33.299373
G03 X38.349498 Y199.936401 Z-0.125000 I0.145639 J-27.865987
G03 X35.162539 Y199.021513 Z-0.125000 I2.494121 J-14.696360
G03 X31.427251 Y195.570842 Z-0.125000 I2.726259 J-6.698151
G03 X29.607662 Y187.969858 Z-0.125000 I15.267221 J-7.673085
G01 X29.607662 Y187.969858 Z-0.125000
G00 Z28.000000

(Change tool to Default tool)

G00 Z28.000000
G00 X36.249897 Y188.890594

G01 Z-0.125000 F100.0(Penetrate)
G02 X36.697556 Y191.269763 Z-0.125000 I6.696268 J-0.028256 F400.000000
G02 X38.107711 Y193.715194 Z-0.125000 I8.513632 J-3.280078
G02 X38.554144 Y194.201089 Z-0.125000 I5.460370 J-4.568870
G02 X38.815955 Y194.416251 Z-0.125000 I1.278939 J-1.289353
G02 X39.051257 Y194.564048 Z-0.125000 I0.544863 J-0.606249
G02 X39.594772 Y194.736624 Z-0.125000 I1.320362 J-3.216224
G02 X40.170293 Y194.870243 Z-0.125000 I0.949590 J-2.783793
G02 X41.148476 Y194.935266 Z-0.125000 I1.020104 J-7.955928
G02 X50.221209 Y193.803444 Z-0.125000 I0.185248 J-35.444651
G02 X57.939445 Y190.587339 Z-0.125000 I-7.440068 J-28.724643
G02 X63.777691 Y185.410528 Z-0.125000 I-10.440197 J-17.654629
G02 X65.242880 Y181.060481 Z-0.125000 I-5.635939 J-4.320083
G02 X64.333237 Y176.301110 Z-0.125000 I-13.197009 J0.055687
G02 X61.959500 Y172.682471 Z-0.125000 I-9.798680 J3.839815
G02 X58.266816 Y170.313081 Z-0.125000 I-7.630738 J7.830260
G02 X53.471934 Y169.406608 Z-0.125000 I-4.865482 J12.601710
G02 X50.041829 Y169.801100 Z-0.125000 I-0.075536 J14.452817
G02 X46.980355 Y170.956066 Z-0.125000 I3.009566 J12.612488
G02 X44.151220 Y172.849511 Z-0.125000 I8.422794 J15.645441
G02 X40.364846 Y176.368985 Z-0.125000 I25.940330 J31.704017
G02 X38.578614 Y178.464689 Z-0.125000 I20.383208 J19.182316
G02 X37.835951 Y179.650167 Z-0.125000 I5.721344 J4.409601
G02 X37.298920 Y181.026351 Z-0.125000 I5.749323 J3.036441
G02 X36.932673 Y183.067472 Z-0.125000 I12.441364 J3.285826
G03 X36.791452 Y184.585621 Z-0.125000 I-178.248103 J-15.815322
G03 X36.661896 Y185.851775 Z-0.125000 I-127.877140 J-12.445082
G02 X36.465686 Y187.182760 Z-0.125000 I87.602733 J13.594075
G02 X36.387652 Y187.814762 Z-0.125000 I19.801898 J2.765779
G02 X36.273362 Y188.513005 Z-0.125000 I10.240361 J2.034634
G02 X36.249897 Y188.890594 Z-0.125000 I2.832277 J0.365539
G01 X36.249897 Y188.890594 Z-0.125000
G00 Z28.000000

(Change tool to Default tool)

G00 Z28.000000
G00 X88.360684 Y52.550084

G01 Z-0.125000 F100.0(Penetrate)
G03 X88.561834 Y51.703244 Z-0.125000 I1.850303 J-0.007808 F400.000000
G03 X89.131749 Y51.033623 Z-0.125000 I1.686467 J0.858016
G03 X89.895077 Y50.680679 Z-0.125000 I1.312785 J1.837308
G03 X92.588526 Y50.165659 Z-0.125000 I5.870613 J23.401481
G03 X95.348753 Y49.923331 Z-0.125000 I4.100914 J30.870097
G03 X100.495777 Y49.825941 Z-0.125000 I4.589833 J106.513160
G03 X106.072642 Y49.947544 Z-0.125000 I-0.879487 J168.277269
G03 X112.011127 Y50.267169 Z-0.125000 I-7.411009 J193.019702
G02 X123.174667 Y51.128448 Z-0.125000 I239.674728 J-3033.786115
G02 X138.220207 Y52.240942 Z-0.125000 I419.124963 J-5566.015140
G03 X152.469362 Y53.359207 Z-0.125000 I-43.492432 J645.531122
G03 X155.458813 Y53.786787 Z-0.125000 I-2.558144 J28.549632
G03 X157.678615 Y54.981292 Z-0.125000 I-1.019056 J4.553590
G03 X158.366016 Y56.589547 Z-0.125000 I-1.559836 J1.617737
G03 X157.657992 Y58.277832 Z-0.125000 I-2.343294 J0.009888
G03 X155.905565 Y58.985056 Z-0.125000 I-1.739400 J-1.785274
G03 X155.552794 Y58.972714 Z-0.125000 I0.031015 J-5.934210
G03 X139.939463 Y57.950848 Z-0.125000 I793.914878 J-12250.203170
G03 X124.329726 Y56.948738 Z-0.125000 I224.567086 J-3620.128965
G03 X107.796651 Y55.818426 Z-0.125000 I275.099930 J-4145.369000
G03 X91.280132 Y54.616316 Z-0.125000 I88.492420 J-1329.916471
G03 X89.781101 Y54.394301 Z-0.125000 I0.876348 J-11.088728
G03 X88.771106 Y53.747101 Z-0.125000 I0.396817 J-1.730938
G03 X88.360684 Y52.550084 Z-0.125000 I1.564680 J-1.205352
G01 X88.360684 Y52.550084 Z-0.125000
G00 Z28.000000

(Change tool to Default tool)

G00 Z28.000000
G00 X91.627471 Y240.754596

G01 Z-0.125000 F100.0(Penetrate)
G03 X91.887152 Y239.600688 Z-0.125000 I2.643995 J-0.011157 F400.000000
G03 X92.747718 Y238.416825 Z-0.125000 I3.653407 J1.751000
G03 X93.942107 Y237.682414 Z-0.125000 I2.085523 J2.053296
G03 X96.061383 Y237.357592 Z-0.125000 I2.083514 J6.517794
G03 X99.371477 Y237.501691 Z-0.125000 I-0.226235 J43.286744
G03 X103.479767 Y237.966085 Z-0.125000 I-5.488467 J66.958416
G02 X107.586349 Y238.448854 Z-0.125000 I11.225004 J-77.776115
G02 X110.120668 Y238.570514 Z-0.125000 I2.689488 J-29.567838
G02 X112.517701 Y238.384258 Z-0.125000 I0.075990 J-14.539557
G02 X113.156272 Y238.079550 Z-0.125000 I-0.200933 J-1.242565
G02 X113.571889 Y237.079294 Z-0.125000 I-3.318645 J-1.965407
G02 X114.268233 Y233.777307 Z-0.125000 I-36.248508 J-9.368736
G03 X114.974125 Y230.530365 Z-0.125000 I34.035254 J5.699136
G03 X115.797074 Y228.084385 Z-0.125000 I20.010661 J5.371148
G03 X117.148988 Y226.241206 Z-0.125000 I4.346918 J1.770946
G03 X118.682370 Y225.692947 Z-0.125000 I1.520924 J1.835326
G03 X120.341855 Y226.446630 Z-0.125000 I-0.011652 J2.229453
G03 X121.096421 Y228.428388 Z-0.125000 I-2.258506 J1.994472
G03 X121.020253 Y229.625385 Z-0.125000 I-8.856319 J0.037371
G03 X120.478957 Y233.114263 Z-0.125000 I-77.417259 J-10.224776
G02 X119.870983 Y236.667930 Z-0.125000 I76.245987 J14.873272
G02 X119.656940 Y238.683246 Z-0.125000 I24.806650 J3.653702
G02 X119.942617 Y238.729607 Z-0.125000 I0.501929 J-2.189568
G02 X127.286217 Y239.420474 Z-0.125000 I135.730210 J-1403.375374
G03 X133.148251 Y239.981668 Z-0.125000 I-66.328889 J723.745158
G03 X138.662199 Y240.556480 Z-0.125000 I-62.896095 J630.071548
G02 X144.104839 Y241.202075 Z-0.125000 I110.554555 J-908.756608
G02 X146.717107 Y241.486455 Z-0.125000 I22.731000 J-196.662975
G02 X149.263600 Y241.690847 Z-0.125000 I5.465657 J-52.130747
G02 X151.731594 Y241.766078 Z-0.125000 I2.723587 J-48.828816
G03 X157.523394 Y242.474821 Z-0.125000 I-0.131143 J25.091153
G03 X159.720650 Y243.707520 Z-0.125000 I-1.103036 J4.540763
G03 X160.209045 Y244.617478 Z-0.125000 I-1.824242 J1.565158
G03 X160.438706 Y246.245423 Z-0.125000 I-5.836451 J1.653542
G03 X159.564627 Y248.272045 Z-0.125000 I-2.759487 J0.011644
G03 X157.343135 Y249.142591 Z-0.125000 I-2.204629 J-2.356136
G03 X156.007766 Y249.051653 Z-0.125000 I0.055759 J-10.668678
G03 X147.308903 Y247.823073 Z-0.125000 I60.024161 J-456.406667
G02 X138.594092 Y246.728663 Z-0.125000 I-26.309537 J174.258129
G02 X128.656290 Y245.951683 Z-0.125000 I-22.641715 J225.651830
G01 X117.917893 Y245.388729 Z-0.125000
G01 X117.297948 Y248.996190 Z-0.125000
G03 X115.970207 Y253.239196 Z-0.125000 I-61.256158 J-16.839321
G03 X115.205115 Y254.941429 Z-0.125000 I-10.474411 J-3.684812
G03 X114.077669 Y256.213979 Z-0.125000 I-3.429711 J-1.902915
G03 X112.951802 Y256.575925 Z-0.125000 I-1.115930 J-1.539179
G03 X112.125772 Y256.369550 Z-0.125000 I0.009375 J-1.793838
G03 X111.252864 Y255.681018 Z-0.125000 I1.419234 J-2.696873
G03 X110.729640 Y254.692449 Z-0.125000 I1.823954 J-1.598121
G03 X110.462548 Y252.635908 Z-0.125000 I8.054248 J-2.091655
G03 X110.552153 Y251.123901 Z-0.125000 I11.950776 J-0.050428
G03 X111.008900 Y248.203076 Z-0.125000 I45.128658 J5.560924
G02 X111.484142 Y245.353981 Z-0.125000 I-573.379448 J-97.106331
G02 X111.559793 Y244.848669 Z-0.125000 I-17.765282 J-2.917997
G02 X110.283829 Y244.682456 Z-0.125000 I-4.118633 J26.636777
G02 X102.162085 Y243.850634 Z-0.125000 I-119.604301 J1127.726695
G03 X93.985580 Y242.953459 Z-0.125000 I34.502965 J-352.153860
G03 X92.906129 Y242.725707 Z-0.125000 I0.765491 J-6.300074
G03 X91.976557 Y241.925941 Z-0.125000 I0.898811 J-1.984800
G03 X91.627471 Y240.754596 Z-0.125000 I1.821395 J-1.180504
G01 X91.627471 Y240.754596 Z-0.125000
G00 Z28.000000

(Change tool to Default tool)

G00 Z28.000000
G00 X101.700809 Y33.859692

G01 Z-0.125000 F100.0(Penetrate)
G03 X101.948027 Y30.233953 Z-0.125000 I25.154728 J-0.106145 F400.000000
G03 X102.523819 Y28.035455 Z-0.125000 I9.740367 J1.376377
G02 X103.158862 Y25.848698 Z-0.125000 I-11.896136 J-4.640272
G02 X103.353508 Y23.796476 Z-0.125000 I-10.256360 J-2.008122
G03 X103.679746 Y20.622103 Z-0.125000 I14.991309 J-0.063258
G03 X105.153121 Y15.317406 Z-0.125000 I43.548208 J9.238515
G01 X107.178776 Y10.069164 Z-0.125000
G01 X118.902871 Y10.130439 Z-0.125000
G03 X128.632526 Y10.456436 Z-0.125000 I-0.900106 J172.222419
G03 X137.977376 Y11.308530 Z-0.125000 I-9.927955 J160.547350
G02 X147.314682 Y12.350481 Z-0.125000 I37.933268 J-297.575282
G02 X150.553875 Y12.513707 Z-0.125000 I3.427088 J-35.787833
G03 X153.991859 Y12.670918 Z-0.125000 I-0.222287 J42.531516
G03 X155.216237 Y12.917271 Z-0.125000 I-0.479167 J5.547234
G03 X156.169782 Y13.909479 Z-0.125000 I-0.909765 J1.828615
G03 X156.642272 Y16.093333 Z-0.125000 I-4.915748 J2.206591
G03 X156.291838 Y17.496692 Z-0.125000 I-2.935574 J0.012387
G03 X155.520963 Y18.177683 Z-0.125000 I-1.307919 J-0.703745
G03 X154.353535 Y18.488969 Z-0.125000 I-1.564644 J-3.523181
G03 X150.862329 Y18.660169 Z-0.125000 I-3.322674 J-32.074932
G03 X149.732505 Y18.637488 Z-0.125000 I0.198922 J-38.060897
G03 X144.433383 Y18.436046 Z-0.125000 I30.071662 J-860.866225
G01 X134.049437 Y17.812057 Z-0.125000
G01 X133.153638 Y23.001452 Z-0.125000
G03 X133.000047 Y23.821082 Z-0.125000 I-21.308519 J-3.568810
G03 X132.668579 Y25.342544 Z-0.125000 I-76.481923 J-15.865631
G03 X132.308247 Y26.858164 Z-0.125000 I-84.992113 J-19.405869
G03 X131.697331 Y29.266327 Z-0.125000 I-197.788317 J-48.894470
G03 X130.868417 Y31.675903 Z-0.125000 I-21.753146 J-6.135894
G03 X130.019506 Y33.375083 Z-0.125000 I-11.640912 J-4.754156
G03 X128.784629 Y34.750571 Z-0.125000 I-4.426199 J-2.731659
G03 X127.836570 Y35.072840 Z-0.125000 I-0.940052 J-1.209822
G03 X126.680169 Y34.242470 Z-0.125000 I0.006425 J-1.229355
G03 X125.834248 Y29.235684 Z-0.125000 I14.784346 J-5.072740
G03 X125.956471 Y25.063157 Z-0.125000 I62.307940 J-0.262919
G03 X126.363764 Y20.812861 Z-0.125000 I65.074061 J4.091198
G01 X126.773355 Y17.204300 Z-0.125000
G01 X124.511488 Y16.811435 Z-0.125000
G02 X121.742340 Y16.503732 Z-0.125000 I-4.234190 J25.491065
G02 X115.963512 Y16.324668 Z-0.125000 I-6.365623 J112.095836
G01 X111.937932 Y16.303629 Z-0.125000
G01 X110.622104 Y22.630276 Z-0.125000
G02 X110.213044 Y24.656208 Z-0.125000 I336.702456 J69.038491
G02 X109.792150 Y26.806358 Z-0.125000 I367.997058 J73.152127
G02 X109.335320 Y28.963446 Z-0.125000 I81.613593 J18.411114
G02 X109.101553 Y30.287670 Z-0.125000 I31.728957 J6.283912
G01 X108.548245 Y33.072343 Z-0.125000
G03 X108.255592 Y34.524490 Z-0.125000 I-64.719275 J-12.287408
G03 X108.062921 Y35.350548 Z-0.125000 I-21.794029 J-4.647772
G03 X107.837971 Y36.167776 Z-0.125000 I-20.101347 J-5.093515
G03 X107.574920 Y36.994269 Z-0.125000 I-21.775873 J-6.475599
G03 X107.253722 Y37.794618 Z-0.125000 I-7.505402 J-2.547457
G03 X107.014941 Y38.195522 Z-0.125000 I-2.095217 J-0.976362
G03 X106.639856 Y38.611783 Z-0.125000 I-3.569925 J-2.839671
G03 X106.242725 Y38.951736 Z-0.125000 I-2.696285 J-2.747844
G03 X105.786206 Y39.256110 Z-0.125000 I-1.292277 J-1.443691
G03 X105.324823 Y39.390868 Z-0.125000 I-0.643458 J-1.345851
G03 X104.757086 Y39.477741 Z-0.125000 I-0.961589 J-4.385638
G03 X103.984870 Y39.509655 Z-0.125000 I-0.728796 J-8.276070
G03 X102.631575 Y38.591912 Z-0.125000 I0.007672 J-1.467963
G03 X101.700809 Y33.859692 Z-0.125000 I11.838395 J-4.786102
G01 X101.700809 Y33.859692 Z-0.125000
G00 Z28.000000

(Change tool to Default tool)

G00 Z28.000000
G00 X117.487551 Y93.063728

G01 Z-0.125000 F100.0(Penetrate)
G03 X117.940532 Y87.458177 Z-0.125000 I33.175651 J-0.140175 F400.000000
G03 X119.072532 Y83.569878 Z-0.125000 I16.992577 J2.838119
G03 X121.069067 Y80.098157 Z-0.125000 I16.073400 J6.933623
G03 X125.742916 Y74.546545 Z-0.125000 I46.180871 J34.135996
G03 X132.712459 Y69.739311 Z-0.125000 I15.346650 J14.793773
G03 X140.829874 Y68.099493 Z-0.125000 I8.010880 J18.744097
G03 X145.236753 Y68.381918 Z-0.125000 I-0.196452 J37.588364
G03 X147.824498 Y68.961041 Z-0.125000 I-1.669837 J13.532556
G03 X150.163503 Y70.102189 Z-0.125000 I-4.229547 J11.636981
G03 X153.843580 Y72.728981 Z-0.125000 I-19.761230 J31.576298
G03 X157.500934 Y77.508384 Z-0.125000 I-7.811984 J9.767046
G03 X158.978890 Y84.538686 Z-0.125000 I-16.339425 J7.105485
G03 X158.278017 Y89.593832 Z-0.125000 I-18.032127 J0.076090
G03 X156.125419 Y94.469854 Z-0.125000 I-18.894754 J-5.428231
G03 X152.434245 Y98.463310 Z-0.125000 I-12.522951 J-7.872420
G03 X145.564861 Y102.331561 Z-0.125000 I-18.583619 J-24.967901
G03 X137.872856 Y104.705895 Z-0.125000 I-16.482571 J-39.750864
G03 X130.746282 Y105.422732 Z-0.125000 I-6.948792 J-33.299244
G03 X126.229379 Y105.030279 Z-0.125000 I0.145639 J-27.865895
G03 X123.042420 Y104.115394 Z-0.125000 I2.494168 J-14.696569
G03 X119.307132 Y100.664716 Z-0.125000 I2.726278 J-6.698165
G03 X117.487551 Y93.063728 Z-0.125000 I15.267182 J-7.673058
G01 X117.487551 Y93.063728 Z-0.125000
G00 Z28.000000

(Change tool to Default tool)

G00 Z28.000000
G00 X119.201554 Y164.483923

G01 Z-0.125000 F100.0(Penetrate)
G03 X120.159569 Y160.652176 Z-0.125000 I8.006739 J-0.033786 F400.000000
G03 X123.967180 Y155.639300 Z-0.125000 I17.904819 J9.647390
G03 X129.011354 Y151.603077 Z-0.125000 I22.955229 J23.517721
G03 X133.053234 Y149.732460 Z-0.125000 I8.519398 J13.106041
G03 X135.546092 Y149.227509 Z-0.125000 I4.828095 J17.429621
G03 X138.206002 Y149.062045 Z-0.125000 I2.556433 J19.633354
G03 X147.168620 Y150.564552 Z-0.125000 I-0.148258 J28.367126
G03 X153.199316 Y154.145808 Z-0.125000 I-5.430945 J16.013858
G03 X157.369503 Y159.746309 Z-0.125000 I-12.798523 J13.882734
G03 X158.684871 Y165.385778 Z-0.125000 I-11.666423 J5.694248
G03 X157.182455 Y172.312741 Z-0.125000 I-16.400681 J0.069206
G03 X151.965832 Y179.983987 Z-0.125000 I-25.529808 J-11.751518
G03 X150.029860 Y181.676297 Z-0.125000 I-13.619768 J-13.627258
G03 X147.178277 Y183.634408 Z-0.125000 I-21.055667 J-27.607783
G03 X144.068637 Y185.161090 Z-0.125000 I-10.519381 J-17.496231
G03 X142.525256 Y185.446892 Z-0.125000 I-1.521473 J-3.906053
G03 X141.416274 Y185.064974 Z-0.125000 I0.009558 J-1.828797
G03 X141.037664 Y184.297823 Z-0.125000 I0.596242 J-0.771264
G03 X141.281146 Y183.443241 Z-0.125000 I1.597801 J-0.006742
G03 X142.932453 Y181.268591 Z-0.125000 I12.858706 J8.049899
G03 X144.791207 Y179.280736 Z-0.125000 I63.930797 J57.915873
G03 X147.010241 Y177.044742 Z-0.125000 I81.144851 J78.310282
G02 X149.090553 Y174.765619 Z-0.125000 I-15.131043 J-15.900125
G02 X151.153871 Y171.809426 Z-0.125000 I-23.526920 J-18.619116
G02 X152.568927 Y168.604318 Z-0.125000 I-12.967986 J-7.640296
G02 X152.966502 Y165.927466 Z-0.125000 I-8.558311 J-2.639061
G02 X152.259798 Y162.715655 Z-0.125000 I-7.801443 J0.032920
G02 X149.829766 Y159.068868 Z-0.125000 I-12.597834 J5.761534
G02 X147.500079 Y156.880920 Z-0.125000 I-17.813583 J16.633300
G02 X145.647461 Y155.626830 Z-0.125000 I-7.624235 J9.267540
G02 X143.597615 Y154.879726 Z-0.125000 I-3.941641 J7.629110
G02 X141.052533 Y154.589157 Z-0.125000 I-2.606927 J11.542573
G01 X139.217100 Y154.579565 Z-0.125000
G01 X138.957818 Y160.088599 Z-0.125000
G03 X138.322919 Y166.579284 Z-0.125000 I-88.379756 J-5.368645
G03 X137.245974 Y172.750395 Z-0.125000 I-80.787151 J-10.918948
G03 X135.949568 Y177.324198 Z-0.125000 I-40.231894 J-8.932766
G03 X134.943654 Y179.388198 Z-0.125000 I-9.092088 J-3.154010
G03 X133.376481 Y180.784204 Z-0.125000 I-3.305457 J-2.133081
G03 X130.996474 Y181.331998 Z-0.125000 I-2.352185 J-4.775439
G03 X129.042244 Y180.992544 Z-0.125000 I0.031226 J-5.974726
G03 X126.256585 Y179.660954 Z-0.125000 I4.796448 J-13.613641
G03 X123.685931 Y177.790869 Z-0.125000 I9.401513 J-15.625371
G03 X122.005140 Y175.963292 Z-0.125000 I7.357210 J-8.452983
G03 X120.796133 Y174.050029 Z-0.125000 I13.393396 J-9.802027
G03 X120.223866 Y172.661430 Z-0.125000 I6.339559 J-3.424866
G03 X119.854424 Y171.236520 Z-0.125000 I7.679333 J-2.751400
G03 X119.428135 Y167.842391 Z-0.125000 I43.963817 J-7.245520
G03 X119.242406 Y165.622298 Z-0.125000 I69.531777 J-6.934704
G03 X119.201554 Y164.483923 Z-0.125000 I17.956800 J-1.214320
G01 X119.201554 Y164.483923 Z-0.125000
G00 Z28.000000

(Change tool to Default tool)

G00 Z28.000000
G00 X119.710628 Y285.126908

G01 Z-0.125000 F100.0(Penetrate)
G03 X120.006859 Y282.333021 Z-0.125000 I12.813377 J-0.054068 F400.000000
G03 X121.165335 Y278.482830 Z-0.125000 I25.601362 J5.603761
G03 X121.725913 Y277.092444 Z-0.125000 I713.822155 J286.991820
G03 X122.493987 Y275.195380 Z-0.125000 I1970.864042 J796.849678
G03 X123.205678 Y273.304253 Z-0.125000 I131.373565 J48.360540
G03 X123.611823 Y272.287875 Z-0.125000 I39.270085 J15.103007
G03 X123.995199 Y271.354401 Z-0.125000 I12.811903 J4.716357
G03 X124.590568 Y270.138037 Z-0.125000 I21.613371 J9.825129
G03 X125.215552 Y269.047617 Z-0.125000 I8.985697 J4.425918
G03 X125.713485 Y268.434743 Z-0.125000 I3.332266 J2.198605
G03 X126.311727 Y267.985056 Z-0.125000 I2.921122 J3.263339
G03 X127.122403 Y267.554229 Z-0.125000 I3.453605 J5.520439
G03 X127.920917 Y267.281637 Z-0.125000 I1.505158 J3.103257
G03 X128.886114 Y267.184249 Z-0.125000 I0.941188 J4.496333
G03 X130.044074 Y267.658913 Z-0.125000 I-0.008734 J1.671081
G03 X130.517884 Y268.776159 Z-0.125000 I-1.095948 J1.123869
G03 X130.325368 Y269.998840 Z-0.125000 I-3.875074 J0.016352
G03 X129.192440 Y272.823871 Z-0.125000 I-22.322968 J-7.312540
G02 X127.865566 Y275.698472 Z-0.125000 I56.300286 J27.730930
G02 X126.466017 Y279.143146 Z-0.125000 I80.148485 J34.570454
G02 X125.440438 Y282.738051 Z-0.125000 I21.719121 J8.139927
G02 X125.151278 Y285.725064 Z-0.125000 I14.632840 J2.924047
G02 X125.303631 Y286.555030 Z-0.125000 I2.391834 J-0.010093
G02 X125.722753 Y287.248541 Z-0.125000 I2.065141 J-0.774661
G02 X126.361610 Y287.786223 Z-0.125000 I2.189046 J-1.952581
G02 X127.775956 Y288.526347 Z-0.125000 I5.652701 J-9.080637
G02 X129.302842 Y289.010103 Z-0.125000 I3.159520 J-7.320899
G02 X132.440730 Y289.501495 Z-0.125000 I6.394150 J-30.566624
G02 X135.558124 Y289.783806 Z-0.125000 I5.426808 J-42.572162
G02 X140.213016 Y289.921314 Z-0.125000 I5.155620 J-95.669903
G03 X139.627690 Y289.092418 Z-0.125000 I2.790171 J-2.591394
G03 X139.285755 Y288.142563 Z-0.125000 I3.308332 J-1.727428
G02 X139.265476 Y288.087024 Z-0.125000 I-0.087202 J0.000368
G02 X138.647366 Y287.378982 Z-0.125000 I-16.594890 J13.863272
G03 X138.039323 Y286.670674 Z-0.125000 I2.420123 J-2.692676
G03 X137.439363 Y285.535872 Z-0.125000 I5.734018 J-3.757524
G03 X137.086443 Y284.362348 Z-0.125000 I4.702750 J-2.054114
G03 X136.932121 Y282.619873 Z-0.125000 I10.256156 J-1.786403
G03 X137.491782 Y278.715194 Z-0.125000 I13.503514 J-0.056980
G03 X139.508414 Y273.954338 Z-0.125000 I22.224645 J6.606514
G03 X142.050004 Y270.116399 Z-0.125000 I23.794237 J12.996679
G03 X144.004887 Y268.276926 Z-0.125000 I7.237035 J5.732590
G03 X146.392726 Y267.136138 Z-0.125000 I4.653283 J6.670568
G03 X149.366329 Y266.721566 Z-0.125000 I2.918836 J10.064282
G03 X154.336964 Y267.437060 Z-0.125000 I-0.095579 J18.287593
G03 X156.295642 Y268.720360 Z-0.125000 I-1.099985 J3.815285
G03 X157.041423 Y269.954548 Z-0.125000 I-4.175701 J3.365667
G03 X157.863776 Y272.339257 Z-0.125000 I-15.117309 J6.547258
G03 X158.380231 Y274.830759 Z-0.125000 I-24.121599 J6.299366
G03 X158.518940 Y276.587844 Z-0.125000 I-11.691891 J1.807006
G03 X158.067507 Y279.246319 Z-0.125000 I-7.858275 J0.033159
G03 X156.144712 Y283.290008 Z-0.125000 I-20.477322 J-7.258076
G03 X153.430407 Y287.034565 Z-0.125000 I-26.516195 J-16.364673
G03 X151.084504 Y289.280780 Z-0.125000 I-11.768692 J-9.942880
G03 X151.295474 Y289.295498 Z-0.125000 I-0.008584 J1.642354
G03 X152.074940 Y289.413588 Z-0.125000 I-3.237564 J24.001397
G02 X152.854125 Y289.524101 Z-0.125000 I2.535475 J-15.074633
G02 X153.205600 Y289.545280 Z-0.125000 I0.368225 J-3.183733
G02 X153.559377 Y289.608707 Z-0.125000 I6.483421 J-35.144579
G02 X154.336544 Y289.741715 Z-0.125000 I23.576928 J-135.423273
G03 X155.109538 Y289.890225 Z-0.125000 I-2.816998 J16.748425
G03 X155.537865 Y290.001408 Z-0.125000 I-1.141444 J5.277973
G02 X155.895944 Y290.113084 Z-0.125000 I1.383927 J-3.807522
G02 X156.526762 Y290.259992 Z-0.125000 I3.015205 J-11.519431
G03 X157.154152 Y290.477303 Z-0.125000 I-2.508823 J8.257416
G03 X157.518267 Y290.646221 Z-0.125000 I-1.168688 J2.996088
G02 X157.813654 Y290.884584 Z-0.125000 I2.387101 J-2.655966
G02 X158.225708 Y291.156748 Z-0.125000 I3.438809 J-4.758319
G03 X158.546535 Y291.499629 Z-0.125000 I-1.817238 J2.021895
G03 X158.723326 Y291.791962 Z-0.125000 I-1.105716 J0.868315
G03 X158.832385 Y292.179142 Z-0.125000 I-2.234478 J0.838343
G03 X158.868836 Y292.552967 Z-0.125000 I-1.986144 J0.382360
G03 X158.693918 Y293.103995 Z-0.125000 I-0.942848 J0.003979
G03 X157.745378 Y294.130477 Z-0.125000 I-4.494572 J-3.201795
G03 X156.453884 Y294.904710 Z-0.125000 I-3.048028 J-3.620113
G03 X154.924864 Y295.257028 Z-0.125000 I-1.900825 J-4.755324
G02 X149.972002 Y294.907349 Z-0.125000 I-9.724046 J102.480737
G02 X141.008219 Y294.612723 Z-0.125000 I-15.386413 J331.614014
G03 X131.480567 Y294.343116 Z-0.125000 I9.021947 J-487.311846
G03 X129.494937 Y294.173352 Z-0.125000 I0.803391 J-21.094004
G03 X127.570278 Y293.782957 Z-0.125000 I0.999336 J-9.866274
G03 X125.111098 Y292.820474 Z-0.125000 I5.283540 J-17.122528
G03 X121.073184 Y289.407980 Z-0.125000 I4.470888 J-9.385509
G03 X119.710628 Y285.126908 Z-0.125000 I6.143681 J-4.312746
G01 X119.710628 Y285.126908 Z-0.125000
G00 Z28.000000

(Change tool to Default tool)

G00 Z28.000000
G00 X119.571703 Y118.295885

G01 Z-0.125000 F100.0(Penetrate)
G03 X119.720601 Y117.598972 Z-0.125000 I1.672360 J-0.007057 F400.000000
G03 X120.201007 Y116.906320 Z-0.125000 I2.130508 J0.964739
G03 X121.286473 Y116.087616 Z-0.125000 I3.229627 J3.153028
G03 X122.526051 Y115.651397 Z-0.125000 I2.000747 J3.706078
G03 X123.804210 Y115.486305 Z-0.125000 I1.938866 J9.980524
G03 X126.127784 Y115.416805 Z-0.125000 I2.150613 J33.024148
G03 X137.341764 Y115.782249 Z-0.125000 I-1.072132 J205.137082
G03 X153.890497 Y117.082395 Z-0.125000 I-26.905649 J448.434294
G03 X154.102105 Y117.088999 Z-0.125000 I-0.021304 J4.076282
G03 X155.091014 Y117.151555 Z-0.125000 I-4.714575 J82.377568
G02 X156.011607 Y117.262567 Z-0.125000 I2.961696 J-20.687937
G02 X156.434098 Y117.284355 Z-0.125000 I0.446377 J-4.548610
G02 X156.787993 Y117.346070 Z-0.125000 I3.323857 J-18.014440
G02 X157.635153 Y117.481154 Z-0.125000 I14.719925 J-89.590263
G03 X158.400670 Y117.707421 Z-0.125000 I-2.259701 J9.053209
G03 X158.766891 Y117.868112 Z-0.125000 I-0.779110 J2.273276
G03 X159.116261 Y118.067796 Z-0.125000 I-4.278561 J7.891307
G03 X159.616624 Y118.379387 Z-0.125000 I-9.926954 J16.498602
G03 X160.040461 Y118.753785 Z-0.125000 I-1.016028 J1.577298
G03 X160.255024 Y119.142974 Z-0.125000 I-0.893075 J0.746098
G03 X160.412098 Y119.662163 Z-0.125000 I-2.384346 J1.004712
G03 X160.472245 Y120.283547 Z-0.125000 I-3.327397 J0.635678
G03 X159.969835 Y121.503742 Z-0.125000 I-1.715359 J0.007238
G03 X158.079839 Y122.677565 Z-0.125000 I-3.455868 J-3.455892
G03 X155.713457 Y123.334641 Z-0.125000 I-6.260760 J-17.957734
G03 X148.624568 Y124.655463 Z-0.125000 I-33.526145 J-160.252222
G02 X143.329524 Y126.259659 Z-0.125000 I3.466298 J20.982261
G02 X136.713105 Y130.040703 Z-0.125000 I16.626801 J36.774646
G02 X130.968978 Y135.041458 Z-0.125000 I23.112521 J32.347615
G02 X128.767619 Y138.424767 Z-0.125000 I8.106383 J7.682255
G03 X127.253033 Y140.844605 Z-0.125000 I-7.751986 J-3.168088
G03 X126.167005 Y141.326368 Z-0.125000 I-1.078461 J-0.966165
G03 X125.759599 Y141.260314 Z-0.125000 I0.006964 J-1.332372
G03 X125.175765 Y141.003038 Z-0.125000 I1.005536 J-3.072938
G03 X124.683935 Y140.661185 Z-0.125000 I0.681886 J-1.505770
G03 X124.040827 Y139.857659 Z-0.125000 I3.445595 J-3.416829
G03 X123.571829 Y138.912401 Z-0.125000 I2.651970 J-1.904776
G03 X123.396815 Y137.764083 Z-0.125000 I3.789481 J-1.165046
G03 X124.035813 Y134.891391 Z-0.125000 I6.650610 J-0.028063
G03 X126.896171 Y130.370448 Z-0.125000 I19.845140 J9.390504
G03 X130.671608 Y126.477764 Z-0.125000 I22.568861 J18.111887
G03 X134.708654 Y123.696702 Z-0.125000 I15.389446 J18.018970
G02 X136.320549 Y122.741606 Z-0.125000 I-55.739197 J-95.907593
G02 X137.102996 Y122.251619 Z-0.125000 I-14.800728 J-24.504610
G02 X134.406733 Y121.721431 Z-0.125000 I-14.620627 J67.231893
G02 X129.681679 Y120.945758 Z-0.125000 I-36.144116 J205.394637
G02 X124.868407 Y120.398694 Z-0.125000 I-14.278859 J104.182568
G02 X122.263030 Y120.274372 Z-0.125000 I-2.765973 J30.603423
G03 X121.122559 Y120.100889 Z-0.125000 I0.020759 J-3.971934
G03 X120.355064 Y119.692834 Z-0.125000 I0.665950 J-2.178364
G03 X119.763621 Y119.023472 Z-0.125000 I1.258457 J-1.707941
G03 X119.571703 Y118.295876 Z-0.125000 I1.307250 J-0.733922
G01 X119.571703 Y118.295885 Z-0.125000
G00 Z28.000000

(Change tool to Default tool)

G00 Z28.000000
G00 X120.317116 Y211.375221

G01 Z-0.125000 F100.0(Penetrate)
G01 X120.925564 Y205.043027 Z-0.125000 F400.000000
G03 X122.960927 Y200.222902 Z-0.125000 I15.162691 J3.562860
G03 X126.608659 Y196.142166 Z-0.125000 I14.377973 J9.181634
G03 X131.259471 Y193.169437 Z-0.125000 I15.598413 J19.279153
G03 X133.869159 Y192.569412 Z-0.125000 I2.579154 J5.242338
G03 X136.375840 Y193.252727 Z-0.125000 I-0.026320 J5.035980
G03 X139.250391 Y195.701404 Z-0.125000 I-5.347626 J9.189270
G03 X141.530975 Y198.952482 Z-0.125000 I-20.499713 J16.805690
G03 X142.237067 Y200.720572 Z-0.125000 I-5.238807 J3.117167
G02 X142.600954 Y201.899968 Z-0.125000 I9.240136 J-2.205083
G02 X143.665507 Y204.466371 Z-0.125000 I44.885349 J-17.114608
G03 X144.689546 Y207.022844 Z-0.125000 I-71.269758 J30.031660
G03 X145.450607 Y209.162953 Z-0.125000 I-49.338007 J18.750861
G02 X146.026492 Y210.400354 Z-0.125000 I5.257093 J-1.693938
G02 X146.802236 Y211.323119 Z-0.125000 I3.671474 J-2.299050
G02 X147.770761 Y212.139116 Z-0.125000 I6.420958 J-6.638398
G02 X148.289573 Y212.409294 Z-0.125000 I1.144863 J-1.565221
G02 X148.791457 Y212.567840 Z-0.125000 I1.468527 J-3.775052
G02 X149.067852 Y212.602036 Z-0.125000 I0.282584 J-1.149930
G02 X150.660585 Y212.273360 Z-0.125000 I0.020509 J-3.924071
G02 X153.931942 Y210.474355 Z-0.125000 I-8.270487 J-18.913125
G02 X156.361291 Y208.045014 Z-0.125000 I-4.918822 J-7.348187
G02 X157.018234 Y205.866124 Z-0.125000 I-3.230496 J-2.162486
G02 X156.732291 Y203.910384 Z-0.125000 I-7.034262 J0.029682
G02 X155.729416 Y201.488442 Z-0.125000 I-11.834639 J3.481869
G02 X154.165571 Y199.366680 Z-0.125000 I-10.103134 J5.809318
G02 X152.891255 Y198.432629 Z-0.125000 I-3.068303 J2.849764
G03 X150.898007 Y196.913656 Z-0.125000 I2.855960 J-5.814976
G03 X150.408878 Y195.632086 Z-0.125000 I1.455864 J-1.289777
G03 X150.618122 Y194.927080 Z-0.125000 I1.274200 J-0.005377
G03 X151.320717 Y194.243997 Z-0.125000 I1.891429 J1.242586
G03 X152.213248 Y193.836534 Z-0.125000 I1.695875 J2.533485
G03 X153.366159 Y193.684969 Z-0.125000 I1.130489 J4.138584
G03 X155.141381 Y193.935320 Z-0.125000 I-0.034840 J6.666218
G03 X157.253980 Y194.781841 Z-0.125000 I-2.916674 J10.338317
G03 X159.051072 Y196.055523 Z-0.125000 I-4.622305 J8.426438
G03 X160.019619 Y197.265702 Z-0.125000 I-3.162300 J3.523565
G03 X160.716744 Y199.033532 Z-0.125000 I-9.812378 J4.890779
G03 X161.452601 Y202.088075 Z-0.125000 I-28.727701 J8.536571
G03 X161.981080 Y205.271305 Z-0.125000 I-42.298746 J8.657918
G03 X162.109434 Y207.222699 Z-0.125000 I-15.790786 J2.018567
G03 X161.553019 Y209.716534 Z-0.125000 I-5.757952 J0.024297
G03 X159.589097 Y212.531241 Z-0.125000 I-9.384902 J-4.455680
G03 X156.946228 Y214.838789 Z-0.125000 I-13.814525 J-13.154747
G03 X154.802789 Y215.989295 Z-0.125000 I-5.369606 J-7.431882
G03 X152.068660 Y216.761777 Z-0.125000 I-5.128796 J-12.928060
G03 X148.804035 Y217.036343 Z-0.125000 I-3.168448 J-18.127557
G03 X145.323135 Y216.307778 Z-0.125000 I0.046526 J-8.902003
G03 X142.860148 Y214.471128 Z-0.125000 I2.632734 J-6.100339
G03 X141.100766 Y211.719433 Z-0.125000 I9.821946 J-8.218273
G03 X138.513270 Y205.262579 Z-0.125000 I52.565528 J-24.811793
G02 X137.625374 Y202.895823 Z-0.125000 I-27.687573 J9.037147
G02 X136.730308 Y201.072839 Z-0.125000 I-17.279674 J7.352915
G02 X135.673079 Y199.402041 Z-0.125000 I-22.401712 J13.005217
G02 X135.024691 Y198.592666 Z-0.125000 I-5.852754 J4.024230
G02 X134.195982 Y198.016833 Z-0.125000 I-2.708132 J3.013168
G02 X133.679195 Y197.888277 Z-0.125000 I-0.522675 J0.998117
G02 X132.919057 Y198.108613 Z-0.125000 I-0.007297 J1.396191
G02 X130.931472 Y199.647825 Z-0.125000 I7.586722 J11.849628
G02 X129.146817 Y201.562090 Z-0.125000 I9.677021 J10.810858
G02 X127.208734 Y204.443252 Z-0.125000 I20.210953 J15.687813
G02 X125.800098 Y207.649536 Z-0.125000 I12.764913 J7.520659
G02 X125.398427 Y210.388118 Z-0.125000 I8.868261 J2.699466
G02 X125.839352 Y212.274195 Z-0.125000 I4.332557 J-0.018282
G02 X127.108333 Y213.881973 Z-0.125000 I4.349959 J-2.128640
G03 X128.410904 Y215.494595 Z-0.125000 I-4.370186 J4.862329
G03 X128.745439 Y216.740986 Z-0.125000 I-2.194353 J1.257061
G03 X128.249526 Y217.885146 Z-0.125000 I-1.552731 J0.006552
G03 X126.985016 Y218.378057 Z-0.125000 I-1.254874 J-1.350805
G03 X125.815430 Y218.079804 Z-0.125000 I0.013032 J-2.493470
G03 X122.950350 Y216.203868 Z-0.125000 I9.502375 J-17.638643
G03 X121.370986 Y214.767396 Z-0.125000 I9.307919 J-11.820288
G03 X120.823024 Y213.974906 Z-0.125000 I2.232788 J-2.129535
G03 X120.481733 Y213.044176 Z-0.125000 I2.730494 J-1.529187
G03 X120.317116 Y211.375221 Z-0.125000 I8.759765 J-1.706613
G01 X120.317116 Y211.375221 Z-0.125000
G00 Z28.000000

(Change tool to Default tool)

G00 Z28.000000
G00 X124.371697 Y167.931123

G01 Z-0.125000 F100.0(Penetrate)
G02 X124.514195 Y169.481221 Z-0.125000 I8.911310 J-0.037603 F400.000000
G02 X124.806679 Y170.339908 Z-0.125000 I3.003079 J-0.543744
G02 X125.309117 Y171.180904 Z-0.125000 I4.892927 J-2.352611
G02 X126.936948 Y173.266244 Z-0.125000 I31.533101 J-22.936936
G02 X129.368702 Y175.875667 Z-0.125000 I25.609608 J-21.428117
G02 X129.844161 Y176.069004 Z-0.125000 I0.479066 J-0.496835
G02 X130.784800 Y175.581774 Z-0.125000 I0.005959 J-1.140103
G02 X131.740277 Y173.354234 Z-0.125000 I-4.891982 J-3.417049
G02 X133.666778 Y162.426280 Z-0.125000 I-140.419100 J-30.388422
G02 X134.068875 Y156.326556 Z-0.125000 I-43.269136 J-5.915445
G02 X134.039005 Y155.505671 Z-0.125000 I-12.776119 J0.053911
G02 X133.994214 Y155.247767 Z-0.125000 I-1.264640 J0.086794
G02 X132.611799 Y155.720229 Z-0.125000 I0.089641 J2.520975
G02 X127.164160 Y160.154587 Z-0.125000 I34.111814 J47.470010
G02 X125.601820 Y161.918965 Z-0.125000 I8.358234 J8.975043
G02 X124.916988 Y163.246719 Z-0.125000 I3.982284 J2.894481
G02 X124.546898 Y164.797167 Z-0.125000 I6.331316 J2.330671
G02 X124.371707 Y167.931123 Z-0.125000 I25.970233 J3.023631
G01 X124.371697 Y167.931123 Z-0.125000
G00 Z28.000000

(Change tool to Default tool)

G00 Z28.000000
G00 X124.129776 Y93.984473

G01 Z-0.125000 F100.0(Penetrate)
G02 X124.577434 Y96.363635 Z-0.125000 I6.696242 J-0.028256 F400.000000
G02 X125.987595 Y98.809063 Z-0.125000 I8.513527 J-3.280042
G02 X126.434030 Y99.294967 Z-0.125000 I5.459551 J-4.568040
G02 X126.695841 Y99.510120 Z-0.125000 I1.278636 J-1.289049
G02 X126.931139 Y99.657922 Z-0.125000 I0.544785 J-0.606091
G02 X127.474659 Y99.830502 Z-0.125000 I1.320601 J-3.216910
G02 X128.050171 Y99.964117 Z-0.125000 I0.949655 J-2.784157
G02 X129.028361 Y100.029145 Z-0.125000 I1.020107 J-7.955355
G02 X138.101088 Y98.898256 Z-0.125000 I0.185390 J-35.471807
G02 X145.819335 Y95.683065 Z-0.125000 I-7.428660 J-28.704548
G02 X151.659154 Y90.505273 Z-0.125000 I-10.444764 J-17.662364
G02 X153.124824 Y86.154371 Z-0.125000 I-5.636126 J-4.320935
G02 X152.214164 Y81.394957 Z-0.125000 I-13.183218 J0.055629
G02 X149.839387 Y77.776350 Z-0.125000 I-9.807847 J3.848032
G02 X146.146698 Y75.406960 Z-0.125000 I-7.630762 J7.830304
G02 X141.351821 Y74.500487 Z-0.125000 I-4.865476 J12.601687
G02 X137.921718 Y74.894979 Z-0.125000 I-0.075536 J14.452811
G02 X134.860239 Y76.049945 Z-0.125000 I3.009580 J12.612549
G02 X132.031077 Y77.944088 Z-0.125000 I8.408877 J15.619752
G02 X128.244737 Y81.464711 Z-0.125000 I26.024234 J31.784765
G02 X126.458536 Y83.559220 Z-0.125000 I20.489632 J19.282487
G02 X125.715837 Y84.744046 Z-0.125000 I5.700611 J4.398577
G02 X125.178805 Y86.120222 Z-0.125000 I5.749125 J3.036383
G02 X124.812561 Y88.161351 Z-0.125000 I12.441047 J3.285744
G03 X124.671338 Y89.680508 Z-0.125000 I-181.810460 J-16.135189
G03 X124.541789 Y90.947501 Z-0.125000 I-126.231945 J-12.267032
G02 X124.345580 Y92.277224 Z-0.125000 I89.051609 J13.819441
G02 X124.267535 Y92.908641 Z-0.125000 I19.614398 J2.744922
G02 X124.153237 Y93.606885 Z-0.125000 I10.230504 J2.033141
G02 X124.129776 Y93.984473 Z-0.125000 I2.832726 J0.365536
G01 X124.129776 Y93.984473 Z-0.125000
G00 Z28.000000

(Change tool to Default tool)

G00 Z28.000000
G00 X142.435407 Y281.444452

G01 Z-0.125000 F100.0(Penetrate)
G02 X142.640396 Y284.003441 Z-0.125000 I16.968974 J-0.071604 F400.000000
G02 X143.090288 Y285.628297 Z-0.125000 I7.291599 J-1.144192
G02 X143.833607 Y287.203516 Z-0.125000 I11.668931 J-4.543384
G02 X144.228972 Y287.661568 Z-0.125000 I1.318471 J-0.738375
G02 X144.744713 Y287.984529 Z-0.125000 I1.905924 J-2.470327
G02 X145.006004 Y288.046677 Z-0.125000 I0.264392 J-0.531242
G02 X145.496816 Y287.836702 Z-0.125000 I-0.096765 J-0.904805
G02 X147.539705 Y285.904967 Z-0.125000 I-16.369645 J-19.357658
G03 X149.613877 Y284.071259 Z-0.125000 I11.314153 J10.707899
G03 X150.356214 Y283.829476 Z-0.125000 I0.735853 J0.998788
G01 X151.127820 Y282.440651 Z-0.125000
G02 X151.786374 Y280.969622 Z-0.125000 I-25.929880 J-12.491273
G02 X152.595636 Y278.900513 Z-0.125000 I-51.064457 J-21.164948
G02 X153.213189 Y276.787006 Z-0.125000 I-15.106129 J-5.560889
G02 X153.358414 Y275.419581 Z-0.125000 I-6.116382 J-1.341003
G02 X153.239546 Y274.557090 Z-0.125000 I-3.289216 J0.013879
G02 X152.711273 Y273.072573 Z-0.125000 I-10.528470 J2.910356
G02 X152.158186 Y272.168012 Z-0.125000 I-7.031262 J3.677839
G02 X151.858605 Y271.865782 Z-0.125000 I-1.055359 J0.746518
G02 X151.418509 Y271.745388 Z-0.125000 I-0.597447 J1.319365
G02 X150.022358 Y271.665662 Z-0.125000 I-1.466708 J13.420439
G02 X149.191770 Y271.753627 Z-0.125000 I-0.019750 J3.778852
G02 X148.046507 Y272.099274 Z-0.125000 I1.671431 J7.608252
G02 X146.965958 Y272.620904 Z-0.125000 I2.722225 J7.019047
G02 X145.582026 Y273.542142 Z-0.125000 I7.269865 J12.421287
G02 X144.432664 Y274.699346 Z-0.125000 I3.424243 J4.550430
G02 X143.334599 Y276.571377 Z-0.125000 I8.098135 J6.008126
G02 X142.680215 Y278.709842 Z-0.125000 I8.997345 J3.922600
G02 X142.435407 Y281.444452 Z-0.125000 I14.457945 J2.672569
G01 X142.435407 Y281.444452 Z-0.125000
G00 Z28.000000

(End cutting path id: text46063)


(Pass at depth -2.0)

(Footer)
M5
G00 X0.0000 Y0.0000
M2
(Using default footer. To add your own footer create file "footer" in the output dir.)
(end)
%