%
(Header)
(Generated by gcodetools from Inkscape.)
(Using default header. To add your own header create file "header" in the output dir.)
M3
(Header end.)
G21 (All units in mm)

(Pass at depth -1.0)
(Start cutting path id: text2011)
(Change tool to Default tool)

G00 Z28.000000
G00 X-12.347504 Y200.578393

G01 Z-0.125000 F100.0(Penetrate)
G03 X-12.054987 Y199.446076 Z-0.125000 I2.542309 J0.052824 F400.000000
G03 X-11.132952 Y198.268726 Z-0.125000 I3.704534 J1.951467
G03 X-9.887620 Y197.545909 Z-0.125000 I2.146583 J2.264127
G03 X-7.690027 Y197.232856 Z-0.125000 I2.123763 J7.038620
G03 X-4.276067 Y197.394181 Z-0.125000 I-0.461695 J45.974076
G03 X-0.053248 Y197.876980 Z-0.125000 I-6.085964 J71.940027
G02 X4.166790 Y198.376211 Z-0.125000 I11.887989 J-82.404291
G02 X6.779990 Y198.509957 Z-0.125000 I2.932998 J-31.710671
G02 X9.256270 Y198.337238 Z-0.125000 I0.156589 J-15.592602
G02 X9.919561 Y198.038472 Z-0.125000 I-0.200048 J-1.329799
G02 X10.374998 Y197.043610 Z-0.125000 I-3.245256 J-2.087321
G02 X11.174555 Y193.781557 Z-0.125000 I-34.514568 J-10.188830
G03 X11.983083 Y190.570611 Z-0.125000 I32.662445 J6.517254
G03 X12.895725 Y188.142960 Z-0.125000 I19.640648 J5.998262
G03 X14.322680 Y186.328782 Z-0.125000 I4.361631 J1.962391
G03 X15.928645 Y185.787152 Z-0.125000 I1.580106 J2.033403
G03 X17.632274 Y186.562563 Z-0.125000 I-0.023200 J2.310170
G03 X18.350903 Y188.513661 Z-0.125000 I-2.128704 J1.891936
G03 X18.242612 Y189.696994 Z-0.125000 I-8.434629 J-0.175256
G03 X17.596560 Y193.152861 Z-0.125000 I-75.214724 J-12.272605
G02 X16.878615 Y196.675466 Z-0.125000 I74.854522 J17.090610
G02 X16.607007 Y198.670000 Z-0.125000 I23.426132 J4.205842
G02 X16.899927 Y198.717489 Z-0.125000 I0.526230 J-2.318769
G02 X24.458077 Y199.442018 Z-0.125000 I137.341447 J-1392.934173
G03 X30.490871 Y200.028698 Z-0.125000 I-72.513788 J776.966007
G03 X36.163006 Y200.626949 Z-0.125000 I-67.445244 J666.650175
G02 X41.757495 Y201.294950 Z-0.125000 I118.637470 J-969.823680
G02 X44.443997 Y201.590397 Z-0.125000 I24.341264 J-208.973564
G02 X47.063847 Y201.806228 Z-0.125000 I5.905628 J-55.676685
G02 X49.608928 Y201.893765 Z-0.125000 I3.070483 J-52.230269
G03 X55.592258 Y202.631340 Z-0.125000 I-0.269369 J26.822824
G03 X57.801540 Y203.859292 Z-0.125000 I-1.096399 J4.574000
G03 X58.280786 Y204.765967 Z-0.125000 I-1.732124 J1.495553
G03 X58.474748 Y206.378076 Z-0.125000 I-5.601630 J1.491687
G03 X57.545730 Y208.370501 Z-0.125000 I-2.722356 J-0.056565
G03 X55.210924 Y209.234580 Z-0.125000 I-2.299715 J-2.627554
G03 X53.834019 Y209.137494 Z-0.125000 I0.114908 J-11.442162
G03 X44.896654 Y207.876533 Z-0.125000 I62.464313 J-475.034186
G02 X35.942384 Y206.746348 Z-0.125000 I-27.986869 J185.698671
G02 X25.706920 Y205.923247 Z-0.125000 I-24.456666 J240.072889
G01 X14.648098 Y205.309175 Z-0.125000
G01 X13.919396 Y208.884327 Z-0.125000
G03 X12.447108 Y213.076294 Z-0.125000 I-59.390843 J-18.504519
G03 X11.613465 Y214.765503 Z-0.125000 I-10.333452 J-4.049360
G03 X10.425232 Y216.018002 Z-0.125000 I-3.452669 J-2.085631
G03 X9.246949 Y216.373475 Z-0.125000 I-1.157575 J-1.706446
G03 X8.394121 Y216.161484 Z-0.125000 I0.019062 J-1.898127
G03 X7.519273 Y215.478916 Z-0.125000 I1.382939 J-2.674445
G03 X7.005027 Y214.493453 Z-0.125000 I1.739619 J-1.534694
G03 X6.781853 Y212.456457 Z-0.125000 I7.684874 J-1.872682
G03 X6.910574 Y210.960639 Z-0.125000 I11.542485 J0.239831
G03 X7.452823 Y208.064857 Z-0.125000 I42.589717 J6.476462
G02 X8.014446 Y205.243654 Z-0.125000 I-601.190122 J-121.146818
G02 X8.105106 Y204.743515 Z-0.125000 I-16.808180 J-3.305081
G02 X6.794302 Y204.571722 Z-0.125000 I-4.436354 J28.763296
G02 X-1.561320 Y203.701751 Z-0.125000 I-116.927200 J1082.464960
G03 X-9.971859 Y202.769756 Z-0.125000 I37.223185 J-374.326014
G03 X-11.075872 Y202.538818 Z-0.125000 I0.809662 J-6.624987
G03 X-12.018482 Y201.733564 Z-0.125000 I0.887377 J-1.993067
G03 X-12.347504 Y200.578393 Z-0.125000 I1.714288 J-1.112714
G01 X-12.347504 Y200.578393 Z-0.125000
G00 Z28.000000

(Change tool to Default tool)

G00 Z28.000000
G00 X-4.711802 Y173.032016

G01 Z-0.125000 F100.0(Penetrate)
G03 X-4.511791 Y172.227718 Z-0.125000 I1.873713 J0.038932 F400.000000
G03 X-3.799221 Y171.219284 Z-0.125000 I3.727680 J1.878049
G03 X-2.811702 Y170.559162 Z-0.125000 I2.268679 J2.325153
G03 X-1.520447 Y170.239203 Z-0.125000 I1.621483 J3.778272
G03 X0.400011 Y170.578789 Z-0.125000 I-0.059553 J5.936951
G03 X1.950135 Y171.467182 Z-0.125000 I-1.660312 J4.693595
G03 X3.001222 Y172.808310 Z-0.125000 I-3.165670 J3.563491
G03 X3.281173 Y173.992572 Z-0.125000 I-2.151197 J1.133748
G03 X2.930733 Y175.047983 Z-0.125000 I-1.882282 J-0.039110
G03 X1.856216 Y175.987272 Z-0.125000 I-2.524711 J-1.803938
G03 X0.407459 Y176.526095 Z-0.125000 I-2.781242 J-5.260969
G03 X-1.292131 Y176.710183 Z-0.125000 I-1.626639 J-7.080126
G03 X-2.697853 Y176.335482 Z-0.125000 I0.029472 J-2.934762
G03 X-3.809366 Y175.301604 Z-0.125000 I1.572535 J-2.805045
G03 X-4.561202 Y173.862465 Z-0.125000 I6.664671 J-4.397717
G03 X-4.711802 Y173.032016 Z-0.125000 I1.971233 J-0.786360
G01 X-4.711802 Y173.032016 Z-0.125000
G00 Z28.000000

(Change tool to Default tool)

G00 Z28.000000
G00 X-5.893434 Y229.901067

G01 Z-0.125000 F100.0(Penetrate)
G03 X-5.693419 Y229.096749 Z-0.125000 I1.873764 J0.038933 F400.000000
G03 X-4.980852 Y228.088319 Z-0.125000 I3.727647 J1.878024
G03 X-3.993355 Y227.426653 Z-0.125000 I2.283791 J2.340703
G03 X-2.702015 Y227.105160 Z-0.125000 I1.619573 J3.751123
G03 X-0.781557 Y227.444760 Z-0.125000 I-0.059624 J5.937124
G03 X0.768567 Y228.333154 Z-0.125000 I-1.660333 J4.693622
G03 X1.819880 Y229.675942 Z-0.125000 I-3.159729 J3.556803
G03 X2.099541 Y230.861607 Z-0.125000 I-2.158760 J1.134999
G03 X1.749095 Y231.917027 Z-0.125000 I-1.882287 J-0.039110
G03 X0.674584 Y232.856306 Z-0.125000 I-2.524709 J-1.803954
G03 X-0.774173 Y233.395129 Z-0.125000 I-2.781242 J-5.260969
G03 X-2.473762 Y233.579218 Z-0.125000 I-1.626639 J-7.080126
G03 X-3.879480 Y233.204523 Z-0.125000 I0.029473 J-2.934787
G03 X-4.990998 Y232.170638 Z-0.125000 I1.572478 J-2.804986
G03 X-5.742837 Y230.731495 Z-0.125000 I6.664735 J-4.397759
G03 X-5.893434 Y229.901067 Z-0.125000 I1.971179 J-0.786342
G01 X-5.893434 Y229.901067 Z-0.125000
G00 Z28.000000

(Change tool to Default tool)

G00 Z28.000000
G00 X2.059518 Y148.743527

G01 Z-0.125000 F100.0(Penetrate)
G03 X2.655707 Y142.207407 Z-0.125000 I46.783395 J0.972071 F400.000000
G03 X3.559848 Y139.526368 Z-0.125000 I8.547126 J1.389421
G03 X6.501960 Y135.425406 Z-0.125000 I16.731674 J8.897791
G03 X11.306043 Y131.310497 Z-0.125000 I21.624261 J20.384145
G03 X16.790419 Y128.422038 Z-0.125000 I14.382774 J20.657988
G03 X20.852159 Y127.701215 Z-0.125000 I3.949546 J10.451070
G03 X23.605903 Y128.583206 Z-0.125000 I-0.049141 J4.893279
G03 X29.609338 Y133.819235 Z-0.125000 I-21.294424 J30.475061
G03 X34.319671 Y140.283138 Z-0.125000 I-28.360611 J25.614955
G03 X35.095793 Y143.296718 Z-0.125000 I-4.996856 J2.893629
G02 X35.493394 Y144.995664 Z-0.125000 I6.855501 J-0.708381
G02 X37.234980 Y149.035438 Z-0.125000 I41.059184 J-15.305730
G02 X38.809876 Y152.043063 Z-0.125000 I38.459241 J-18.222421
G02 X39.342606 Y152.697335 Z-0.125000 I2.279564 J-1.312081
G02 X40.076294 Y153.113479 Z-0.125000 I1.138543 J-1.152480
G02 X41.879085 Y153.351579 Z-0.125000 I1.878265 J-7.277391
G02 X44.522917 Y153.179038 Z-0.125000 I0.177174 J-17.627087
G02 X45.603080 Y152.824623 Z-0.125000 I-0.452589 J-3.202607
G02 X46.524387 Y152.137998 Z-0.125000 I-1.861827 J-3.459592
G02 X48.577932 Y149.839461 Z-0.125000 I-20.077129 J-20.003786
G02 X49.624421 Y148.203265 Z-0.125000 I-8.934837 J-6.867361
G02 X50.248193 Y146.651021 Z-0.125000 I-7.374236 J-3.864801
G02 X50.523881 Y145.006253 Z-0.125000 I-11.023844 J-2.693255
G02 X50.715257 Y141.631664 Z-0.125000 I-46.916601 J-4.353404
G02 X50.709453 Y137.684097 Z-0.125000 I-88.716413 J-1.843360
G02 X50.598816 Y136.793560 Z-0.125000 I-4.498175 J0.106696
G02 X50.159140 Y136.127935 Z-0.125000 I-1.467399 J0.491259
G02 X49.097219 Y135.459582 Z-0.125000 I-2.542833 J2.862412
G02 X48.071786 Y135.080355 Z-0.125000 I-3.441618 J7.730145
G02 X47.577334 Y135.005722 Z-0.125000 I-0.512475 J1.720004
G02 X47.312952 Y135.081218 Z-0.125000 I-0.004895 J0.483534
G02 X46.027485 Y135.993124 Z-0.125000 I8.364273 J13.152668
G03 X44.606045 Y136.793032 Z-0.125000 I-3.242374 J-4.098802
G03 X43.235335 Y137.032451 Z-0.125000 I-1.332310 J-3.584207
G03 X40.990412 Y136.214292 Z-0.125000 I0.036031 J-3.587834
G03 X40.228171 Y134.554646 Z-0.125000 I1.330976 J-1.616153
G03 X40.734831 Y132.664518 Z-0.125000 I4.096493 J0.085117
G03 X42.120560 Y131.116938 Z-0.125000 I4.038985 J2.222383
G03 X44.009219 Y130.249385 Z-0.125000 I3.342927 J4.787959
G03 X46.808307 Y129.909534 Z-0.125000 I2.690596 J10.463466
G03 X50.009003 Y130.283269 Z-0.125000 I-0.152642 J15.199611
G03 X53.187220 Y131.353833 Z-0.125000 I-3.616480 J15.989286
G01 X57.808446 Y133.347896 Z-0.125000
G01 X57.159016 Y140.125978 Z-0.125000
G03 X55.609167 Y149.427434 Z-0.125000 I-61.973794 J-5.546498
G03 X53.895459 Y153.410914 Z-0.125000 I-12.795090 J-3.144133
G03 X50.894236 Y156.398134 Z-0.125000 I-8.073180 J-5.109767
G03 X45.409313 Y158.727011 Z-0.125000 I-10.047270 J-16.039692
G03 X43.268631 Y159.138830 Z-0.125000 I-4.457067 J-17.398710
G03 X41.390165 Y159.251003 Z-0.125000 I-1.742770 J-13.400037
G03 X34.691314 Y156.589333 Z-0.125000 I0.100563 J-10.013716
G03 X29.169938 Y147.948400 Z-0.125000 I13.756562 J-14.874645
G02 X27.005036 Y142.072945 Z-0.125000 I-68.687299 J21.972315
G02 X25.076735 Y138.172054 Z-0.125000 I-32.061100 J13.421497
G02 X22.592717 Y134.967549 Z-0.125000 I-13.481053 J7.885020
G02 X21.295705 Y134.425856 Z-0.125000 I-1.315776 J1.326843
G02 X16.918800 Y135.403236 Z-0.125000 I-0.098881 J9.846215
G02 X12.242403 Y138.794632 Z-0.125000 I7.086923 J14.692004
G02 X8.985861 Y143.681340 Z-0.125000 I12.552972 J11.893849
G02 X7.887841 Y148.614961 Z-0.125000 I11.732739 J5.200221
G02 X8.042455 Y150.587255 Z-0.125000 I10.004972 J0.207884
G02 X8.541087 Y152.265331 Z-0.125000 I7.736765 J-1.385820
G02 X9.345954 Y153.831365 Z-0.125000 I10.921106 J-4.623076
G02 X10.089029 Y154.792900 Z-0.125000 I4.769459 J-2.917952
G03 X10.862926 Y155.688394 Z-0.125000 I-43.421984 J38.307978
G03 X11.585083 Y156.565419 Z-0.125000 I-31.856645 J26.967132
G03 X12.150423 Y157.500439 Z-0.125000 I-3.254396 J2.606121
G03 X12.277834 Y158.142773 Z-0.125000 I-1.395876 J0.610683
G03 X11.755668 Y158.950394 Z-0.125000 I-0.915053 J-0.019013
G03 X9.558690 Y159.434349 Z-0.125000 I-2.146758 J-4.516777
G03 X7.541797 Y158.864493 Z-0.125000 I0.040132 J-3.996165
G03 X4.451149 Y156.368018 Z-0.125000 I7.392255 J-12.313002
G03 X3.128008 Y154.620145 Z-0.125000 I9.149416 J-8.300859
G03 X2.475362 Y153.207381 Z-0.125000 I5.233921 J-3.275017
G03 X2.164718 Y151.671019 Z-0.125000 I7.003945 J-2.215744
G03 X2.059518 Y148.743527 Z-0.125000 I25.737686 J-2.390526
G01 X2.059518 Y148.743527 Z-0.125000
G00 Z28.000000

(Change tool to Default tool)

G00 Z28.000000
G00 X14.590460 Y173.164520

G01 Z-0.125000 F100.0(Penetrate)
G03 X14.797691 Y172.230350 Z-0.125000 I2.437473 J0.050646 F400.000000
G03 X15.504716 Y171.100290 Z-0.125000 I4.271033 J1.885976
G03 X16.789375 Y170.292818 Z-0.125000 I1.802471 J1.442009
G03 X20.993855 Y169.836516 Z-0.125000 I4.024330 J17.482463
G03 X25.724931 Y169.963288 Z-0.125000 I-1.419026 J141.301887
G03 X39.769743 Y170.653860 Z-0.125000 I-54.706390 J1255.780881
G03 X53.718278 Y171.600316 Z-0.125000 I-49.983453 J839.896595
G03 X54.896697 Y171.808739 Z-0.125000 I-0.460007 J6.036454
G03 X55.920437 Y172.673473 Z-0.125000 I-0.593500 J1.740990
G03 X56.369559 Y174.525713 Z-0.125000 I-3.275699 J1.774845
G03 X56.066397 Y175.857908 Z-0.125000 I-3.387984 J-0.070396
G03 X55.147124 Y177.215620 Z-0.125000 I-4.451718 J-2.024084
G03 X54.233541 Y177.417699 Z-0.125000 I-1.019253 J-2.441803
G03 X47.714789 Y177.515175 Z-0.125000 I-5.208940 J-130.329228
G03 X38.617333 Y177.263778 Z-0.125000 I2.598768 J-258.776640
G03 X28.136571 Y176.628449 Z-0.125000 I15.475383 J-342.057177
G03 X17.756820 Y175.544512 Z-0.125000 I10.676216 J-152.475211
G03 X15.501070 Y174.869820 Z-0.125000 I1.068030 J-7.679079
G03 X14.803441 Y174.055427 Z-0.125000 I1.487301 J-1.980059
G03 X14.590460 Y173.164520 Z-0.125000 I1.599337 J-0.853251
G01 X14.590460 Y173.164520 Z-0.125000
G00 Z28.000000

(Change tool to Default tool)

G00 Z28.000000
G00 X13.408892 Y230.030493

G01 Z-0.125000 F100.0(Penetrate)
G03 X13.616124 Y229.096323 Z-0.125000 I2.437473 J0.050646 F400.000000
G03 X14.323149 Y227.966262 Z-0.125000 I4.271033 J1.885976
G03 X15.607807 Y227.158791 Z-0.125000 I1.802471 J1.442009
G03 X19.812287 Y226.702489 Z-0.125000 I4.024330 J17.482463
G03 X24.543363 Y226.829260 Z-0.125000 I-1.419044 J141.303652
G03 X38.588175 Y227.519817 Z-0.125000 I-54.712007 J1255.921902
G03 X52.536654 Y228.469117 Z-0.125000 I-48.801427 J820.011164
G03 X53.715066 Y228.677773 Z-0.125000 I-0.463451 J6.049338
G03 X54.738805 Y229.542507 Z-0.125000 I-0.593500 J1.740990
G03 X55.187927 Y231.394748 Z-0.125000 I-3.275699 J1.774845
G03 X54.884548 Y232.725457 Z-0.125000 I-3.377995 J-0.070188
G03 X53.965556 Y234.081593 Z-0.125000 I-4.456548 J-2.030553
G03 X53.051966 Y234.284067 Z-0.125000 I-1.021692 J-2.447647
G03 X46.533157 Y234.384225 Z-0.125000 I-5.230171 J-128.218127
G03 X37.435702 Y234.132827 Z-0.125000 I2.598738 J-258.773684
G03 X26.954939 Y233.497484 Z-0.125000 I15.474593 J-342.036689
G03 X16.575238 Y232.411066 Z-0.125000 I10.601860 J-151.418151
G03 X14.319502 Y231.735793 Z-0.125000 I1.073419 J-7.690985
G03 X13.621874 Y230.921400 Z-0.125000 I1.487301 J-1.980059
G03 X13.408892 Y230.030493 Z-0.125000 I1.599337 J-0.853251
G01 X13.408892 Y230.030493 Z-0.125000
G00 Z28.000000

(Change tool to Default tool)

G00 Z28.000000
G00 X13.564265 Y268.083525

G01 Z-0.125000 F100.0(Penetrate)
G03 X14.167927 Y262.544615 Z-0.125000 I31.769955 J0.660120 F400.000000
G03 X15.434791 Y258.679924 Z-0.125000 I16.601512 J3.302070
G03 X17.568555 Y255.263552 Z-0.125000 I15.872476 J7.538941
G03 X22.541042 Y249.767515 Z-0.125000 I46.558687 J37.126115
G03 X29.824695 Y245.042500 Z-0.125000 I15.689575 J16.209201
G03 X38.257038 Y243.456656 Z-0.125000 I8.211058 J20.448925
G03 X42.804176 Y243.758896 Z-0.125000 I-0.406432 J40.471155
G03 X45.451297 Y244.344773 Z-0.125000 I-1.746956 J14.166210
G03 X47.845341 Y245.495510 Z-0.125000 I-4.280169 J11.970359
G03 X51.564945 Y248.114396 Z-0.125000 I-19.675058 J31.895401
G03 X55.219865 Y252.895777 Z-0.125000 I-7.534273 J9.546862
G03 X56.563515 Y259.847489 Z-0.125000 I-15.500619 J6.601720
G03 X55.721497 Y264.829006 Z-0.125000 I-17.281047 J-0.359068
G03 X53.371785 Y269.676418 Z-0.125000 I-18.723528 J-6.082755
G03 X49.493955 Y273.598829 Z-0.125000 I-12.619724 J-8.598209
G03 X42.285190 Y277.417069 Z-0.125000 I-19.121403 J-27.386723
G03 X34.292735 Y279.731438 Z-0.125000 I-16.858748 J-43.262317
G03 X26.929912 Y280.403659 Z-0.125000 I-6.994971 J-35.957259
G03 X22.268373 Y279.990611 Z-0.125000 I0.300100 J-29.897768
G03 X19.015821 Y279.069716 Z-0.125000 I2.573797 J-15.294881
G03 X15.240348 Y275.583997 Z-0.125000 I2.675961 J-6.685920
G03 X13.564265 Y268.083525 Z-0.125000 I14.445268 J-7.165501
G01 X13.564265 Y268.083525 Z-0.125000
G00 Z28.000000

(Change tool to Default tool)

G00 Z28.000000
G00 X20.390940 Y269.032369

G01 Z-0.125000 F100.0(Penetrate)
G02 X20.791829 Y271.388339 Z-0.125000 I6.348134 J0.131902 F400.000000
G02 X22.183488 Y273.822903 Z-0.125000 I8.170794 J-3.055600
G02 X22.631864 Y274.307173 Z-0.125000 I5.332774 J-4.487799
G02 X22.898030 Y274.523268 Z-0.125000 I1.272297 J-1.295134
G02 X23.135717 Y274.670085 Z-0.125000 I0.538870 J-0.606589
G02 X23.695154 Y274.844112 Z-0.125000 I1.382868 J-3.459225
G02 X24.283069 Y274.978602 Z-0.125000 I0.971013 J-2.892468
G02 X25.291375 Y275.047239 Z-0.125000 I1.095958 J-8.659472
G02 X34.678030 Y273.974736 Z-0.125000 I0.384133 J-38.250729
G02 X42.713747 Y270.826943 Z-0.125000 I-7.502302 J-30.982685
G02 X48.902336 Y265.679766 Z-0.125000 I-10.528805 J-18.953007
G02 X50.484728 Y261.418180 Z-0.125000 I-5.334354 J-4.405303
G02 X49.666487 Y256.707147 Z-0.125000 I-12.478267 J-0.259275
G02 X47.307379 Y253.095672 Z-0.125000 I-9.491442 J3.623800
G02 X43.591409 Y250.738656 Z-0.125000 I-7.609052 J7.888381
G02 X38.637309 Y249.803405 Z-0.125000 I-5.098232 J13.416982
G02 X35.088750 Y250.176269 Z-0.125000 I-0.156492 J15.582959
G02 X31.901966 Y251.306163 Z-0.125000 I3.041009 J13.635944
G02 X28.928812 Y253.175856 Z-0.125000 I8.537210 J16.874501
G02 X24.944735 Y256.640661 Z-0.125000 I26.170784 J34.116002
G02 X23.047495 Y258.713458 Z-0.125000 I20.315740 J20.499758
G02 X22.256242 Y259.880215 Z-0.125000 I5.625574 J4.666741
G02 X21.666549 Y261.247513 Z-0.125000 I5.597024 J3.224715
G02 X21.239925 Y263.262318 Z-0.125000 I11.895858 J3.571453
G03 X21.056299 Y264.767089 Z-0.125000 I-167.162813 J-19.635126
G03 X20.890932 Y266.022336 Z-0.125000 I-124.255293 J-15.730966
G02 X20.655164 Y267.340916 Z-0.125000 I85.749480 J16.012794
G02 X20.558888 Y267.966672 Z-0.125000 I18.799818 J3.212744
G02 X20.424109 Y268.658882 Z-0.125000 I9.641152 J2.236434
G02 X20.390885 Y269.032368 Z-0.125000 I2.727561 J0.430851
G01 X20.390940 Y269.032369 Z-0.125000
G00 Z28.000000

(Change tool to Default tool)

G00 Z28.000000
G00 X84.466820 Y52.120566

G01 Z-0.125000 F100.0(Penetrate)
G03 X84.691053 Y51.290138 Z-0.125000 I1.787366 J0.037138 F400.000000
G03 X85.298159 Y50.622935 Z-0.125000 I1.718221 J0.953644
G03 X86.091939 Y50.276922 Z-0.125000 I1.350722 J2.015154
G03 X88.882943 Y49.778649 Z-0.125000 I5.922750 J25.109608
G03 X91.738030 Y49.552795 Z-0.125000 I4.067392 J33.258197
G03 X97.047817 Y49.483373 Z-0.125000 I4.156247 J114.796198
G03 X102.796703 Y49.632569 Z-0.125000 I-1.815622 J180.793603
G03 X108.909323 Y49.979764 Z-0.125000 I-8.603006 J205.444279
G02 X120.399878 Y50.891548 Z-0.125000 I265.091438 J-3267.896678
G02 X135.888591 Y52.072616 Z-0.125000 I454.859528 J-5862.947371
G03 X150.562470 Y53.256263 Z-0.125000 I-47.952752 J686.028002
G03 X153.630573 Y53.695431 Z-0.125000 I-2.769371 J30.284056
G03 X155.898886 Y54.905682 Z-0.125000 I-1.033014 J4.666945
G03 X156.556494 Y56.488337 Z-0.125000 I-1.469313 J1.538462
G03 X155.801244 Y58.147091 Z-0.125000 I-2.304343 J-0.047880
G03 X153.957400 Y58.848502 Z-0.125000 I-1.816700 J-2.001456
G03 X153.593740 Y58.834451 Z-0.125000 I0.063950 J-6.367957
G03 X137.520629 Y57.741809 Z-0.125000 I798.399328 J-11863.483583
G03 X121.447930 Y56.667690 Z-0.125000 I251.080848 J-3877.864588
G03 X104.427954 Y55.461822 Z-0.125000 I303.932762 J-4410.510270
G03 X87.420686 Y54.184321 Z-0.125000 I98.156423 J-1420.596382
G03 X85.883306 Y53.956704 Z-0.125000 I0.952530 J-11.739330
G03 X84.854657 Y53.299387 Z-0.125000 I0.398171 J-1.756641
G03 X84.466820 Y52.120566 Z-0.125000 I1.479637 J-1.140018
G01 X84.466820 Y52.120566 Z-0.125000
G00 Z28.000000

(Change tool to Default tool)

G00 Z28.000000
G00 X83.131344 Y238.950739

G01 Z-0.125000 F100.0(Penetrate)
G03 X83.423625 Y237.816953 Z-0.125000 I2.550763 J0.053000 F400.000000
G03 X84.345941 Y236.638010 Z-0.125000 I3.699691 J1.944114
G03 X85.592587 Y235.916203 Z-0.125000 I2.137859 J2.254876
G03 X87.792371 Y235.605238 Z-0.125000 I2.125371 J7.098814
G03 X91.204745 Y235.765235 Z-0.125000 I-0.466063 J46.408973
G03 X95.425663 Y236.246249 Z-0.125000 I-5.956290 J71.026641
G02 X99.645640 Y236.747387 Z-0.125000 I12.100165 J-83.874529
G02 X102.258819 Y236.882303 Z-0.125000 I2.929543 J-31.367547
G02 X104.737899 Y236.709818 Z-0.125000 I0.157104 J-15.643878
G02 X105.401959 Y236.410854 Z-0.125000 I-0.199689 J-1.330535
G02 X105.856598 Y235.415251 Z-0.125000 I-3.225011 J-2.074299
G02 X106.653466 Y232.150841 Z-0.125000 I-35.263454 J-10.337552
G03 X107.462022 Y228.941640 Z-0.125000 I32.551063 J6.494757
G03 X108.374573 Y226.515306 Z-0.125000 I19.671704 J6.013809
G03 X109.803319 Y224.700802 Z-0.125000 I4.354848 J1.959270
G03 X111.411025 Y224.159534 Z-0.125000 I1.581783 J2.040015
G03 X113.112311 Y224.934140 Z-0.125000 I-0.023163 J2.306465
G03 X113.829814 Y226.882945 Z-0.125000 I-2.127275 J1.889697
G03 X113.722447 Y228.067049 Z-0.125000 I-8.540209 J-0.177449
G03 X113.078939 Y231.525242 Z-0.125000 I-72.652161 J-11.730305
G02 X112.361009 Y235.047846 Z-0.125000 I74.866407 J17.092739
G02 X112.089386 Y237.042382 Z-0.125000 I23.429907 J4.206520
G02 X112.382335 Y237.089755 Z-0.125000 I0.523034 J-2.304893
G02 X119.940538 Y237.811338 Z-0.125000 I159.120777 J-1626.761351
G03 X125.971460 Y238.399578 Z-0.125000 I-67.453686 J722.778634
G03 X131.641835 Y238.999294 Z-0.125000 I-72.732833 J714.802120
G02 X137.238779 Y239.665255 Z-0.125000 I103.871602 J-849.117391
G02 X139.926458 Y239.959701 Z-0.125000 I25.813809 J-223.212635
G02 X142.546309 Y240.175546 Z-0.125000 I5.905197 J-55.667887
G02 X145.091389 Y240.263085 Z-0.125000 I3.070466 J-52.228626
G03 X151.072088 Y241.002982 Z-0.125000 I-0.268231 J26.709538
G03 X153.280369 Y242.231638 Z-0.125000 I-1.101876 J4.579234
G03 X153.761090 Y243.138304 Z-0.125000 I-1.742769 J1.504801
G03 X153.957127 Y244.750458 Z-0.125000 I-5.549212 J1.492778
G03 X153.028115 Y246.742875 Z-0.125000 I-2.722351 J-0.056565
G03 X150.693322 Y247.606961 Z-0.125000 I-2.299728 J-2.627559
G03 X149.316425 Y247.509471 Z-0.125000 I0.114356 J-11.387154
G03 X140.379116 Y246.245838 Z-0.125000 I64.748281 J-490.182778
G02 X131.424807 Y245.117101 Z-0.125000 I-27.804150 J184.489527
G02 X121.189300 Y244.295629 Z-0.125000 I-24.563272 J241.879597
G01 X110.130477 Y243.681556 Z-0.125000
G01 X109.401857 Y247.253647 Z-0.125000
G03 X107.927115 Y251.447789 Z-0.125000 I-58.838638 J-18.332467
G03 X107.092313 Y253.137833 Z-0.125000 I-10.381563 J-4.076805
G03 X105.905936 Y254.390038 Z-0.125000 I-3.460254 J-2.090243
G03 X104.729347 Y254.745856 Z-0.125000 I-1.155952 J-1.699171
G03 X103.874760 Y254.532910 Z-0.125000 I0.019058 J-1.897750
G03 X102.998166 Y253.848184 Z-0.125000 I1.393690 J-2.687697
G03 X102.483921 Y252.862740 Z-0.125000 I1.739527 J-1.534655
G03 X102.260746 Y250.825741 Z-0.125000 I7.684862 J-1.872684
G03 X102.390706 Y249.330975 Z-0.125000 I11.381075 J0.236477
G03 X102.935202 Y246.437238 Z-0.125000 I43.688060 J6.722413
G02 X103.496900 Y243.613433 Z-0.125000 I-563.209101 J-113.498663
G02 X103.587549 Y243.112835 Z-0.125000 I-16.971854 J-3.331775
G02 X102.276740 Y242.941459 Z-0.125000 I-4.375779 J28.370553
G02 X93.921060 Y242.074133 Z-0.125000 I-126.526560 J1178.253578
G03 X85.507401 Y241.142141 Z-0.125000 I37.374082 J-375.842379
G03 X84.402975 Y240.911164 Z-0.125000 I0.809020 J-6.624262
G03 X83.460365 Y240.105910 Z-0.125000 I0.887377 J-1.993067
G03 X83.131344 Y238.950739 Z-0.125000 I1.714288 J-1.112714
G01 X83.131344 Y238.950739 Z-0.125000
G00 Z28.000000

(Change tool to Default tool)

G00 Z28.000000
G00 X98.689917 Y33.614930

G01 Z-0.125000 F100.0(Penetrate)
G03 X99.034482 Y30.031051 Z-0.125000 I23.996601 J0.498604 F400.000000
G03 X99.684694 Y27.846347 Z-0.125000 I9.511814 J1.641796
G02 X100.394054 Y25.674946 Z-0.125000 I-11.430006 J-4.935560
G02 X100.643279 Y23.647800 Z-0.125000 I-9.821604 J-2.236399
G03 X101.057342 Y20.512360 Z-0.125000 I14.333681 J0.297827
G03 X102.713443 Y15.249173 Z-0.125000 I42.526563 J10.489156
G01 X104.933844 Y10.060328 Z-0.125000
G01 X117.020092 Y10.181704 Z-0.125000
G03 X127.052587 Y10.554634 Z-0.125000 I-1.859415 J185.154371
G03 X136.661602 Y11.446333 Z-0.125000 I-10.965105 J170.380362
G02 X146.259642 Y12.526344 Z-0.125000 I40.297120 J-314.931203
G02 X149.599118 Y12.704982 Z-0.125000 I3.726501 J-38.359980
G03 X153.146139 Y12.879834 Z-0.125000 I-0.454840 J45.291419
G03 X154.398741 Y13.130445 Z-0.125000 I-0.518774 J5.848608
G03 X155.359739 Y14.129600 Z-0.125000 I-0.888489 J1.816284
G03 X155.791379 Y16.285226 Z-0.125000 I-4.640498 J2.050236
G03 X155.401170 Y17.663917 Z-0.125000 I-2.839144 J-0.058992
G03 X154.582006 Y18.346497 Z-0.125000 I-1.358534 J-0.797547
G03 X153.369425 Y18.649404 Z-0.125000 I-1.604115 J-3.842982
G03 X149.764079 Y18.801130 Z-0.125000 I-3.257431 J-34.492451
G03 X148.599807 Y18.772567 Z-0.125000 I0.403677 J-40.196820
G03 X143.143539 Y18.544479 Z-0.125000 I38.535236 J-987.208817
G01 X132.448687 Y17.872714 Z-0.125000
G01 X131.395860 Y23.011940 Z-0.125000
G03 X131.216599 Y23.823489 Z-0.125000 I-19.820822 J-3.952595
G03 X130.835525 Y25.331238 Z-0.125000 I-78.708256 J-19.091022
G03 X130.426887 Y26.831175 Z-0.125000 I-85.224221 J-22.412580
G03 X129.737646 Y29.215535 Z-0.125000 I-181.132144 J-51.067567
G03 X128.824355 Y31.594087 Z-0.125000 I-21.022024 J-6.707200
G03 X127.903371 Y33.279534 Z-0.125000 I-11.567950 J-5.226761
G03 X126.601728 Y34.634917 Z-0.125000 I-4.475959 J-2.995779
G03 X125.610197 Y34.952658 Z-0.125000 I-0.974920 J-1.336361
G03 X124.435416 Y34.094658 Z-0.125000 I0.012559 J-1.250457
G03 X123.692738 Y29.154829 Z-0.125000 I14.017141 J-4.633148
G03 X123.922828 Y25.022491 Z-0.125000 I59.382318 J1.233853
G03 X124.449471 Y20.807423 Z-0.125000 I62.540636 J5.673581
G01 X124.961187 Y17.233159 Z-0.125000
G01 X122.636406 Y16.832548 Z-0.125000
G02 X119.792565 Y16.513336 Z-0.125000 I-4.482508 J27.106960
G02 X113.834202 Y16.305544 Z-0.125000 I-7.164694 J119.914663
G01 X109.684554 Y16.263872 Z-0.125000
G01 X108.170839 Y22.530261 Z-0.125000
G02 X107.698063 Y24.536009 Z-0.125000 I353.900282 J84.476624
G02 X107.210042 Y26.664376 Z-0.125000 I326.619760 J76.012036
G02 X106.683828 Y28.802026 Z-0.125000 I81.128468 J21.104561
G02 X106.409291 Y30.113050 Z-0.125000 I29.912364 J6.948103
G01 X105.768714 Y32.870149 Z-0.125000
G03 X105.432019 Y34.307000 Z-0.125000 I-66.189944 J-14.752311
G03 X105.213284 Y35.125085 Z-0.125000 I-20.350687 J-5.002951
G03 X104.962033 Y35.934641 Z-0.125000 I-20.920448 J-6.049025
G03 X104.670835 Y36.754446 Z-0.125000 I-19.745812 J-6.552177
G03 X104.320223 Y37.543763 Z-0.125000 I-7.240392 J-2.743626
G03 X104.062899 Y37.941474 Z-0.125000 I-2.101580 J-1.077649
G03 X103.664649 Y38.350071 Z-0.125000 I-3.362241 J-2.878725
G03 X103.243666 Y38.684707 Z-0.125000 I-2.901290 J-3.217781
G03 X102.767728 Y38.984402 Z-0.125000 I-1.340043 J-1.600331
G03 X102.288645 Y39.116791 Z-0.125000 I-0.657104 J-1.444865
G03 X101.700165 Y39.200469 Z-0.125000 I-0.983846 J-4.807905
G03 X100.902811 Y39.228631 Z-0.125000 I-0.708982 J-8.771720
G03 X99.525803 Y38.280961 Z-0.125000 I0.015025 J-1.496094
G03 X98.689917 Y33.614933 Z-0.125000 I11.208296 J-4.415772
G01 X98.689917 Y33.614930 Z-0.125000
G00 Z28.000000

(Change tool to Default tool)

G00 Z28.000000
G00 X113.489093 Y92.481708

G01 Z-0.125000 F100.0(Penetrate)
G03 X114.092747 Y86.942788 Z-0.125000 I31.770576 J0.660133 F400.000000
G03 X115.359619 Y83.078107 Z-0.125000 I16.600708 J3.301855
G03 X117.493432 Y79.662863 Z-0.125000 I15.845862 J7.526136
G03 X122.465807 Y74.168744 Z-0.125000 I46.660184 J37.231983
G03 X129.751101 Y69.441798 Z-0.125000 I15.700635 J16.220619
G03 X138.185398 Y67.854858 Z-0.125000 I8.213051 J20.444019
G03 X142.730304 Y68.157208 Z-0.125000 I-0.405826 J40.410838
G03 X145.376107 Y68.742939 Z-0.125000 I-1.748825 J14.168148
G03 X147.770164 Y69.893692 Z-0.125000 I-4.280506 J11.970990
G03 X151.489755 Y72.512563 Z-0.125000 I-19.674664 J31.894901
G03 X155.146477 Y77.293907 Z-0.125000 I-7.542853 J9.557678
G03 X156.491893 Y84.245691 Z-0.125000 I-15.480799 J6.602167
G03 X155.649871 Y89.227224 Z-0.125000 I-17.281065 J-0.359068
G03 X153.300145 Y94.074636 Z-0.125000 I-18.723310 J-6.082697
G03 X149.422337 Y97.997035 Z-0.125000 I-12.619521 J-8.597998
G03 X142.213549 Y101.815287 Z-0.125000 I-19.121639 J-27.387139
G03 X134.219260 Y104.129794 Z-0.125000 I-16.854112 J-43.250594
G03 X126.854721 Y104.801841 Z-0.125000 I-6.996441 J-35.981934
G03 X122.195271 Y104.388648 Z-0.125000 I0.299867 J-29.859740
G03 X118.944200 Y103.467918 Z-0.125000 I2.576231 J-15.296685
G03 X115.167065 Y99.982327 Z-0.125000 I2.678167 J-6.691503
G03 X113.489093 Y92.481708 Z-0.125000 I14.429076 J-7.165945
G01 X113.489093 Y92.481708 Z-0.125000
G00 Z28.000000

(Change tool to Default tool)

G00 Z28.000000
G00 X113.473967 Y163.388683

G01 Z-0.125000 F100.0(Penetrate)
G03 X114.538765 Y159.627719 Z-0.125000 I7.742673 J0.160878 F400.000000
G03 X118.609960 Y154.643585 Z-0.125000 I18.100417 J10.630174
G03 X123.899210 Y150.675654 Z-0.125000 I23.319392 J25.575489
G03 X128.127099 Y148.834827 Z-0.125000 I8.775124 J14.378543
G03 X130.711931 Y148.347565 Z-0.125000 I4.890394 J18.842976
G03 X133.457383 Y148.198245 Z-0.125000 I2.530859 J21.219162
G03 X142.715602 Y149.750302 Z-0.125000 I-0.303267 J30.198274
G03 X148.790095 Y153.314916 Z-0.125000 I-5.385988 J16.136425
G03 X152.954759 Y158.907725 Z-0.125000 I-12.338074 J13.534506
G03 X154.166653 Y164.487451 Z-0.125000 I-11.064539 J5.324645
G03 X152.470721 Y171.292884 Z-0.125000 I-15.821551 J-0.328742
G03 X146.874472 Y178.925070 Z-0.125000 I-25.714419 J-12.987123
G03 X144.841589 Y180.589064 Z-0.125000 I-13.815150 J-14.804036
G03 X141.849074 Y182.518412 Z-0.125000 I-21.423893 J-29.944094
G03 X138.603854 Y184.016369 Z-0.125000 I-10.775707 J-19.080569
G03 X137.003748 Y184.291665 Z-0.125000 I-1.554676 J-4.248456
G03 X135.862321 Y183.899752 Z-0.125000 I0.019253 J-1.914206
G03 X135.498264 Y183.144745 Z-0.125000 I0.561004 J-0.735786
G03 X135.765051 Y182.306581 Z-0.125000 I1.551290 J0.032233
G03 X137.527270 Y180.150083 Z-0.125000 I12.885801 J8.731593
G03 X139.492980 Y178.190866 Z-0.125000 I62.999477 J61.242545
G03 X141.839000 Y175.985205 Z-0.125000 I83.604586 J86.574325
G02 X144.047188 Y173.728965 Z-0.125000 I-15.154282 J-17.040233
G02 X146.242740 Y170.815223 Z-0.125000 I-23.312743 J-19.850599
G02 X147.784894 Y167.630360 Z-0.125000 I-12.617703 J-8.075459
G02 X148.255831 Y164.992461 Z-0.125000 I-8.156597 J-2.817163
G02 X147.608779 Y161.812798 Z-0.125000 I-7.382309 J-0.153390
G02 X145.192971 Y158.177082 Z-0.125000 I-12.179867 J5.472633
G02 X142.853265 Y156.001247 Z-0.125000 I-17.539161 J16.514236
G02 X140.968020 Y154.742358 Z-0.125000 I-7.618974 J9.368702
G02 X138.882559 Y153.994088 Z-0.125000 I-4.006587 J7.886254
G02 X136.256058 Y153.692073 Z-0.125000 I-2.753832 J12.377135
G01 X134.360797 Y153.673039 Z-0.125000
G01 X133.955688 Y159.134693 Z-0.125000
G03 X133.139993 Y165.558084 Z-0.125000 I-84.548747 J-7.473202
G03 X131.874123 Y171.676970 Z-0.125000 I-77.973685 J-12.940751
G03 X130.428992 Y176.194028 Z-0.125000 I-39.212134 J-10.055337
G03 X129.336952 Y178.245919 Z-0.125000 I-8.995134 J-3.470772
G03 X127.696960 Y179.619385 Z-0.125000 I-3.363560 J-2.350420
G03 X125.217955 Y180.152224 Z-0.125000 I-2.421121 J-5.230996
G03 X123.198882 Y179.801099 Z-0.125000 I0.063742 J-6.347238
G03 X120.369776 Y178.468721 Z-0.125000 I4.857420 J-13.983783
G03 X117.757733 Y176.596178 Z-0.125000 I9.376728 J-15.837828
G03 X116.078857 Y174.784882 Z-0.125000 I7.075295 J-8.241755
G03 X114.879564 Y172.878279 Z-0.125000 I12.755497 J-9.353960
G03 X114.326135 Y171.500744 Z-0.125000 I6.063616 J-3.236016
G03 X113.979521 Y170.086143 Z-0.125000 I7.361864 J-2.553611
G03 X113.621738 Y166.718059 Z-0.125000 I41.004193 J-6.058815
G03 X113.487028 Y164.517605 Z-0.125000 I63.780445 J-5.008942
G03 X113.473967 Y163.388683 Z-0.125000 I17.439253 J-0.766296
G01 X113.473967 Y163.388683 Z-0.125000
G00 Z28.000000

(Change tool to Default tool)

G00 Z28.000000
G00 X110.985947 Y283.131045

G01 Z-0.125000 F100.0(Penetrate)
G03 X111.358882 Y280.373322 Z-0.125000 I12.267522 J0.254896 F400.000000
G03 X112.651934 Y276.553330 Z-0.125000 I24.980654 J6.327012
G03 X113.264216 Y275.178005 Z-0.125000 I939.577586 J417.466948
G03 X114.103014 Y273.301366 Z-0.125000 I1250.090226 J557.625342
G03 X114.884542 Y271.430574 Z-0.125000 I123.735030 J50.591950
G03 X115.329336 Y270.424385 Z-0.125000 I39.127204 J16.695095
G03 X115.748066 Y269.502014 Z-0.125000 I12.333902 J5.043003
G03 X116.394273 Y268.297266 Z-0.125000 I21.709674 J10.869028
G03 X117.062493 Y267.221442 Z-0.125000 I9.067711 J4.886737
G03 X117.592258 Y266.613142 Z-0.125000 I3.321483 J2.357827
G03 X118.219451 Y266.172745 Z-0.125000 I2.899524 J3.462561
G03 X119.068365 Y265.750742 Z-0.125000 I3.621601 J6.220465
G03 X119.898891 Y265.483895 Z-0.125000 I1.551654 J3.403442
G03 X120.896782 Y265.391847 Z-0.125000 I0.948487 J4.827466
G03 X122.086017 Y265.879542 Z-0.125000 I-0.017437 J1.736331
G03 X122.538947 Y266.978736 Z-0.125000 I-1.032427 J1.068331
G03 X122.312515 Y268.183472 Z-0.125000 I-3.730533 J-0.077513
G03 X121.072210 Y270.985088 Z-0.125000 I-21.819553 J-7.984387
G02 X119.629593 Y273.831613 Z-0.125000 I55.672157 J30.003445
G02 X118.100612 Y277.236836 Z-0.125000 I77.292502 J36.751021
G02 X116.951836 Y280.804789 Z-0.125000 I20.973982 J8.721914
G02 X116.581673 Y283.754672 Z-0.125000 I13.938138 J3.247182
G02 X116.718357 Y284.575676 Z-0.125000 I2.252884 J0.046811
G02 X117.133556 Y285.266210 Z-0.125000 I1.996723 J-0.730484
G02 X117.774729 Y285.800271 Z-0.125000 I2.158243 J-1.939187
G02 X119.219578 Y286.544702 Z-0.125000 I5.712714 J-9.313329
G02 X120.775759 Y287.030561 Z-0.125000 I3.232103 J-7.617135
G02 X124.003944 Y287.534375 Z-0.125000 I6.736963 J-32.572880
G02 X127.208370 Y287.830698 Z-0.125000 I5.827268 J-45.541312
G02 X132.007369 Y287.992006 Z-0.125000 I5.822505 J-101.755962
G03 X131.424629 Y287.163947 Z-0.125000 I2.660427 J-2.491333
G03 X131.098079 Y286.222317 Z-0.125000 I3.176154 J-1.628906
G02 X131.078662 Y286.167443 Z-0.125000 I-0.082411 J-0.001712
G02 X130.459428 Y285.464437 Z-0.125000 I-16.904617 J14.266005
G03 X129.846615 Y284.755852 Z-0.125000 I2.373927 J-2.672353
G03 X129.256295 Y283.630458 Z-0.125000 I5.396907 J-3.548441
G03 X128.922588 Y282.465450 Z-0.125000 I4.445414 J-1.903651
G03 X128.807829 Y280.736658 Z-0.125000 I9.846371 J-1.521819
G03 X129.476637 Y276.888362 Z-0.125000 I12.954699 J0.269174
G03 X131.681933 Y272.159004 Z-0.125000 I21.948894 J7.355909
G03 X134.388689 Y268.379419 Z-0.125000 I23.607483 J14.047522
G03 X136.461049 Y266.554179 Z-0.125000 I7.396344 J6.308653
G03 X138.948463 Y265.435406 Z-0.125000 I4.779757 J7.302455
G03 X142.026524 Y265.039673 Z-0.125000 I2.964711 J10.891263
G03 X147.161644 Y265.780378 Z-0.125000 I-0.196134 J19.530328
G03 X149.122655 Y267.055544 Z-0.125000 I-1.079973 J3.806288
G03 X149.863295 Y268.287191 Z-0.125000 I-4.020669 J3.256304
G03 X150.651910 Y270.653355 Z-0.125000 I-14.296952 J6.079510
G03 X151.120432 Y273.123958 Z-0.125000 I-22.646574 J5.574389
G03 X151.218771 Y274.867227 Z-0.125000 I-11.229844 J1.507890
G03 X150.693727 Y277.484692 Z-0.125000 I-7.571099 J-0.157313
G03 X148.605581 Y281.499847 Z-0.125000 I-20.200865 J-7.955222
G03 X145.721876 Y285.187137 Z-0.125000 I-26.349441 J-17.635736
G03 X143.236815 Y287.411604 Z-0.125000 I-11.994209 J-10.898990
G03 X143.454321 Y287.427146 Z-0.125000 I-0.017652 J1.776779
G03 X144.254728 Y287.547615 Z-0.125000 I-3.215987 J24.086470
G02 X145.053226 Y287.661809 Z-0.125000 I2.807073 J-16.779567
G02 X145.414865 Y287.685055 Z-0.125000 I0.395258 J-3.324446
G02 X145.778352 Y287.750187 Z-0.125000 I8.163670 J-44.512743
G02 X146.577233 Y287.886888 Z-0.125000 I18.619125 J-106.407895
G03 X147.371184 Y288.038381 Z-0.125000 I-2.926627 J17.494207
G03 X147.809420 Y288.150777 Z-0.125000 I-1.194531 J5.568060
G02 X148.175982 Y288.263271 Z-0.125000 I1.420701 J-3.975884
G02 X148.824721 Y288.412488 Z-0.125000 I3.164506 J-12.273237
G03 X149.467168 Y288.631180 Z-0.125000 I-2.609781 J8.719697
G03 X149.837410 Y288.799914 Z-0.125000 I-1.168919 J3.055440
G02 X150.136099 Y289.036094 Z-0.125000 I2.206678 J-2.483750
G02 X150.555966 Y289.307082 Z-0.125000 I3.720433 J-5.303655
G03 X150.877925 Y289.650524 Z-0.125000 I-1.714113 J1.929520
G03 X151.051374 Y289.940829 Z-0.125000 I-1.085123 J0.845299
G03 X151.153645 Y290.325386 Z-0.125000 I-2.097805 J0.763781
G03 X151.181528 Y290.696665 Z-0.125000 I-1.919265 J0.330820
G03 X150.991478 Y291.236521 Z-0.125000 I-0.915839 J-0.019029
G03 X149.982605 Y292.255022 Z-0.125000 I-4.575396 J-3.523226
G03 X148.634817 Y293.015270 Z-0.125000 I-3.122659 J-3.961114
G03 X147.046875 Y293.357326 Z-0.125000 I-1.945746 J-5.175910
G02 X141.950695 Y292.984954 Z-0.125000 I-10.566485 J109.551513
G02 X132.710927 Y292.645941 Z-0.125000 I-17.608960 J353.845981
G03 X122.890360 Y292.328245 Z-0.125000 I11.764763 J-515.616331
G03 X120.849438 Y292.149549 Z-0.125000 I0.943201 J-22.516685
G03 X118.866834 Y291.750552 Z-0.125000 I1.073601 J-10.459944
G03 X116.360942 Y290.785591 Z-0.125000 I5.375167 J-17.694909
G03 X112.271844 Y287.352833 Z-0.125000 I4.398463 J-9.391291
G03 X110.985981 Y283.131124 Z-0.125000 I5.803732 J-4.074401
G01 X110.985947 Y283.131045 Z-0.125000
G00 Z28.000000

(Change tool to Default tool)

G00 Z28.000000
G00 X115.009559 Y117.555859

G01 Z-0.125000 F100.0(Penetrate)
G03 X115.177529 Y116.870086 Z-0.125000 I1.621434 J0.033690 F400.000000
G03 X115.692557 Y116.179417 Z-0.125000 I2.143484 J1.061023
G03 X116.828913 Y115.374317 Z-0.125000 I3.296493 J3.448316
G03 X118.122429 Y114.946276 Z-0.125000 I2.059540 J4.055336
G03 X119.444713 Y114.789117 Z-0.125000 I1.955115 J10.808442
G03 X121.839926 Y114.732094 Z-0.125000 I2.039702 J35.343605
G03 X133.402803 Y115.153372 Z-0.125000 I-2.202909 J219.358288
G03 X150.429369 Y116.528262 Z-0.125000 I-30.142294 J479.396082
G03 X150.647520 Y116.535737 Z-0.125000 I-0.045273 J4.508137
G03 X151.665524 Y116.602079 Z-0.125000 I-4.506966 J77.002746
G02 X152.610815 Y116.717536 Z-0.125000 I3.284399 J-22.963101
G02 X153.046133 Y116.741733 Z-0.125000 I0.483464 J-4.770048
G02 X153.410420 Y116.805150 Z-0.125000 I3.695462 J-20.149654
G02 X154.283162 Y116.944315 Z-0.125000 I13.793298 J-83.695691
G03 X155.066532 Y117.172686 Z-0.125000 I-2.323590 J9.428246
G03 X155.438075 Y117.333185 Z-0.125000 I-0.789768 J2.338544
G03 X155.794024 Y117.533319 Z-0.125000 I-4.303175 J8.070029
G03 X156.302359 Y117.844879 Z-0.125000 I-9.912235 J16.743116
G03 X156.731185 Y118.219125 Z-0.125000 I-1.004114 J1.583359
G03 X156.941011 Y118.602744 Z-0.125000 I-0.839498 J0.708368
G03 X157.090713 Y119.118986 Z-0.125000 I-2.288858 J0.943560
G03 X157.137953 Y119.736523 Z-0.125000 I-3.145499 J0.551198
G03 X156.603567 Y120.931779 Z-0.125000 I-1.682076 J-0.034950
G03 X154.609989 Y122.097402 Z-0.125000 I-3.583307 J-3.840939
G03 X152.153709 Y122.736981 Z-0.125000 I-6.408872 J-19.576620
G03 X144.811011 Y124.011068 Z-0.125000 I-33.612120 J-171.914873
G02 X139.301463 Y125.576679 Z-0.125000 I3.481934 J22.730429
G02 X132.392122 Y129.287655 Z-0.125000 I16.844499 J39.649827
G02 X126.322712 Y134.236567 Z-0.125000 I23.335988 J34.815814
G02 X123.990372 Y137.558282 Z-0.125000 I7.908528 J8.032648
G03 X122.376619 Y139.941221 Z-0.125000 I-7.690990 J-3.470531
G03 X121.235055 Y140.419908 Z-0.125000 I-1.125867 J-1.084412
G03 X120.814470 Y140.351503 Z-0.125000 I0.014205 J-1.414517
G03 X120.221092 Y140.093808 Z-0.125000 I1.023512 J-3.168797
G03 X119.720413 Y139.749496 Z-0.125000 I0.677193 J-1.520919
G03 X119.081790 Y138.953644 Z-0.125000 I3.329254 J-3.325680
G03 X118.620290 Y138.012612 Z-0.125000 I2.550687 J-1.834585
G03 X118.467032 Y136.874042 Z-0.125000 I3.576869 J-1.061064
G03 X119.186742 Y134.052354 Z-0.125000 I6.413674 J0.133264
G03 X122.260858 Y129.563184 Z-0.125000 I19.883531 J10.318802
G03 X126.238199 Y125.733964 Z-0.125000 I22.731332 J19.630418
G03 X130.485130 Y122.986913 Z-0.125000 I15.780006 J19.739437
G02 X132.171325 Y122.048690 Z-0.125000 I-57.968624 J-106.166720
G02 X132.989983 Y121.567428 Z-0.125000 I-14.897997 J-26.279416
G02 X130.223818 Y121.027755 Z-0.125000 I-15.363600 J71.389074
G02 X125.367540 Y120.233337 Z-0.125000 I-37.797987 J215.818684
G02 X120.421466 Y119.665428 Z-0.125000 I-15.343799 J111.811117
G02 X117.735586 Y119.527921 Z-0.125000 I-3.014449 J32.580281
G03 X116.556709 Y119.349799 Z-0.125000 I0.042925 J-4.274281
G03 X115.780938 Y118.943922 Z-0.125000 I0.655226 J-2.196681
G03 X115.187845 Y118.274409 Z-0.125000 I1.216852 J-1.675413
G03 X115.009557 Y117.555953 Z-0.125000 I1.239724 J-0.688993
G01 X115.009559 Y117.555859 Z-0.125000
G00 Z28.000000

(Change tool to Default tool)

G00 Z28.000000
G00 X113.453036 Y209.926829

G01 Z-0.125000 F100.0(Penetrate)
G01 X114.241358 Y203.653155 Z-0.125000 F400.000000
G03 X116.437914 Y198.914380 Z-0.125000 I14.868079 J4.013302
G03 X120.320921 Y194.856193 Z-0.125000 I14.604059 J10.086858
G03 X125.186627 Y191.934809 Z-0.125000 I15.924585 J21.010434
G03 X127.898052 Y191.352879 Z-0.125000 I2.648034 J5.730442
G03 X130.488112 Y192.056856 Z-0.125000 I-0.053355 J5.312942
G03 X133.366932 Y194.487256 Z-0.125000 I-5.223389 J9.107318
G03 X135.640290 Y197.725646 Z-0.125000 I-19.799066 J16.316136
G03 X136.321912 Y199.476561 Z-0.125000 I-4.961348 J2.939561
G02 X136.667883 Y200.647437 Z-0.125000 I8.758047 J-1.951277
G02 X137.702762 Y203.198656 Z-0.125000 I43.070483 J-15.985664
G03 X138.695387 Y205.738225 Z-0.125000 I-68.434409 J28.212278
G03 X139.426811 Y207.862760 Z-0.125000 I-46.586032 J17.226569
G02 X139.986861 Y209.089980 Z-0.125000 I5.048227 J-1.562391
G02 X140.765622 Y210.014019 Z-0.125000 I3.571714 J-2.219987
G02 X141.741063 Y210.824362 Z-0.125000 I6.235765 J-6.513974
G02 X142.272445 Y211.096535 Z-0.125000 I1.169318 J-1.628123
G02 X142.786253 Y211.256159 Z-0.125000 I1.498790 J-3.917643
G02 X143.072180 Y211.291663 Z-0.125000 I0.298700 J-1.236452
G02 X144.724361 Y210.974013 Z-0.125000 I0.042524 J-4.234364
G02 X148.140891 Y209.207815 Z-0.125000 I-8.394216 J-20.425305
G02 X150.722974 Y206.790979 Z-0.125000 I-4.946011 J-7.871920
G02 X151.439950 Y204.655510 Z-0.125000 I-3.055139 J-2.213846
G02 X151.192648 Y202.715737 Z-0.125000 I-6.647755 J-0.138128
G02 X150.217890 Y200.309301 Z-0.125000 I-11.334233 J3.190441
G02 X148.666564 Y198.206883 Z-0.125000 I-9.743866 J5.566224
G02 X147.368306 Y197.265646 Z-0.125000 I-3.081652 J2.884586
G03 X145.343641 Y195.740533 Z-0.125000 I2.834069 J-5.868850
G03 X144.876193 Y194.477081 Z-0.125000 I1.370531 J-1.225263
G03 X145.104448 Y193.784958 Z-0.125000 I1.241698 J0.025800
G03 X145.850775 Y193.103568 Z-0.125000 I1.936990 J1.372165
G03 X146.780841 Y192.704384 Z-0.125000 I1.737748 J2.765731
G03 X147.974645 Y192.560543 Z-0.125000 I1.147214 J4.495378
G03 X149.808843 Y192.819805 Z-0.125000 I-0.071542 J7.123950
G03 X151.959877 Y193.667948 Z-0.125000 I-2.956795 J10.650699
G03 X153.786446 Y194.947732 Z-0.125000 I-4.558716 J8.449791
G03 X154.746524 Y196.146601 Z-0.125000 I-3.054743 J3.430157
G03 X155.422046 Y197.903289 Z-0.125000 I-9.379803 J4.615167
G03 X156.105264 Y200.932779 Z-0.125000 I-27.092967 J7.701859
G03 X156.570238 Y204.089998 Z-0.125000 I-40.046875 J7.510685
G03 X156.653838 Y206.026753 Z-0.125000 I-15.089075 J1.621495
G03 X156.028026 Y208.475543 Z-0.125000 I-5.555639 J-0.115436
G03 X153.923592 Y211.274881 Z-0.125000 I-9.458263 J-4.919669
G03 X151.146423 Y213.545923 Z-0.125000 I-14.021779 J-14.313129
G03 X148.898531 Y214.681145 Z-0.125000 I-5.527987 J-8.152980
G03 X146.059844 Y215.432171 Z-0.125000 I-5.231812 J-14.034637
G03 X142.689226 Y215.686156 Z-0.125000 I-3.171299 J-19.593532
G03 X139.090623 Y214.936219 Z-0.125000 I0.095053 J-9.465106
G03 X136.621840 Y213.113200 Z-0.125000 I2.569620 J-6.063009
G03 X134.872648 Y210.367133 Z-0.125000 I9.435452 J-7.940335
G03 X132.369866 Y203.960969 Z-0.125000 I50.076296 J-23.255962
G02 X131.513778 Y201.610812 Z-0.125000 I-26.384237 J8.279942
G02 X130.635431 Y199.796727 Z-0.125000 I-16.520572 J6.879281
G02 X129.589439 Y198.138876 Z-0.125000 I-21.481207 J12.394282
G02 X128.940377 Y197.332083 Z-0.125000 I-5.686459 J3.910254
G02 X128.103064 Y196.757790 Z-0.125000 I-2.701131 J3.040679
G02 X127.568005 Y196.625127 Z-0.125000 I-0.547047 J1.061025
G02 X126.777224 Y196.841010 Z-0.125000 I-0.015074 J1.501048
G02 X124.693876 Y198.356821 Z-0.125000 I7.754725 J12.847775
G02 X122.798418 Y200.252067 Z-0.125000 I9.764812 J11.661356
G02 X120.733118 Y203.089577 Z-0.125000 I19.785024 J16.571035
G02 X119.196398 Y206.275249 Z-0.125000 I12.457352 J7.972721
G02 X118.718771 Y208.973682 Z-0.125000 I8.429402 J2.883504
G02 X119.123957 Y210.839193 Z-0.125000 I4.104429 J0.085282
G02 X120.392862 Y212.447206 Z-0.125000 I4.237676 J-2.039345
G03 X121.696600 Y214.056358 Z-0.125000 I-4.224635 J4.755533
G03 X122.008966 Y215.288315 Z-0.125000 I-2.077374 J1.182302
G03 X121.482747 Y216.414246 Z-0.125000 I-1.535952 J-0.031914
G03 X120.154425 Y216.904506 Z-0.125000 I-1.308358 J-1.500275
G03 X118.946073 Y216.597649 Z-0.125000 I0.026481 J-2.636849
G03 X116.049142 Y214.728511 Z-0.125000 I9.434360 J-17.801596
G03 X114.453230 Y213.292582 Z-0.125000 I9.124550 J-11.745978
G03 X113.911551 Y212.507875 Z-0.125000 I2.134357 J-2.052647
G03 X113.582278 Y211.582676 Z-0.125000 I2.607479 J-1.449180
G03 X113.453036 Y209.926829 Z-0.125000 I8.299008 J-1.480724
G01 X113.453036 Y209.926829 Z-0.125000
G00 Z28.000000

(Change tool to Default tool)

G00 Z28.000000
G00 X118.719444 Y166.833671

G01 Z-0.125000 F100.0(Penetrate)
G02 X118.827426 Y168.370973 Z-0.125000 I8.486580 J0.176335 F400.000000
G02 X119.107230 Y169.223831 Z-0.125000 I2.851462 J-0.463174
G02 X119.602821 Y170.057724 Z-0.125000 I4.682410 J-2.218587
G02 X121.230485 Y172.134435 Z-0.125000 I30.642879 J-22.340770
G02 X123.668561 Y174.727877 Z-0.125000 I24.786029 J-20.858427
G02 X124.159974 Y174.927393 Z-0.125000 I0.498672 J-0.523305
G02 X125.151266 Y174.439500 Z-0.125000 I0.012312 J-1.225976
G02 X126.182463 Y172.245505 Z-0.125000 I-4.717255 J-3.556485
G02 X128.443539 Y161.409771 Z-0.125000 I-134.929769 J-33.809369
G02 X129.008340 Y155.376782 Z-0.125000 I-41.210458 J-6.901000
G02 X128.998783 Y154.564111 Z-0.125000 I-12.490104 J-0.259521
G02 X128.959329 Y154.308906 Z-0.125000 I-1.184730 J0.052508
G02 X127.517022 Y154.772634 Z-0.125000 I0.079431 J2.721876
G02 X121.792093 Y159.138281 Z-0.125000 I34.401024 J51.048620
G02 X120.131918 Y160.886186 Z-0.125000 I8.362890 J9.605522
G02 X119.399116 Y162.190643 Z-0.125000 I3.861898 J3.027548
G02 X118.977711 Y163.732511 Z-0.125000 I6.111438 J2.498826
G02 X118.719371 Y166.833670 Z-0.125000 I24.712617 J3.620008
G01 X118.719444 Y166.833671 Z-0.125000
G00 Z28.000000

(Change tool to Default tool)

G00 Z28.000000
G00 X120.315823 Y93.430536

G01 Z-0.125000 F100.0(Penetrate)
G02 X120.718248 Y95.786566 Z-0.125000 I6.328188 J0.131488 F400.000000
G02 X122.111939 Y98.221106 Z-0.125000 I8.201343 J-3.078800
G02 X122.560318 Y98.705382 Z-0.125000 I5.330649 J-4.485797
G02 X122.826481 Y98.921471 Z-0.125000 I1.272369 J-1.295251
G02 X123.063099 Y99.068120 Z-0.125000 I0.541620 J-0.609684
G02 X123.620036 Y99.242295 Z-0.125000 I1.361776 J-3.376878
G02 X124.209240 Y99.378085 Z-0.125000 I0.989660 J-2.948016
G02 X125.219762 Y99.448519 Z-0.125000 I1.095987 J-8.439907
G02 X134.606459 Y98.374465 Z-0.125000 I0.383641 J-38.201699
G02 X142.642198 Y95.225146 Z-0.125000 I-7.521769 J-31.018971
G02 X148.830486 Y90.079758 Z-0.125000 I-10.535315 J-18.964656
G02 X150.413115 Y85.819460 Z-0.125000 I-5.329470 J-4.403918
G02 X149.595176 Y81.106716 Z-0.125000 I-12.490432 J-0.259528
G02 X147.235811 Y77.493890 Z-0.125000 I-9.489651 J3.620432
G02 X143.518260 Y75.138090 Z-0.125000 I-7.594347 J7.873073
G02 X138.562128 Y74.204649 Z-0.125000 I-5.100658 J13.458018
G02 X135.015449 Y74.577729 Z-0.125000 I-0.156255 J15.559353
G02 X131.830335 Y75.707443 Z-0.125000 I3.045551 J13.641533
G02 X128.857269 Y77.575964 Z-0.125000 I8.560602 J16.920588
G02 X124.873185 Y81.038880 Z-0.125000 I26.031540 J33.972582
G02 X122.975952 Y83.111658 Z-0.125000 I20.314279 J20.498521
G02 X122.184693 Y84.278433 Z-0.125000 I5.625431 J4.666623
G02 X121.593455 Y85.645695 Z-0.125000 I5.646024 J3.252946
G02 X121.164808 Y87.660485 Z-0.125000 I11.755345 J3.553943
G03 X120.981192 Y89.165264 Z-0.125000 I-167.427303 J-19.666193
G03 X120.815833 Y90.420519 Z-0.125000 I-124.082009 J-15.707240
G02 X120.580063 Y91.739104 Z-0.125000 I85.753113 J16.013472
G02 X120.483788 Y92.364839 Z-0.125000 I18.801286 J3.213006
G02 X120.349010 Y93.057057 Z-0.125000 I9.642599 J2.236700
G02 X120.315786 Y93.430535 Z-0.125000 I2.727442 J0.430840
G01 X120.315823 Y93.430536 Z-0.125000
G00 Z28.000000

(Change tool to Default tool)

G00 Z28.000000
G00 X134.514964 Y279.597769

G01 Z-0.125000 F100.0(Penetrate)
G02 X134.661010 Y282.137309 Z-0.125000 I16.273053 J0.338123 F400.000000
G02 X135.083080 Y283.750313 Z-0.125000 I6.884859 J-0.939817
G02 X135.809349 Y285.311365 Z-0.125000 I11.019380 J-4.177223
G02 X136.207663 Y285.770616 Z-0.125000 I1.298660 J-0.723986
G02 X136.729706 Y286.092075 Z-0.125000 I1.887319 J-2.480344
G02 X136.999880 Y286.155829 Z-0.125000 I0.276514 J-0.567457
G02 X137.513315 Y285.948807 Z-0.125000 I-0.095412 J-0.976828
G02 X139.664861 Y284.047825 Z-0.125000 I-16.355246 J-20.679048
G03 X141.845899 Y282.241563 Z-0.125000 I11.513152 J11.682067
G03 X142.620152 Y282.004092 Z-0.125000 I0.760824 J1.099670
G01 X143.452446 Y280.632227 Z-0.125000
G02 X144.169107 Y279.175551 Z-0.125000 I-25.409703 J-13.405772
G02 X145.054526 Y277.130249 Z-0.125000 I-49.657052 J-22.711038
G02 X145.744287 Y275.032783 Z-0.125000 I-14.522434 J-5.937913
G02 X145.926389 Y273.682292 Z-0.125000 I-5.845444 J-1.475732
G02 X145.826008 Y272.827173 Z-0.125000 I-3.137170 J-0.065184
G02 X145.320361 Y271.354342 Z-0.125000 I-9.895025 J2.573910
G02 X144.773631 Y270.453900 Z-0.125000 I-6.874574 J3.557894
G02 X144.470476 Y270.149619 Z-0.125000 I-1.039122 J0.732122
G02 X144.021435 Y270.028566 Z-0.125000 I-0.610466 J1.371118
G02 X142.579121 Y269.943513 Z-0.125000 I-1.590848 J14.705429
G02 X141.721563 Y270.025689 Z-0.125000 I-0.041047 J4.087326
G02 X140.532507 Y270.361572 Z-0.125000 I1.664790 J8.166123
G02 X139.402407 Y270.874497 Z-0.125000 I2.775811 J7.617199
G02 X137.952975 Y271.780307 Z-0.125000 I7.373356 J13.411041
G02 X136.733439 Y272.928976 Z-0.125000 I3.435450 J4.869124
G02 X135.561291 Y274.771342 Z-0.125000 I7.937901 J6.344294
G02 X134.832582 Y276.896523 Z-0.125000 I8.675030 J4.162127
G02 X134.514964 Y279.597769 Z-0.125000 I13.827383 J2.995152
G01 X134.514964 Y279.597769 Z-0.125000
G00 Z28.000000

(End cutting path id: text2011)


(Pass at depth -2.0)

(Footer)
M5
G00 X0.0000 Y0.0000
M2
(Using default footer. To add your own footer create file "footer" in the output dir.)
(end)
%