%
(Header)
(Generated by gcodetools from Inkscape.)
(Using default header. To add your own header create file "header" in the output dir.)
M3
(Header end.)
G21 (All units in mm)

(Pass at depth -1.0)
(Start cutting path id: text25585)
(Change tool to Default tool)

G00 Z15.000000
G00 X137.412767 Y290.079936

G01 Z-0.125000 F100.0(Penetrate)
G01 X137.412767 Y274.062836 Z-0.125000 F400.000000
G03 X136.442541 Y276.586224 Z-0.125000 I-14.712809 J-4.208762
G03 X135.496486 Y277.974603 Z-0.125000 I-5.307213 J-2.599872
G03 X134.202059 Y278.942536 Z-0.125000 I-2.988565 J-2.647149
G03 X132.732879 Y279.269715 Z-0.125000 I-1.469181 J-3.135049
G03 X130.668042 Y278.419083 Z-0.125000 I0.000000 J-2.931424
G03 X128.417992 Y274.987915 Z-0.125000 I6.970523 J-7.024385
G03 X127.265813 Y270.612189 Z-0.125000 I18.968723 J-7.334237
G03 X126.762432 Y263.728370 Z-0.125000 I46.817011 J-6.883820
G03 X127.265813 Y256.844549 Z-0.125000 I47.320409 J0.000000
G03 X128.417992 Y252.468823 Z-0.125000 I20.120901 J2.958511
G03 X130.668042 Y249.037656 Z-0.125000 I9.220565 J3.593213
G03 X132.732879 Y248.187024 Z-0.125000 I2.064836 J2.080793
G03 X134.206346 Y248.509077 Z-0.125000 I-0.000000 J3.531755
G03 X135.496486 Y249.455706 Z-0.125000 I-1.658544 J3.612861
G03 X136.445258 Y250.867577 Z-0.125000 I-4.578048 J4.101154
G03 X137.412767 Y253.393903 Z-0.125000 I-13.978666 J6.801845
G01 X137.412767 Y248.953519 Z-0.125000
G01 X139.811372 Y248.953519 Z-0.125000
G01 X139.811372 Y290.079936 Z-0.125000
G01 X137.412767 Y290.079936 Z-0.125000
G00 Z15.000000

(Change tool to Default tool)

G00 Z15.000000
G00 X144.824973 Y290.079936

G01 Z-0.125000 F100.0(Penetrate)
G01 X144.824973 Y283.921546 Z-0.125000 F400.000000
G01 X147.223579 Y283.921546 Z-0.125000
G01 X147.223579 Y290.079936 Z-0.125000
G01 X144.824973 Y290.079936 Z-0.125000
G00 Z15.000000

(Change tool to Default tool)

G00 Z15.000000
G00 X5.357810 Y288.414792

G01 Z-0.125000 F100.0(Penetrate)
G01 X5.357810 Y248.953519 Z-0.125000 F400.000000
G01 X7.991061 Y248.953519 Z-0.125000
G01 X7.991061 Y265.631391 Z-0.125000
G01 X10.858959 Y265.631391 Z-0.125000
G02 X12.244422 Y265.289433 Z-0.125000 I0.000000 J-2.977621
G02 X13.322744 Y264.336280 Z-0.125000 I-1.409169 J-2.680761
G02 X14.040131 Y262.952566 Z-0.125000 I-4.716140 J-3.322906
G02 X15.199913 Y259.076538 Z-0.125000 I-36.611127 J-13.066286
G01 X17.689769 Y248.953519 Z-0.125000
G01 X20.518560 Y248.953519 Z-0.125000
G01 X17.846201 Y259.737309 Z-0.125000
G03 X16.937834 Y263.034429 Z-0.125000 I-54.053530 J-13.118225
G03 X16.229748 Y264.970620 Z-0.125000 I-19.312235 J-5.965115
G03 X15.281239 Y266.749002 Z-0.125000 I-9.888699 J-4.132052
G03 X14.587226 Y267.455120 Z-0.125000 I-2.157323 J-1.426224
G03 X15.913559 Y268.655370 Z-0.125000 I-2.194245 J3.757701
G03 X17.064046 Y270.864701 Z-0.125000 I-6.826886 J4.959252
G03 X17.669444 Y273.366105 Z-0.125000 I-12.259430 J4.291027
G03 X17.924416 Y277.049523 Z-0.125000 I-26.478497 J3.683418
G03 X17.393825 Y282.615685 Z-0.125000 I-29.461227 J0.000000
G03 X16.281893 Y285.586691 Z-0.125000 I-9.312317 J-1.791660
G03 X14.198910 Y287.649623 Z-0.125000 I-4.856432 J-2.820552
G03 X11.302179 Y288.414792 Z-0.125000 I-2.896731 J-5.100558
G01 X5.357810 Y288.414792 Z-0.125000
G00 Z15.000000

(Change tool to Default tool)

G00 Z15.000000
G00 X80.786126 Y288.414792

G01 Z-0.125000 F100.0(Penetrate)
G01 X80.786126 Y248.953519 Z-0.125000 F400.000000
G01 X83.341159 Y248.953519 Z-0.125000
G01 X83.341159 Y281.965662 Z-0.125000
G01 X91.970925 Y248.953519 Z-0.125000
G01 X95.516689 Y248.953519 Z-0.125000
G01 X95.516689 Y288.414792 Z-0.125000
G01 X92.961657 Y288.414792 Z-0.125000
G01 X92.961657 Y255.402649 Z-0.125000
G01 X84.331890 Y288.414792 Z-0.125000
G01 X80.786126 Y288.414792 Z-0.125000
G00 Z15.000000

(Change tool to Default tool)

G00 Z15.000000
G00 X53.667545 Y286.961095

G01 Z-0.125000 F100.0(Penetrate)
G01 X53.667545 Y278.556081 Z-0.125000 F400.000000
G01 X51.907699 Y278.556081 Z-0.125000
G01 X51.907699 Y274.776468 Z-0.125000
G01 X53.667545 Y274.776468 Z-0.125000
G01 X53.667545 Y258.706506 Z-0.125000
G03 X54.042007 Y253.244325 Z-0.125000 I40.024993 J0.000000
G03 X54.723454 Y251.041557 Z-0.125000 I7.032526 J0.968787
G03 X56.155381 Y249.565035 Z-0.125000 I3.086808 J1.560978
G03 X58.556007 Y248.953519 Z-0.125000 I2.400626 J4.406303
G01 X61.019789 Y248.953519 Z-0.125000
G01 X61.019789 Y253.023872 Z-0.125000
G01 X58.556007 Y253.023872 Z-0.125000
G02 X57.255710 Y253.340021 Z-0.125000 I-0.000000 J2.832084
G02 X56.561515 Y254.054674 Z-0.125000 I0.720783 J1.394638
G02 X56.264281 Y255.126641 Z-0.125000 I3.027727 J1.416717
G02 X56.079187 Y258.706506 Z-0.125000 I34.526155 J3.579864
G01 X56.079187 Y274.776468 Z-0.125000
G01 X61.019789 Y274.776468 Z-0.125000
G01 X61.019789 Y278.556081 Z-0.125000
G01 X56.079187 Y278.556081 Z-0.125000
G01 X56.079187 Y286.961095 Z-0.125000
G01 X53.667545 Y286.961095 Z-0.125000
G00 Z15.000000

(Change tool to Default tool)

G00 Z15.000000
G00 X7.991061 Y284.027270

G01 Z-0.125000 F100.0(Penetrate)
G01 X11.302179 Y284.027270 Z-0.125000 F400.000000
G02 X12.930807 Y283.564964 Z-0.125000 I-0.000000 J-3.099847
G02 X14.170077 Y282.256402 Z-0.125000 I-1.845674 J-2.989044
G02 X14.833161 Y280.429813 Z-0.125000 I-5.235113 J-2.934089
G02 X15.147769 Y277.049523 Z-0.125000 I-18.002355 J-3.380290
G02 X14.836007 Y273.666389 Z-0.125000 I-18.512181 J0.000000
G02 X14.170077 Y271.789781 Z-0.125000 I-6.252109 J1.162156
G02 X12.930807 Y270.481219 Z-0.125000 I-3.084943 J1.680482
G02 X11.302179 Y270.018913 Z-0.125000 I-1.628628 J2.637541
G01 X7.991061 Y270.018913 Z-0.125000
G01 X7.991061 Y284.027270 Z-0.125000
G00 Z15.000000

(Change tool to Default tool)

G00 Z15.000000
G00 X28.413100 Y279.269715

G01 Z-0.125000 F100.0(Penetrate)
G03 X27.265292 Y279.145395 Z-0.125000 I0.000000 J-5.360818 F400.000000
G03 X26.001459 Y278.741098 Z-0.125000 I1.516201 J-6.917175
G03 X24.815037 Y278.149101 Z-0.125000 I3.214425 J-7.926893
G03 X23.446422 Y277.208107 Z-0.125000 I6.905387 J-11.509215
G01 X23.446422 Y272.714862 Z-0.125000
G02 X24.623172 Y273.824404 Z-0.125000 I7.370588 J-6.638255
G02 X25.727704 Y274.538591 Z-0.125000 I4.096443 J-5.124191
G02 X26.949990 Y274.997236 Z-0.125000 I2.603711 J-5.080849
G02 X28.165417 Y275.146501 Z-0.125000 I1.215428 J-4.873847
G02 X29.861792 Y274.672257 Z-0.125000 I0.000000 J-3.271093
G02 X31.215818 Y273.296340 Z-0.125000 I-2.037520 J-3.359304
G02 X31.969826 Y271.378100 Z-0.125000 I-5.340199 J-3.206399
G02 X32.310833 Y268.115892 Z-0.125000 I-15.433323 J-3.262209
G01 X32.310833 Y267.640137 Z-0.125000
G01 X28.947571 Y267.640137 Z-0.125000
G03 X26.055173 Y266.939179 Z-0.125000 I0.000000 J-6.318008
G03 X24.020002 Y265.102774 Z-0.125000 I2.453833 J-4.765355
G03 X22.899173 Y262.411292 Z-0.125000 I6.838985 J-4.427116
G03 X22.377479 Y257.569980 Z-0.125000 I22.202806 J-4.841313
G03 X22.776314 Y253.384605 Z-0.125000 I22.160051 J0.000000
G03 X23.694104 Y250.724387 Z-0.125000 I9.749094 J1.875061
G03 X25.386502 Y248.786635 Z-0.125000 I4.888891 J2.561940
G03 X27.265941 Y248.187024 Z-0.125000 I1.879438 J2.645679
G03 X28.898279 Y248.518165 Z-0.125000 I0.000000 J4.188824
G03 X30.264197 Y249.455706 Z-0.125000 I-1.614997 J3.816699
G03 X31.270655 Y250.878122 Z-0.125000 I-4.473381 J4.232505
G03 X32.310833 Y253.446766 Z-0.125000 I-13.860855 J7.107916
G01 X32.310833 Y248.953519 Z-0.125000
G01 X34.709438 Y248.953519 Z-0.125000
G01 X34.709438 Y265.842838 Z-0.125000
G03 X34.197184 Y272.494821 Z-0.125000 I-43.446467 J0.000000
G03 X33.145130 Y275.939426 Z-0.125000 I-12.512510 J-1.938617
G03 X31.050490 Y278.434682 Z-0.125000 I-5.752343 J-2.701999
G03 X28.413100 Y279.269715 Z-0.125000 I-2.637391 J-3.747486
G01 X28.413100 Y279.269715 Z-0.125000
G00 Z15.000000

(Change tool to Default tool)

G00 Z15.000000
G00 X44.365128 Y279.269715

G01 Z-0.125000 F100.0(Penetrate)
G03 X42.009357 Y278.666230 Z-0.125000 I0.000000 J-4.899753 F400.000000
G03 X40.219713 Y276.996660 Z-0.125000 I2.386218 J-4.351794
G03 X39.211669 Y274.590955 Z-0.125000 I6.332648 J-4.067567
G03 X38.759692 Y270.547531 Z-0.125000 I17.860408 J-4.043424
G03 X39.064716 Y267.183498 Z-0.125000 I18.703019 J-0.000000
G03 X39.750420 Y265.129205 Z-0.125000 I7.563045 J1.382886
G03 X41.018789 Y263.469747 Z-0.125000 I5.098930 J2.582797
G03 X42.970288 Y262.221811 Z-0.125000 I4.711382 J5.217742
G01 X43.804585 Y261.825348 Z-0.125000
G02 X45.869638 Y260.658757 Z-0.125000 I-4.734420 J-10.791718
G02 X46.685518 Y259.790172 Z-0.125000 I-1.716498 J-2.429822
G02 X47.142564 Y258.673034 Z-0.125000 I-2.967746 J-1.866232
G02 X47.350349 Y256.750623 Z-0.125000 I-8.789089 J-1.922412
G02 X47.074925 Y254.703206 Z-0.125000 I-7.747627 J0.000000
G02 X46.437836 Y253.420334 Z-0.125000 I-3.592114 J0.984255
G02 X45.366275 Y252.584338 Z-0.125000 I-2.222256 J1.743691
G02 X43.830656 Y252.257376 Z-0.125000 I-1.535619 J3.442627
G02 X42.606554 Y252.419119 Z-0.125000 I0.000000 J4.712984
G02 X41.275620 Y252.944579 Z-0.125000 I1.643947 J6.112229
G02 X40.063570 Y253.759720 Z-0.125000 I4.070459 J7.361139
G02 X38.655405 Y255.059048 Z-0.125000 I9.089749 J11.263864
G01 X38.655405 Y250.037184 Z-0.125000
G03 X40.103215 Y249.192426 Z-0.125000 I8.662784 J13.183874
G03 X41.327764 Y248.662779 Z-0.125000 I4.570886 J8.887527
G03 X42.625262 Y248.297927 Z-0.125000 I2.858273 J7.675153
G03 X43.778513 Y248.187024 Z-0.125000 I1.153250 J5.940730
G03 X46.256710 Y248.817742 Z-0.125000 I-0.000000 J5.183992
G03 X48.197683 Y250.592233 Z-0.125000 I-2.621042 J4.815727
G03 X49.329292 Y253.145225 Z-0.125000 I-6.674772 J4.485869
G03 X49.814134 Y257.120654 Z-0.125000 I-16.055710 J3.975429
G03 X49.477414 Y260.656765 Z-0.125000 I-18.735858 J0.000000
G03 X48.732154 Y262.750428 Z-0.125000 I-7.201964 J-1.384138
G03 X47.370213 Y264.470155 Z-0.125000 I-5.245830 J-2.755288
G03 X45.108175 Y265.895699 Z-0.125000 I-5.769729 J-6.647880
G01 X44.286913 Y266.265732 Z-0.125000
G02 X42.491482 Y267.296229 Z-0.125000 I4.427262 J9.792941
G02 X41.718841 Y268.089461 Z-0.125000 I1.780473 J2.507162
G02 X41.272874 Y269.124788 Z-0.125000 I2.759295 J1.802279
G02 X41.080082 Y270.758978 Z-0.125000 I6.829635 J1.634190
G02 X41.357782 Y272.881898 Z-0.125000 I8.253342 J-0.000000
G02 X41.966523 Y274.089266 Z-0.125000 I3.181107 J-0.846733
G02 X43.020443 Y274.875443 Z-0.125000 I2.073400 J-1.680014
G02 X44.651918 Y275.199362 Z-0.125000 I1.631475 J-3.946649
G02 X45.795081 Y275.067916 Z-0.125000 I0.000000 J-5.036655
G02 X46.920164 Y274.670745 Z-0.125000 I-1.229024 J-5.273630
G02 X47.945707 Y274.046307 Z-0.125000 I-2.690010 J-5.572293
G02 X49.031980 Y273.084893 Z-0.125000 I-5.423361 J-7.222076
G01 X49.031980 Y277.683863 Z-0.125000
G03 X47.988633 Y278.380567 Z-0.125000 I-4.553118 J-5.688933
G03 X46.868021 Y278.873252 Z-0.125000 I-3.341503 J-6.079491
G03 X45.677804 Y279.166394 Z-0.125000 I-2.327806 J-6.888531
G03 X44.365128 Y279.269715 Z-0.125000 I-1.312676 J-8.287004
G01 X44.365128 Y279.269715 Z-0.125000
G00 Z15.000000

(Change tool to Default tool)

G00 Z15.000000
G00 X69.370587 Y279.269715

G01 Z-0.125000 F100.0(Penetrate)
G03 X68.222783 Y279.145395 Z-0.125000 I0.000000 J-5.360808 F400.000000
G03 X66.958946 Y278.741098 Z-0.125000 I1.516203 J-6.917191
G03 X65.772524 Y278.149101 Z-0.125000 I3.214415 J-7.926868
G03 X64.403914 Y277.208107 Z-0.125000 I6.905304 J-11.509063
G01 X64.403914 Y272.714862 Z-0.125000
G02 X65.580662 Y273.824404 Z-0.125000 I7.370578 J-6.638240
G02 X66.685197 Y274.538591 Z-0.125000 I4.096418 J-5.124156
G02 X67.907478 Y274.997236 Z-0.125000 I2.603690 J-5.080782
G02 X69.122907 Y275.146501 Z-0.125000 I1.215429 J-4.873854
G02 X70.819282 Y274.672256 Z-0.125000 I0.000000 J-3.271089
G02 X72.173306 Y273.296340 Z-0.125000 I-2.037525 J-3.359304
G02 X72.927316 Y271.378100 Z-0.125000 I-5.340223 J-3.206414
G02 X73.268324 Y268.115892 Z-0.125000 I-15.433212 J-3.262209
G01 X73.268324 Y267.640137 Z-0.125000
G01 X69.905058 Y267.640137 Z-0.125000
G03 X67.012666 Y266.939181 Z-0.125000 I0.000000 J-6.317996
G03 X64.977490 Y265.102774 Z-0.125000 I2.453843 J-4.765375
G03 X63.856662 Y262.411293 Z-0.125000 I6.839040 J-4.427136
G03 X63.334965 Y257.569980 Z-0.125000 I22.202698 J-4.841314
G03 X63.733803 Y253.384604 Z-0.125000 I22.159905 J-0.000000
G03 X64.651593 Y250.724387 Z-0.125000 I9.749175 J1.875090
G03 X66.343994 Y248.786634 Z-0.125000 I4.888913 J2.561961
G03 X68.223428 Y248.187024 Z-0.125000 I1.879434 J2.645669
G03 X69.855770 Y248.518167 Z-0.125000 I0.000000 J4.188827
G03 X71.221686 Y249.455706 Z-0.125000 I-1.615003 J3.816707
G03 X72.228144 Y250.878121 Z-0.125000 I-4.473361 J4.232490
G03 X73.268324 Y253.446766 Z-0.125000 I-13.861131 J7.108045
G01 X73.268324 Y248.953519 Z-0.125000
G01 X75.666930 Y248.953519 Z-0.125000
G01 X75.666930 Y265.842838 Z-0.125000
G03 X75.154676 Y272.494821 Z-0.125000 I-43.446467 J0.000000
G03 X74.102622 Y275.939426 Z-0.125000 I-12.512510 J-1.938617
G03 X72.007983 Y278.434680 Z-0.125000 I-5.752338 J-2.701997
G03 X69.370587 Y279.269715 Z-0.125000 I-2.637396 J-3.747495
G01 X69.370587 Y279.269715 Z-0.125000
G00 Z15.000000

(Change tool to Default tool)

G00 Z15.000000
G00 X106.839675 Y279.269715

G01 Z-0.125000 F100.0(Penetrate)
G03 X104.169436 Y278.315702 Z-0.125000 I-0.000000 J-4.213947 F400.000000
G03 X101.612274 Y274.987915 Z-0.125000 I5.849504 J-7.141307
G03 X100.276537 Y270.604274 Z-0.125000 I16.111372 J-7.304615
G03 X99.682964 Y263.464060 Z-0.125000 I42.648817 J-7.140214
G03 X100.305518 Y256.578629 Z-0.125000 I38.387663 J-0.000000
G03 X101.716561 Y252.310238 Z-0.125000 I15.968375 J2.911395
G03 X104.358526 Y249.147162 Z-0.125000 I7.922774 J3.932618
G03 X107.256824 Y248.187024 Z-0.125000 I2.898298 J3.894373
G03 X108.622334 Y248.329783 Z-0.125000 I-0.000000 J6.602054
G03 X110.007396 Y248.768503 Z-0.125000 I-1.529127 J7.233251
G03 X111.299175 Y249.452500 Z-0.125000 I-3.525899 J8.220727
G03 X112.653681 Y250.460078 Z-0.125000 I-6.426239 J10.053146
G01 X112.653681 Y255.059048 Z-0.125000
G02 X111.291470 Y253.795244 Z-0.125000 I-9.207593 J8.558510
G02 X110.072571 Y252.997440 Z-0.125000 I-4.821915 J6.036974
G02 X108.739713 Y252.479709 Z-0.125000 I-2.835184 J5.324426
G02 X107.400216 Y252.310238 Z-0.125000 I-1.339497 J5.208957
G02 X105.400518 Y252.941946 Z-0.125000 I0.000000 J3.480923
G02 X103.671948 Y254.926894 Z-0.125000 I3.150142 J4.488393
G02 X102.736051 Y257.669945 Z-0.125000 I9.458656 J4.758365
G02 X102.185857 Y262.591842 Z-0.125000 I30.350770 J5.884461
G01 X113.214228 Y262.591842 Z-0.125000
G01 X113.214228 Y264.970620 Z-0.125000
G03 X112.682658 Y271.464476 Z-0.125000 I-39.931411 J-0.000000
G03 X111.493487 Y275.410809 Z-0.125000 I-15.766131 J-2.598563
G03 X109.225580 Y278.409201 Z-0.125000 I-7.509878 J-3.323389
G03 X106.839675 Y279.269715 Z-0.125000 I-2.385905 J-2.877385
G01 X106.839675 Y279.269715 Z-0.125000
G00 Z15.000000

(Change tool to Default tool)

G00 Z15.000000
G00 X124.458990 Y279.269715

G01 Z-0.125000 F100.0(Penetrate)
G03 X122.874329 Y278.930576 Z-0.125000 I0.000000 J-3.871814 F400.000000
G03 X121.512879 Y277.948171 Z-0.125000 I1.700824 J-3.791635
G03 X120.528066 Y276.524919 Z-0.125000 I4.310313 J-4.034845
G03 X119.544457 Y273.957112 Z-0.125000 I13.365899 J-6.592154
G01 X119.544457 Y278.556081 Z-0.125000
G01 X117.132817 Y278.556081 Z-0.125000
G01 X117.132817 Y248.953519 Z-0.125000
G01 X119.544457 Y248.953519 Z-0.125000
G01 X119.544457 Y264.547727 Z-0.125000
G02 X119.891220 Y269.501988 Z-0.125000 I35.564583 J0.000000
G02 X120.626435 Y272.239106 Z-0.125000 I11.469197 J-1.613428
G02 X122.128211 Y274.330818 Z-0.125000 I5.083441 J-2.064765
G02 X123.755050 Y274.935054 Z-0.125000 I1.626839 J-1.887927
G02 X124.313605 Y274.872161 Z-0.125000 I0.000000 J-2.511730
G02 X124.797922 Y274.697177 Z-0.125000 I-0.468757 J-2.055141
G02 X125.241417 Y274.433554 Z-0.125000 I-0.843110 J-1.923236
G02 X125.684366 Y274.009974 Z-0.125000 I-1.815756 J-2.342174
G01 X125.671351 Y279.005406 Z-0.125000
G03 X125.302539 Y279.123301 Z-0.125000 I-1.736310 J-4.795885
G03 X125.006516 Y279.190422 Z-0.125000 I-0.840056 J-3.018544
G03 X124.704400 Y279.252034 Z-0.125000 I-0.687530 J-2.599817
G03 X124.459010 Y279.269709 Z-0.125000 I-0.245390 J-1.694508
G01 X124.458990 Y279.269715 Z-0.125000
G00 Z15.000000

(Change tool to Default tool)

G00 Z15.000000
G00 X144.824973 Y278.556081

G01 Z-0.125000 F100.0(Penetrate)
G01 X144.824973 Y248.953519 Z-0.125000 F400.000000
G01 X147.223579 Y248.953519 Z-0.125000
G01 X147.223579 Y278.556081 Z-0.125000
G01 X144.824973 Y278.556081 Z-0.125000
G00 Z15.000000

(Change tool to Default tool)

G00 Z15.000000
G00 X133.319490 Y275.199362

G01 Z-0.125000 F100.0(Penetrate)
G02 X134.787448 Y274.581689 Z-0.125000 I-0.000000 J-2.053208 F400.000000
G02 X136.317748 Y272.133382 Z-0.125000 I-4.824474 J-4.717916
G02 X137.068624 Y269.033736 Z-0.125000 I-13.903618 J-5.008863
G02 X137.412767 Y263.728370 Z-0.125000 I-40.722170 J-5.305366
G02 X137.069651 Y258.422339 Z-0.125000 I-41.198461 J-0.000000
G02 X136.317748 Y255.296925 Z-0.125000 I-14.933152 J1.939422
G02 X134.790459 Y252.872572 Z-0.125000 I-6.277778 J2.261606
G02 X133.319490 Y252.257376 Z-0.125000 I-1.470969 J1.450988
G02 X131.848524 Y252.872572 Z-0.125000 I0.000000 J2.066176
G02 X130.321238 Y255.296925 Z-0.125000 I4.750516 J4.685968
G02 X129.578406 Y258.420993 Z-0.125000 I14.335744 J5.059065
G02 X129.239255 Y263.728370 Z-0.125000 I41.358032 J5.307377
G02 X129.579422 Y269.035096 Z-0.125000 I41.563497 J-0.000000
G02 X130.321238 Y272.133382 Z-0.125000 I14.796695 J-1.904795
G02 X131.851535 Y274.581689 Z-0.125000 I6.354798 J-2.269617
G02 X133.319490 Y275.199362 Z-0.125000 I1.467955 J-1.435527
G01 X133.319490 Y275.199362 Z-0.125000
G00 Z15.000000

(Change tool to Default tool)

G00 Z15.000000
G00 X106.865745 Y275.146504

G01 Z-0.125000 F100.0(Penetrate)
G02 X108.301234 Y274.625002 Z-0.125000 I0.000000 J-2.236418 F400.000000
G02 X109.707569 Y272.767726 Z-0.125000 I-3.339962 J-3.990108
G02 X110.464359 Y270.317354 Z-0.125000 I-9.192106 J-4.181004
G02 X110.815623 Y266.397889 Z-0.125000 I-23.425018 J-4.074835
G01 X102.264074 Y266.371460 Z-0.125000
G02 X102.785499 Y270.456573 Z-0.125000 I24.730335 J-1.080753
G02 X103.645877 Y272.847020 Z-0.125000 I9.213112 J-1.965958
G02 X105.183399 Y274.607452 Z-0.125000 I4.482485 J-2.363268
G02 X106.865745 Y275.146505 Z-0.125000 I1.682346 J-2.355713
G01 X106.865745 Y275.146504 Z-0.125000
G00 Z15.000000

(Change tool to Default tool)

G00 Z15.000000
G00 X29.925264 Y263.834093

G01 Z-0.125000 F100.0(Penetrate)
G01 X32.310833 Y263.834093 Z-0.125000 F400.000000
G01 X32.310833 Y262.750428 Z-0.125000
G02 X31.941515 Y258.067414 Z-0.125000 I-29.875368 J-0.000000
G02 X31.098494 Y255.111909 Z-0.125000 I-12.629916 J2.004541
G02 X29.495596 Y252.864714 Z-0.125000 I-5.782934 J2.429639
G02 X27.904699 Y252.257376 Z-0.125000 I-1.590896 J1.779975
G02 X26.673083 Y252.625600 Z-0.125000 I0.000000 J2.243835
G02 X25.610381 Y253.763936 Z-0.125000 I1.807505 J2.752624
G02 X25.029062 Y255.361306 Z-0.125000 I5.016257 J2.729992
G02 X24.776084 Y257.887150 Z-0.125000 I12.483068 J2.525844
G02 X25.150359 Y261.002845 Z-0.125000 I13.155605 J0.000000
G02 X25.897171 Y262.486119 Z-0.125000 I3.579405 J-0.872549
G02 X27.224557 Y263.394195 Z-0.125000 I2.260364 J-1.879905
G02 X29.925264 Y263.834093 Z-0.125000 I2.700707 J-8.070409
G01 X29.925264 Y263.834093 Z-0.125000
G00 Z15.000000

(Change tool to Default tool)

G00 Z15.000000
G00 X70.882754 Y263.834093

G01 Z-0.125000 F100.0(Penetrate)
G01 X73.268324 Y263.834093 Z-0.125000 F400.000000
G01 X73.268324 Y262.750428 Z-0.125000
G02 X72.899006 Y258.067414 Z-0.125000 I-29.875286 J-0.000000
G02 X72.055983 Y255.111909 Z-0.125000 I-12.629909 J2.004545
G02 X70.453083 Y252.864714 Z-0.125000 I-5.782948 J2.429653
G02 X68.862186 Y252.257376 Z-0.125000 I-1.590897 J1.779976
G02 X67.630572 Y252.625600 Z-0.125000 I0.000000 J2.243827
G02 X66.567868 Y253.763936 Z-0.125000 I1.807524 J2.752648
G02 X65.986549 Y255.361305 Z-0.125000 I5.016295 J2.730003
G02 X65.733570 Y257.887150 Z-0.125000 I12.483027 J2.525845
G02 X66.107847 Y261.002846 Z-0.125000 I13.155557 J-0.000000
G02 X66.854659 Y262.486119 Z-0.125000 I3.579417 J-0.872555
G02 X68.182044 Y263.394195 Z-0.125000 I2.260361 J-1.879901
G02 X70.882754 Y263.834093 Z-0.125000 I2.700710 J-8.070424
G01 X70.882754 Y263.834093 Z-0.125000
G00 Z15.000000

(End cutting path id: text25585)


(Pass at depth -2.0)

(Footer)
M5
G00 X0.0000 Y0.0000
M2
(Using default footer. To add your own footer create file "footer" in the output dir.)
(end)
%