;FLAVOR:Marlin
;TIME:24151
;Filament used: 43.1274m
;Layer height: 0.3
;MINX:0.639
;MINY:0.639
;MINZ:0.3
;MAXX:299.361
;MAXY:299.361
;MAXZ:8.4
;Generated with Cura_SteamEngine master
M140 S100
M105
M190 S100
M104 S210
M105
M109 S210
M82 ;absolute extrusion mode
G28 ;Home
G1 Z15.0 F2000 ;Move the platform
M106 S255

G92 E0
G92 E0
;LAYER_COUNT:28
;LAYER:0
M107 P2
G0 F9000 X1.957 Y32.833 Z0.3
;TYPE:SKIRT
G1 F1800 X32.833 Y1.957 E3.2677
G1 X33.284 Y1.562 E3.31257
G1 X33.784 Y1.231 E3.35744
G1 X34.324 Y0.969 E3.40236
G1 X34.893 Y0.781 E3.4472
G1 X35.483 Y0.671 E3.49212
G1 X36.081 Y0.639 E3.53693
G1 X36.679 Y0.688 E3.58183
G1 X37.265 Y0.816 E3.62672
G1 X37.829 Y1.021 E3.67163
G1 X38.36 Y1.298 E3.71645
G1 X38.85 Y1.644 E3.76134
G1 X39.197 Y1.957 E3.79631
G1 X74.871 Y37.631 E7.5718
G1 X85.683 Y37.631 E8.38092
G1 X86.281 Y37.671 E8.42577
G1 X86.869 Y37.79 E8.47067
G1 X87.436 Y37.986 E8.51556
G1 X87.971 Y38.256 E8.56041
G1 X88.466 Y38.595 E8.60531
G1 X88.912 Y38.996 E8.65019
G1 X89.3 Y39.453 E8.69505
G1 X89.624 Y39.958 E8.73995
G1 X89.878 Y40.501 E8.78482
G1 X90.057 Y41.074 E8.82974
G1 X90.159 Y41.664 E8.87455
G1 X90.183 Y42.131 E8.90954
G1 X90.183 Y52.943 E9.71866
G1 X150 Y112.759 E16.04923
G1 X208.782 Y53.978 E22.27026
G1 X208.782 Y42.131 E23.15683
G1 X208.822 Y41.533 E23.20168
G1 X208.941 Y40.945 E23.24658
G1 X209.137 Y40.378 E23.29147
G1 X209.407 Y39.843 E23.33632
G1 X209.746 Y39.348 E23.38122
G1 X210.147 Y38.902 E23.4261
G1 X210.604 Y38.514 E23.47096
G1 X211.109 Y38.19 E23.51586
G1 X211.652 Y37.936 E23.56073
G1 X212.225 Y37.757 E23.60565
G1 X212.815 Y37.655 E23.65046
G1 X213.282 Y37.631 E23.68545
G1 X225.129 Y37.631 E24.57203
G1 X260.803 Y1.957 E28.34752
G1 X261.254 Y1.562 E28.39238
G1 X261.754 Y1.231 E28.43726
G1 X262.294 Y0.969 E28.48217
G1 X262.863 Y0.781 E28.52702
G1 X263.453 Y0.671 E28.57193
G1 X264.051 Y0.639 E28.61675
G1 X264.649 Y0.688 E28.66165
G1 X265.235 Y0.816 E28.70654
G1 X265.799 Y1.021 E28.75144
G1 X266.33 Y1.298 E28.79626
G1 X266.82 Y1.644 E28.84115
G1 X267.167 Y1.957 E28.87612
G1 X298.043 Y32.833 E32.14383
G1 X298.438 Y33.284 E32.18869
G1 X298.769 Y33.784 E32.23357
G1 X299.031 Y34.324 E32.27848
G1 X299.219 Y34.893 E32.32333
G1 X299.329 Y35.483 E32.36824
G1 X299.361 Y36.081 E32.41306
G1 X299.312 Y36.679 E32.45796
G1 X299.184 Y37.265 E32.50285
G1 X298.979 Y37.829 E32.54775
G1 X298.702 Y38.36 E32.59257
G1 X298.356 Y38.85 E32.63746
G1 X298.043 Y39.197 E32.67244
G1 X261.448 Y75.792 E36.5454
G1 X261.448 Y224.208 E47.65215
G1 X298.043 Y260.803 E51.52512
G1 X298.438 Y261.254 E51.56998
G1 X298.769 Y261.754 E51.61486
G1 X299.031 Y262.294 E51.65977
G1 X299.219 Y262.863 E51.70462
G1 X299.329 Y263.453 E51.74953
G1 X299.361 Y264.051 E51.79435
G1 X299.312 Y264.649 E51.83925
G1 X299.184 Y265.235 E51.88414
G1 X298.979 Y265.799 E51.92904
G1 X298.702 Y266.33 E51.97386
G1 X298.356 Y266.82 E52.01875
G1 X298.043 Y267.167 E52.05372
G1 X267.167 Y298.043 E55.32143
G1 X266.716 Y298.438 E55.36629
G1 X266.216 Y298.769 E55.41117
G1 X265.676 Y299.031 E55.45608
G1 X265.107 Y299.219 E55.50093
G1 X264.517 Y299.329 E55.54584
G1 X263.919 Y299.361 E55.59066
G1 X263.321 Y299.312 E55.63556
G1 X262.735 Y299.184 E55.68045
G1 X262.171 Y298.979 E55.72536
G1 X261.64 Y298.702 E55.77017
G1 X261.15 Y298.356 E55.81506
G1 X260.803 Y298.043 E55.85004
G1 X225.129 Y262.369 E59.62553
G1 X213.282 Y262.369 E60.5121
G1 X212.684 Y262.329 E60.55695
G1 X212.096 Y262.21 E60.60185
G1 X211.529 Y262.014 E60.64674
G1 X210.994 Y261.744 E60.69159
G1 X210.499 Y261.405 E60.73649
G1 X210.053 Y261.004 E60.78137
G1 X209.665 Y260.547 E60.82623
G1 X209.341 Y260.042 E60.87113
G1 X209.087 Y259.499 E60.916
G1 X208.908 Y258.926 E60.96092
G1 X208.806 Y258.336 E61.00573
G1 X208.782 Y257.869 E61.04072
G1 X208.782 Y246.022 E61.9273
G1 X150 Y187.24 E68.14838
G1 X90.183 Y247.057 E74.479
G1 X90.183 Y257.869 E75.28812
G1 X90.143 Y258.467 E75.33297
G1 X90.024 Y259.055 E75.37786
G1 X89.828 Y259.622 E75.42276
G1 X89.558 Y260.157 E75.4676
G1 X89.219 Y260.652 E75.5125
G1 X88.818 Y261.098 E75.55738
G1 X88.361 Y261.486 E75.60225
G1 X87.856 Y261.81 E75.64715
G1 X87.313 Y262.064 E75.69201
G1 X86.74 Y262.243 E75.73694
G1 X86.15 Y262.345 E75.78174
G1 X85.683 Y262.369 E75.81674
G1 X74.871 Y262.369 E76.62586
G1 X39.197 Y298.043 E80.40135
G1 X38.746 Y298.438 E80.44621
G1 X38.246 Y298.769 E80.49109
G1 X37.706 Y299.031 E80.536
G1 X37.137 Y299.219 E80.58085
G1 X36.547 Y299.329 E80.62576
G1 X35.949 Y299.361 E80.67058
G1 X35.351 Y299.312 E80.71548
G1 X34.765 Y299.184 E80.76037
G1 X34.201 Y298.979 E80.80527
G1 X33.67 Y298.702 E80.85009
G1 X33.18 Y298.356 E80.89498
G1 X32.833 Y298.043 E80.92995
G1 X1.957 Y267.167 E84.19766
G1 X1.562 Y266.716 E84.24252
G1 X1.231 Y266.216 E84.2874
G1 X0.969 Y265.676 E84.33231
G1 X0.781 Y265.107 E84.37716
G1 X0.671 Y264.517 E84.42207
G1 X0.639 Y263.919 E84.46689
G1 X0.688 Y263.321 E84.51179
G1 X0.816 Y262.735 E84.55668
G1 X1.021 Y262.171 E84.60159
G1 X1.298 Y261.64 E84.6464
G1 X1.644 Y261.15 E84.69129
G1 X1.957 Y260.803 E84.72627
G1 X37.517 Y225.243 E88.48969
G1 X37.517 Y174.447 E92.29103
G1 X37.234 Y174.006 E92.33024
G1 X36.98 Y173.463 E92.3751
G1 X36.801 Y172.89 E92.42002
G1 X36.699 Y172.3 E92.46483
G1 X36.675 Y171.833 E92.49983
G1 X36.675 Y128.167 E95.76758
G1 X36.715 Y127.569 E95.81244
G1 X36.834 Y126.981 E95.85733
G1 X37.03 Y126.414 E95.90223
G1 X37.3 Y125.879 E95.94707
G1 X37.517 Y125.562 E95.97582
G1 X37.517 Y74.757 E99.77783
G1 X1.957 Y39.197 E103.54125
G1 X1.562 Y38.746 E103.58612
G1 X1.231 Y38.246 E103.63099
G1 X0.969 Y37.706 E103.67591
G1 X0.781 Y37.137 E103.72076
G1 X0.671 Y36.547 E103.76567
G1 X0.639 Y35.949 E103.81048
G1 X0.688 Y35.351 E103.85539
G1 X0.816 Y34.765 E103.90027
G1 X1.021 Y34.201 E103.94518
G1 X1.298 Y33.67 E103.99
G1 X1.644 Y33.18 E104.03489
G1 X1.957 Y32.833 E104.06986
G0 F9000 X2.381 Y33.257
G1 F1800 X33.257 Y2.381 E107.33757
G1 X33.679 Y2.016 E107.37932
G1 X34.149 Y1.714 E107.42113
G1 X34.657 Y1.483 E107.46289
G1 X35.193 Y1.327 E107.50467
G1 X35.746 Y1.248 E107.54647
G1 X36.304 Y1.25 E107.58823
G1 X36.856 Y1.331 E107.62998
G1 X37.391 Y1.49 E107.67175
G1 X37.898 Y1.724 E107.71353
G1 X38.366 Y2.028 E107.7553
G1 X38.773 Y2.381 E107.79562
G1 X74.623 Y38.231 E111.58973
G1 X85.683 Y38.231 E112.41741
G1 X86.24 Y38.271 E112.4592
G1 X86.785 Y38.39 E112.50095
G1 X87.308 Y38.586 E112.54275
G1 X87.797 Y38.854 E112.58448
G1 X88.244 Y39.189 E112.62628
G1 X88.637 Y39.585 E112.66803
G1 X88.971 Y40.033 E112.70985
G1 X89.236 Y40.524 E112.7516
G1 X89.429 Y41.048 E112.79339
G1 X89.546 Y41.594 E112.83518
G1 X89.583 Y42.131 E112.87546
G1 X89.583 Y53.191 E113.70314
G1 X150 Y113.607 E120.0972
G1 X209.382 Y54.226 E126.38173
G1 X209.382 Y42.131 E127.28687
G1 X209.422 Y41.574 E127.32866
G1 X209.541 Y41.029 E127.3704
G1 X209.737 Y40.506 E127.4122
G1 X210.005 Y40.017 E127.45393
G1 X210.34 Y39.57 E127.49573
G1 X210.736 Y39.177 E127.53748
G1 X211.184 Y38.843 E127.5793
G1 X211.675 Y38.578 E127.62106
G1 X212.199 Y38.385 E127.66285
G1 X212.745 Y38.268 E127.70463
G1 X213.282 Y38.231 E127.74491
G1 X225.377 Y38.231 E128.65005
G1 X261.227 Y2.381 E132.44416
G1 X261.649 Y2.016 E132.48592
G1 X262.119 Y1.714 E132.52773
G1 X262.627 Y1.483 E132.56949
G1 X263.163 Y1.327 E132.61126
G1 X263.716 Y1.248 E132.65307
G1 X264.274 Y1.25 E132.69483
G1 X264.826 Y1.331 E132.73658
G1 X265.361 Y1.49 E132.77835
G1 X265.868 Y1.724 E132.82013
G1 X266.336 Y2.028 E132.8619
G1 X266.743 Y2.381 E132.90222
G1 X297.619 Y33.257 E136.16992
G1 X297.984 Y33.679 E136.21167
G1 X298.286 Y34.149 E136.25348
G1 X298.517 Y34.657 E136.29524
G1 X298.673 Y35.193 E136.33702
G1 X298.752 Y35.746 E136.37882
G1 X298.75 Y36.304 E136.42058
G1 X298.669 Y36.856 E136.46233
G1 X298.51 Y37.391 E136.5041
G1 X298.276 Y37.898 E136.54589
G1 X297.972 Y38.366 E136.58765
G1 X297.619 Y38.773 E136.62797
G1 X260.848 Y75.544 E140.51956
G1 X260.848 Y224.456 E151.66343
G1 X297.619 Y261.227 E155.55502
G1 X297.984 Y261.649 E155.59678
G1 X298.286 Y262.119 E155.63858
G1 X298.517 Y262.627 E155.68035
G1 X298.673 Y263.163 E155.72212
G1 X298.752 Y263.716 E155.76393
G1 X298.75 Y264.274 E155.80568
G1 X298.669 Y264.826 E155.84744
G1 X298.51 Y265.361 E155.8892
G1 X298.276 Y265.868 E155.93099
G1 X297.972 Y266.336 E155.97275
G1 X297.619 Y266.743 E156.01307
G1 X266.743 Y297.619 E159.28078
G1 X266.321 Y297.984 E159.32253
G1 X265.851 Y298.286 E159.36434
G1 X265.343 Y298.517 E159.4061
G1 X264.807 Y298.673 E159.44788
G1 X264.254 Y298.752 E159.48968
G1 X263.696 Y298.75 E159.53144
G1 X263.144 Y298.669 E159.57319
G1 X262.609 Y298.51 E159.61496
G1 X262.102 Y298.276 E159.65674
G1 X261.634 Y297.972 E159.69851
G1 X261.227 Y297.619 E159.73883
G1 X225.377 Y261.769 E163.53294
G1 X213.282 Y261.769 E164.43808
G1 X212.725 Y261.729 E164.47987
G1 X212.18 Y261.61 E164.52161
G1 X211.657 Y261.414 E164.56341
G1 X211.168 Y261.146 E164.60514
G1 X210.721 Y260.811 E164.64694
G1 X210.328 Y260.415 E164.68869
G1 X209.994 Y259.967 E164.73051
G1 X209.729 Y259.476 E164.77227
G1 X209.536 Y258.952 E164.81406
G1 X209.419 Y258.406 E164.85584
G1 X209.382 Y257.869 E164.89612
G1 X209.382 Y245.774 E165.80126
G1 X150 Y186.392 E172.08584
G1 X89.583 Y246.809 E178.47996
G1 X89.583 Y257.869 E179.30764
G1 X89.543 Y258.426 E179.34943
G1 X89.424 Y258.971 E179.39117
G1 X89.228 Y259.494 E179.43297
G1 X88.96 Y259.983 E179.4747
G1 X88.625 Y260.43 E179.5165
G1 X88.229 Y260.823 E179.55825
G1 X87.781 Y261.157 E179.60007
G1 X87.29 Y261.422 E179.64183
G1 X86.766 Y261.615 E179.68362
G1 X86.22 Y261.732 E179.7254
G1 X85.683 Y261.769 E179.76568
G1 X74.623 Y261.769 E180.59336
G1 X38.773 Y297.619 E184.38748
G1 X38.351 Y297.984 E184.42923
G1 X37.881 Y298.286 E184.47104
G1 X37.373 Y298.517 E184.5128
G1 X36.837 Y298.673 E184.55458
G1 X36.284 Y298.752 E184.59638
G1 X35.726 Y298.75 E184.63814
G1 X35.174 Y298.669 E184.67989
G1 X34.639 Y298.51 E184.72166
G1 X34.132 Y298.276 E184.76345
G1 X33.664 Y297.972 E184.80521
G1 X33.257 Y297.619 E184.84553
G1 X2.381 Y266.743 E188.11323
G1 X2.016 Y266.321 E188.15499
G1 X1.714 Y265.851 E188.1968
G1 X1.483 Y265.343 E188.23856
G1 X1.327 Y264.807 E188.28033
G1 X1.248 Y264.254 E188.32214
G1 X1.25 Y263.696 E188.3639
G1 X1.331 Y263.144 E188.40565
G1 X1.49 Y262.609 E188.44742
G1 X1.724 Y262.102 E188.4892
G1 X2.028 Y261.634 E188.53097
G1 X2.381 Y261.227 E188.57128
G1 X38.117 Y225.491 E192.35334
G1 X38.117 Y174.24 E196.18872
G1 X37.887 Y173.931 E196.21755
G1 X37.622 Y173.44 E196.2593
G1 X37.429 Y172.916 E196.30109
G1 X37.312 Y172.37 E196.34288
G1 X37.275 Y171.833 E196.38316
G1 X37.275 Y128.167 E199.65092
G1 X37.315 Y127.61 E199.69271
G1 X37.434 Y127.065 E199.73445
G1 X37.63 Y126.542 E199.77625
G1 X37.898 Y126.053 E199.81798
G1 X38.117 Y125.761 E199.8453
G1 X38.117 Y74.509 E203.68076
G1 X2.381 Y38.773 E207.46281
G1 X2.016 Y38.351 E207.50456
G1 X1.714 Y37.881 E207.54637
G1 X1.483 Y37.373 E207.58813
G1 X1.327 Y36.837 E207.62991
G1 X1.248 Y36.284 E207.67171
G1 X1.25 Y35.726 E207.71347
G1 X1.331 Y35.174 E207.75522
G1 X1.49 Y34.639 E207.79699
G1 X1.724 Y34.132 E207.83878
G1 X2.028 Y33.664 E207.88054
G1 X2.381 Y33.257 E207.92086
G0 F9000 X2.806 Y33.682
G1 F1800 X33.682 Y2.806 E211.18856
G1 X34.072 Y2.472 E211.22699
G1 X34.509 Y2.203 E211.26539
G1 X34.983 Y2.005 E211.30383
G1 X35.481 Y1.882 E211.34222
G1 X35.993 Y1.839 E211.38067
G1 X36.505 Y1.876 E211.41909
G1 X37.005 Y1.991 E211.45748
G1 X37.482 Y2.183 E211.49596
G1 X37.922 Y2.446 E211.53432
G1 X38.348 Y2.806 E211.57606
G1 X74.373 Y38.831 E215.3887
G1 X85.683 Y38.831 E216.23508
G1 X86.195 Y38.871 E216.27352
G1 X86.694 Y38.99 E216.31191
G1 X87.169 Y39.185 E216.35033
G1 X87.608 Y39.451 E216.38875
G1 X88.001 Y39.782 E216.4272
G1 X88.337 Y40.17 E216.46561
G1 X88.609 Y40.605 E216.504
G1 X88.81 Y41.078 E216.54246
G1 X88.936 Y41.575 E216.58083
G1 X88.983 Y42.131 E216.62259
G1 X88.983 Y53.441 E217.46898
G1 X150 Y114.457 E223.92654
G1 X209.982 Y54.476 E230.27457
G1 X209.982 Y42.131 E231.19841
G1 X210.022 Y41.619 E231.23684
G1 X210.141 Y41.12 E231.27523
G1 X210.336 Y40.645 E231.31366
G1 X210.602 Y40.206 E231.35207
G1 X210.933 Y39.813 E231.39052
G1 X211.321 Y39.477 E231.42893
G1 X211.756 Y39.205 E231.46733
G1 X212.229 Y39.004 E231.50579
G1 X212.726 Y38.878 E231.54416
G1 X213.282 Y38.831 E231.58591
G1 X225.627 Y38.831 E232.50976
G1 X261.652 Y2.806 E236.32239
G1 X262.042 Y2.472 E236.36082
G1 X262.479 Y2.203 E236.39922
G1 X262.953 Y2.005 E236.43766
G1 X263.451 Y1.882 E236.47605
G1 X263.963 Y1.839 E236.5145
G1 X264.475 Y1.876 E236.55292
G1 X264.975 Y1.991 E236.59131
G1 X265.452 Y2.183 E236.62979
G1 X265.892 Y2.446 E236.66815
G1 X266.318 Y2.806 E236.70989
G1 X297.194 Y33.682 E239.9776
G1 X297.528 Y34.072 E240.01602
G1 X297.797 Y34.509 E240.05442
G1 X297.995 Y34.983 E240.09287
G1 X298.118 Y35.481 E240.13125
G1 X298.161 Y35.993 E240.16971
G1 X298.124 Y36.505 E240.20812
G1 X298.009 Y37.005 E240.24652
G1 X297.817 Y37.482 E240.285
G1 X297.554 Y37.922 E240.32336
G1 X297.194 Y38.348 E240.3651
G1 X260.248 Y75.294 E244.2752
G1 X260.248 Y224.706 E255.4565
G1 X297.194 Y261.652 E259.36661
G1 X297.528 Y262.042 E259.40503
G1 X297.797 Y262.479 E259.44344
G1 X297.995 Y262.953 E259.48188
G1 X298.118 Y263.451 E259.52027
G1 X298.161 Y263.963 E259.55872
G1 X298.124 Y264.475 E259.59713
G1 X298.009 Y264.975 E259.63553
G1 X297.817 Y265.452 E259.67401
G1 X297.554 Y265.892 E259.71237
G1 X297.194 Y266.318 E259.75411
G1 X266.318 Y297.194 E263.02181
G1 X265.928 Y297.528 E263.06023
G1 X265.491 Y297.797 E263.09864
G1 X265.017 Y297.995 E263.13708
G1 X264.519 Y298.118 E263.17547
G1 X264.007 Y298.161 E263.21392
G1 X263.495 Y298.124 E263.25233
G1 X262.995 Y298.009 E263.29073
G1 X262.518 Y297.817 E263.32921
G1 X262.078 Y297.554 E263.36757
G1 X261.652 Y297.194 E263.40931
G1 X225.627 Y261.169 E267.22195
G1 X213.282 Y261.169 E268.14579
G1 X212.77 Y261.129 E268.18422
G1 X212.271 Y261.01 E268.22261
G1 X211.796 Y260.815 E268.26104
G1 X211.357 Y260.549 E268.29945
G1 X210.964 Y260.218 E268.3379
G1 X210.628 Y259.83 E268.37631
G1 X210.356 Y259.395 E268.4147
G1 X210.155 Y258.922 E268.45316
G1 X210.029 Y258.425 E268.49153
G1 X209.982 Y257.869 E268.53329
G1 X209.982 Y245.524 E269.45713
G1 X150 Y185.542 E275.80521
G1 X88.983 Y246.559 E282.26283
G1 X88.983 Y257.869 E283.10922
G1 X88.943 Y258.381 E283.14765
G1 X88.824 Y258.88 E283.18604
G1 X88.629 Y259.355 E283.22447
G1 X88.363 Y259.794 E283.26288
G1 X88.032 Y260.187 E283.30133
G1 X87.644 Y260.523 E283.33974
G1 X87.209 Y260.795 E283.37814
G1 X86.736 Y260.996 E283.4166
G1 X86.239 Y261.122 E283.45497
G1 X85.683 Y261.169 E283.49672
G1 X74.373 Y261.169 E284.34311
G1 X38.348 Y297.194 E288.15575
G1 X37.958 Y297.528 E288.19417
G1 X37.521 Y297.797 E288.23258
G1 X37.047 Y297.995 E288.27102
G1 X36.549 Y298.118 E288.30941
G1 X36.037 Y298.161 E288.34786
G1 X35.525 Y298.124 E288.38627
G1 X35.025 Y298.009 E288.42467
G1 X34.548 Y297.817 E288.46315
G1 X34.108 Y297.554 E288.50151
G1 X33.682 Y297.194 E288.54325
G1 X2.806 Y266.318 E291.81095
G1 X2.472 Y265.928 E291.84938
G1 X2.203 Y265.491 E291.88778
G1 X2.005 Y265.017 E291.92622
G1 X1.882 Y264.519 E291.96461
G1 X1.839 Y264.007 E292.00306
G1 X1.876 Y263.495 E292.04147
G1 X1.991 Y262.995 E292.07987
G1 X2.183 Y262.518 E292.11835
G1 X2.446 Y262.078 E292.15671
G1 X2.806 Y261.652 E292.19845
G1 X38.717 Y225.741 E295.99902
G1 X38.717 Y174.02 E299.86958
G1 X38.521 Y173.794 E299.89197
G1 X38.249 Y173.359 E299.93036
G1 X38.048 Y172.886 E299.96882
G1 X37.922 Y172.389 E300.00719
G1 X37.875 Y171.833 E300.04895
G1 X37.875 Y128.167 E303.3167
G1 X37.915 Y127.655 E303.35514
G1 X38.034 Y127.156 E303.39353
G1 X38.229 Y126.681 E303.43195
G1 X38.495 Y126.242 E303.47037
G1 X38.717 Y125.978 E303.49618
G1 X38.717 Y74.259 E307.36659
G1 X2.806 Y38.348 E311.16716
G1 X2.472 Y37.958 E311.20558
G1 X2.203 Y37.521 E311.24399
G1 X2.005 Y37.047 E311.28243
G1 X1.882 Y36.549 E311.32082
G1 X1.839 Y36.037 E311.35927
G1 X1.876 Y35.525 E311.39768
G1 X1.991 Y35.025 E311.43608
G1 X2.183 Y34.548 E311.47456
G1 X2.446 Y34.108 E311.51292
G1 X2.806 Y33.682 E311.55466
G0 F9000 X3.23 Y34.106
G1 F1800 X34.106 Y3.23 E314.82236
G1 X34.461 Y2.931 E314.85709
G1 X34.862 Y2.697 E314.89184
G1 X35.298 Y2.536 E314.92662
G1 X35.754 Y2.452 E314.96132
G1 X36.219 Y2.447 E314.99612
