;FLAVOR:Marlin
;TIME:4316
;Filament used: 7.99832m
;Layer height: 0.32
;MINX:72.642
;MINY:78.399
;MINZ:0.32
;MAXX:227.358
;MAXY:221.6
;MAXZ:7.36
;Generated with Cura_SteamEngine master
M140 S60
M105
M190 S60
M104 S240
M105
M109 S240
M82 ;absolute extrusion mode
G28 ;Home
G1 Z15.0 F2000 ;Move the platform
G92 E0
G92 E0
;LAYER_COUNT:24
;LAYER:0
M107 P2
G0 F7500 X78.519 Y130.519 Z0.32
;TYPE:SKIRT
G1 F1500 X79.377 Y130.073 E0.07719
G1 X80.269 Y129.699 E0.1544
G1 X81.189 Y129.401 E0.23159
G1 X82.131 Y129.179 E0.30885
G1 X83.083 Y129.037 E0.38568
G1 X112.909 Y125.818 E2.78035
G1 X113.874 Y125.754 E2.85755
G1 X114.841 Y125.77 E2.93475
G1 X115.803 Y125.865 E3.01191
G1 X116.755 Y126.04 E3.08918
G1 X117.688 Y126.293 E3.16634
G1 X118.598 Y126.623 E3.24361
G1 X119.477 Y127.026 E3.3208
G1 X120.32 Y127.5 E3.398
G1 X121.121 Y128.043 E3.47525
G1 X121.874 Y128.65 E3.55245
G1 X122.575 Y129.317 E3.62969
G1 X123.218 Y130.039 E3.70687
G1 X123.799 Y130.812 E3.78406
G1 X124.314 Y131.631 E3.86129
G1 X124.76 Y132.489 E3.93848
G1 X125.134 Y133.381 E4.01568
G1 X125.432 Y134.301 E4.09288
G1 X125.654 Y135.243 E4.17013
G1 X125.796 Y136.194 E4.24689
G1 X126.063 Y138.672 E4.44584
G1 X155.709 Y111.739 E7.64307
G1 X156.451 Y111.119 E7.72025
G1 X157.242 Y110.562 E7.79748
G1 X158.076 Y110.072 E7.87469
G1 X158.948 Y109.653 E7.95192
G1 X159.851 Y109.308 E8.02908
G1 X160.78 Y109.038 E8.10631
G1 X161.728 Y108.846 E8.18352
G1 X162.689 Y108.733 E8.26076
G1 X163.573 Y108.699 E8.33137
G1 X167.859 Y108.698 E8.6735
G1 X166.334 Y94.57 E9.80781
G1 X166.27 Y93.604 E9.88509
G1 X166.286 Y92.637 E9.96229
G1 X166.381 Y91.675 E10.03945
G1 X166.556 Y90.724 E10.11664
G1 X166.809 Y89.79 E10.19388
G1 X167.139 Y88.88 E10.27115
G1 X167.542 Y88.001 E10.34834
G1 X168.016 Y87.158 E10.42554
G1 X168.559 Y86.357 E10.50279
G1 X169.166 Y85.604 E10.57999
G1 X169.832 Y84.904 E10.65712
G1 X170.555 Y84.26 E10.73441
G1 X171.328 Y83.679 E10.8116
G1 X172.147 Y83.164 E10.88883
G1 X173.005 Y82.718 E10.96602
G1 X173.897 Y82.344 E11.04322
G1 X174.817 Y82.046 E11.12042
G1 X175.759 Y81.824 E11.19767
G1 X176.711 Y81.682 E11.27451
G1 X206.538 Y78.463 E13.66925
G1 X207.503 Y78.399 E13.74645
G1 X208.47 Y78.415 E13.82365
G1 X209.432 Y78.51 E13.90082
G1 X210.384 Y78.685 E13.97808
G1 X211.317 Y78.938 E14.05525
G1 X212.227 Y79.268 E14.13252
G1 X213.106 Y79.671 E14.20971
G1 X213.949 Y80.145 E14.28691
G1 X214.75 Y80.688 E14.36415
G1 X215.503 Y81.295 E14.44136
G1 X216.204 Y81.962 E14.5186
G1 X216.847 Y82.684 E14.59577
G1 X217.428 Y83.457 E14.67296
G1 X217.943 Y84.276 E14.75019
G1 X218.389 Y85.134 E14.82738
G1 X218.763 Y86.026 E14.90459
G1 X219.061 Y86.946 E14.98178
G1 X219.283 Y87.888 E15.05904
G1 X219.425 Y88.84 E15.13587
G1 X222.644 Y118.667 E17.53062
G1 X222.708 Y119.632 E17.60782
G1 X222.692 Y120.599 E17.68502
G1 X222.597 Y121.561 E17.76218
G1 X222.422 Y122.513 E17.83945
G1 X222.169 Y123.446 E17.91661
G1 X221.839 Y124.356 E17.99388
G1 X221.436 Y125.235 E18.07107
G1 X220.962 Y126.078 E18.14827
G1 X220.419 Y126.879 E18.22552
G1 X219.812 Y127.632 E18.30272
G1 X219.145 Y128.333 E18.37996
G1 X218.423 Y128.976 E18.45714
G1 X217.65 Y129.557 E18.53433
G1 X216.831 Y130.072 E18.61156
G1 X215.973 Y130.518 E18.68874
G1 X215.081 Y130.892 E18.76595
G1 X214.161 Y131.19 E18.84315
G1 X213.219 Y131.412 E18.9204
G1 X212.268 Y131.554 E18.99716
G1 X198.207 Y133.072 E20.12609
G1 X198.206 Y165.985 E22.75335
G1 X211.187 Y164.584 E23.79556
G1 X212.152 Y164.52 E23.87276
G1 X213.12 Y164.536 E23.95004
G1 X214.082 Y164.631 E24.02721
G1 X215.033 Y164.806 E24.1044
G1 X215.967 Y165.059 E24.18164
G1 X216.876 Y165.389 E24.25883
G1 X217.756 Y165.792 E24.33609
G1 X218.599 Y166.266 E24.41329
G1 X219.399 Y166.809 E24.49047
G1 X220.153 Y167.415 E24.56769
G1 X220.853 Y168.082 E24.64487
G1 X221.496 Y168.805 E24.72211
G1 X222.078 Y169.578 E24.79935
G1 X222.593 Y170.397 E24.87657
G1 X223.039 Y171.255 E24.95376
G1 X223.413 Y172.147 E25.03097
G1 X223.711 Y173.067 E25.10817
G1 X223.933 Y174.009 E25.18542
G1 X224.075 Y174.961 E25.26226
G1 X227.294 Y204.788 E27.657
G1 X227.358 Y205.753 E27.7342
G1 X227.342 Y206.72 E27.8114
G1 X227.247 Y207.682 E27.88857
G1 X227.072 Y208.634 E27.96583
G1 X226.819 Y209.567 E28.043
G1 X226.489 Y210.477 E28.12027
G1 X226.086 Y211.356 E28.19745
G1 X225.612 Y212.199 E28.27465
G1 X225.069 Y213 E28.3519
G1 X224.462 Y213.753 E28.42911
G1 X223.795 Y214.454 E28.50635
G1 X223.073 Y215.097 E28.58352
G1 X222.3 Y215.678 E28.66071
G1 X221.481 Y216.193 E28.73794
G1 X220.623 Y216.639 E28.81513
G1 X219.731 Y217.013 E28.89234
G1 X218.811 Y217.311 E28.96953
G1 X217.869 Y217.533 E29.04679
G1 X216.918 Y217.675 E29.12354
G1 X187.092 Y220.895 E31.51822
G1 X186.127 Y220.959 E31.59542
G1 X185.16 Y220.943 E31.67262
G1 X184.197 Y220.848 E31.74986
G1 X183.246 Y220.673 E31.82705
G1 X182.312 Y220.42 E31.90429
G1 X181.403 Y220.091 E31.98146
G1 X180.523 Y219.687 E32.05875
G1 X179.68 Y219.213 E32.13595
G1 X178.88 Y218.67 E32.21313
G1 X178.126 Y218.064 E32.29035
G1 X177.426 Y217.397 E32.36753
G1 X176.783 Y216.674 E32.44477
G1 X176.201 Y215.901 E32.522
G1 X175.686 Y215.083 E32.59916
G1 X175.24 Y214.224 E32.67642
G1 X174.866 Y213.332 E32.75363
G1 X174.568 Y212.412 E32.83083
G1 X174.346 Y211.471 E32.908
G1 X174.204 Y210.519 E32.98484
G1 X172.373 Y193.555 E34.34684
G1 X127.909 Y193.567 E37.89615
G1 X127.023 Y210.516 E39.25094
G1 X126.933 Y211.479 E39.32815
G1 X126.763 Y212.431 E39.40534
G1 X126.515 Y213.366 E39.48256
G1 X126.191 Y214.278 E39.55982
G1 X125.793 Y215.159 E39.63698
G1 X125.323 Y216.005 E39.71424
G1 X124.785 Y216.809 E39.79146
G1 X124.183 Y217.565 E39.8686
G1 X123.52 Y218.27 E39.94585
G1 X122.801 Y218.917 E40.02306
G1 X122.031 Y219.502 E40.10026
G1 X121.215 Y220.022 E40.17749
G1 X120.36 Y220.473 E40.25466
G1 X119.47 Y220.852 E40.33187
G1 X118.551 Y221.155 E40.40912
G1 X117.611 Y221.382 E40.48631
G1 X116.655 Y221.531 E40.56354
G1 X115.69 Y221.6 E40.64077
G1 X114.727 Y221.589 E40.71765
G1 X84.768 Y220.021 E43.11238
G1 X83.805 Y219.931 E43.18958
G1 X82.853 Y219.761 E43.26678
G1 X81.918 Y219.513 E43.34399
G1 X81.007 Y219.189 E43.42117
G1 X80.125 Y218.791 E43.49842
G1 X79.28 Y218.321 E43.5756
G1 X78.476 Y217.783 E43.65282
G1 X77.719 Y217.18 E43.73008
G1 X77.015 Y216.517 E43.80727
G1 X76.368 Y215.798 E43.88448
G1 X75.782 Y215.029 E43.96166
G1 X75.263 Y214.213 E44.03885
G1 X74.812 Y213.357 E44.11609
G1 X74.433 Y212.467 E44.1933
G1 X74.129 Y211.549 E44.27049
G1 X73.903 Y210.608 E44.34775
G1 X73.754 Y209.653 E44.4249
G1 X73.685 Y208.688 E44.50213
G1 X73.696 Y207.726 E44.57892
G1 X75.263 Y177.767 E46.97365
G1 X75.353 Y176.804 E47.05085
G1 X75.523 Y175.852 E47.12805
G1 X75.771 Y174.917 E47.20527
G1 X76.095 Y174.005 E47.28252
G1 X76.278 Y173.599 E47.31807
G1 X76.067 Y172.703 E47.39155
G1 X75.925 Y171.751 E47.46838
G1 X72.706 Y141.924 E49.86313
G1 X72.642 Y140.959 E49.94033
G1 X72.658 Y139.992 E50.01753
G1 X72.753 Y139.03 E50.0947
G1 X72.928 Y138.078 E50.17196
G1 X73.181 Y137.145 E50.24913
G1 X73.511 Y136.235 E50.3264
G1 X73.914 Y135.356 E50.40358
G1 X74.388 Y134.513 E50.48078
G1 X74.931 Y133.712 E50.55803
G1 X75.538 Y132.959 E50.63524
G1 X76.205 Y132.258 E50.71248
G1 X76.927 Y131.615 E50.78965
G1 X77.7 Y131.034 E50.86684
G1 X78.519 Y130.519 E50.94407
G0 F7500 X79.117 Y130.873
G1 F1500 X79.967 Y130.466 E51.0193
G1 X80.848 Y130.132 E51.09451
G1 X81.754 Y129.874 E51.1697
G1 X82.678 Y129.694 E51.24485
G1 X83.147 Y129.633 E51.2826
G1 X112.973 Y126.414 E53.67727
G1 X113.913 Y126.353 E53.75246
G1 X114.855 Y126.372 E53.82767
G1 X115.792 Y126.47 E53.90287
G1 X116.717 Y126.648 E53.97806
G1 X117.624 Y126.903 E54.05327
G1 X118.506 Y127.234 E54.12847
G1 X119.357 Y127.639 E54.2037
G1 X120.17 Y128.115 E54.2789
G1 X120.94 Y128.658 E54.35411
G1 X121.661 Y129.264 E54.4293
G1 X122.328 Y129.93 E54.50454
G1 X122.936 Y130.649 E54.5797
G1 X123.482 Y131.417 E54.65492
G1 X123.96 Y132.229 E54.73013
G1 X124.367 Y133.079 E54.80536
G1 X124.701 Y133.96 E54.88057
G1 X124.959 Y134.866 E54.95577
G1 X125.139 Y135.79 E55.03091
G1 X125.2 Y136.259 E55.06866
G1 X125.594 Y139.909 E55.36172
G1 X156.112 Y112.183 E58.65303
G1 X156.836 Y111.58 E58.72825
G1 X157.608 Y111.04 E58.80345
G1 X158.423 Y110.568 E58.87863
G1 X159.275 Y110.166 E58.95383
G1 X160.158 Y109.838 E59.02902
G1 X161.066 Y109.586 E59.10424
G1 X161.992 Y109.413 E59.17944
G1 X162.929 Y109.318 E59.25462
G1 X163.573 Y109.299 E59.30604
G1 X168.527 Y109.298 E59.70149
G1 X166.93 Y94.505 E60.8892
G1 X166.869 Y93.565 E60.96439
G1 X166.888 Y92.623 E61.0396
G1 X166.986 Y91.686 E61.1148
G1 X167.164 Y90.761 E61.18999
G1 X167.419 Y89.854 E61.2652
G1 X167.75 Y88.972 E61.3404
G1 X168.155 Y88.122 E61.41556
G1 X168.631 Y87.308 E61.49083
G1 X169.174 Y86.538 E61.56604
G1 X169.78 Y85.817 E61.64123
G1 X170.445 Y85.15 E61.71641
G1 X171.165 Y84.542 E61.79163
G1 X171.933 Y83.997 E61.86681
G1 X172.745 Y83.519 E61.94202
G1 X173.594 Y83.111 E62.01721
G1 X174.475 Y82.777 E62.09242
G1 X175.382 Y82.519 E62.16769
G1 X176.306 Y82.339 E62.24284
G1 X176.775 Y82.278 E62.28059
G1 X206.602 Y79.059 E64.67534
G1 X207.542 Y78.998 E64.75053
G1 X208.484 Y79.017 E64.82574
G1 X209.421 Y79.115 E64.90094
G1 X210.346 Y79.293 E64.97613
G1 X211.253 Y79.548 E65.05134
G1 X212.135 Y79.879 E65.12654
G1 X212.986 Y80.284 E65.20177
G1 X213.799 Y80.76 E65.27697
G1 X214.569 Y81.303 E65.35218
G1 X215.29 Y81.909 E65.42737
G1 X215.957 Y82.575 E65.50261
G1 X216.565 Y83.294 E65.57777
G1 X217.111 Y84.062 E65.65299
G1 X217.589 Y84.874 E65.7282
G1 X217.996 Y85.724 E65.80343
G1 X218.33 Y86.605 E65.87864
G1 X218.588 Y87.511 E65.95384
G1 X218.768 Y88.435 E66.02898
G1 X218.829 Y88.904 E66.06673
G1 X222.048 Y118.731 E68.46148
G1 X222.109 Y119.671 E68.53667
G1 X222.09 Y120.613 E68.61188
G1 X221.992 Y121.55 E68.68709
G1 X221.814 Y122.475 E68.76228
G1 X221.559 Y123.382 E68.83749
G1 X221.228 Y124.264 E68.91268
G1 X220.823 Y125.115 E68.98792
G1 X220.347 Y125.928 E69.06312
G1 X219.804 Y126.698 E69.13833
G1 X219.198 Y127.419 E69.21351
G1 X218.532 Y128.086 E69.28875
G1 X217.813 Y128.694 E69.36391
G1 X217.045 Y129.24 E69.43913
G1 X216.233 Y129.718 E69.51435
G1 X215.383 Y130.125 E69.58958
G1 X214.502 Y130.459 E69.66479
G1 X213.596 Y130.717 E69.73998
G1 X212.672 Y130.897 E69.81513
G1 X212.203 Y130.958 E69.85288
G1 X197.607 Y132.533 E71.02476
G1 X197.606 Y166.653 E73.74836
G1 X211.252 Y165.18 E74.84397
G1 X212.192 Y165.119 E74.91917
G1 X213.134 Y165.138 E74.99438
G1 X214.071 Y165.236 E75.06958
G1 X214.996 Y165.414 E75.14477
G1 X215.903 Y165.669 E75.21998
G1 X216.785 Y166 E75.29518
G1 X217.635 Y166.405 E75.37034
G1 X218.449 Y166.881 E75.44561
G1 X219.219 Y167.424 E75.52082
G1 X219.94 Y168.03 E75.596
G1 X220.607 Y168.695 E75.67119
G1 X221.215 Y169.415 E75.74641
G1 X221.76 Y170.183 E75.82158
G1 X222.238 Y170.995 E75.8968
G1 X222.646 Y171.844 E75.97199
G1 X222.98 Y172.725 E76.0472
G1 X223.238 Y173.631 E76.12239
G1 X223.418 Y174.556 E76.19762
G1 X223.479 Y175.025 E76.23537
G1 X226.698 Y204.852 E78.63011
G1 X226.759 Y205.792 E78.70531
G1 X226.74 Y206.734 E78.78052
G1 X226.642 Y207.671 E78.85572
G1 X226.464 Y208.596 E78.93091
G1 X226.209 Y209.503 E79.00612
G1 X225.878 Y210.385 E79.08132
G1 X225.473 Y211.236 E79.15655
G1 X224.997 Y212.049 E79.23175
G1 X224.454 Y212.819 E79.30696
G1 X223.848 Y213.54 E79.38215
G1 X223.182 Y214.207 E79.45739
G1 X222.463 Y214.815 E79.53255
G1 X221.695 Y215.361 E79.60777
G1 X220.883 Y215.839 E79.68298
G1 X220.033 Y216.246 E79.75821
G1 X219.152 Y216.58 E79.83342
G1 X218.246 Y216.838 E79.90862
G1 X217.322 Y217.018 E79.98376
G1 X216.853 Y217.079 E80.02151
G1 X187.027 Y220.299 E82.41619
G1 X186.087 Y220.36 E82.49138
G1 X185.145 Y220.341 E82.56659
G1 X184.208 Y220.243 E82.64179
G1 X183.283 Y220.065 E82.71699
G1 X182.376 Y219.81 E82.79219
G1 X181.494 Y219.479 E82.86739
G1 X180.644 Y219.074 E82.94255
G1 X179.83 Y218.598 E83.01782
G1 X179.061 Y218.055 E83.09297
G1 X178.339 Y217.449 E83.16821
G1 X177.672 Y216.784 E83.2434
G1 X177.064 Y216.064 E83.31862
G1 X176.519 Y215.296 E83.39379
G1 X176.041 Y214.484 E83.46901
G1 X175.633 Y213.635 E83.5442
G1 X175.299 Y212.754 E83.61941
G1 X175.041 Y211.848 E83.6946
G1 X174.861 Y210.923 E83.76983
G1 X174.8 Y210.454 E83.80758
G1 X172.911 Y192.955 E85.21254
G1 X127.34 Y192.967 E88.85021
G1 X126.424 Y210.485 E90.25049
G1 X126.335 Y211.423 E90.3257
G1 X126.166 Y212.35 E90.40091
G1 X125.92 Y213.259 E90.47609
G1 X125.598 Y214.144 E90.55126
G1 X125.201 Y214.999 E90.62651
G1 X124.734 Y215.817 E90.7017
G1 X124.199 Y216.592 E90.77687
G1 X123.6 Y217.319 E90.85206
G1 X122.941 Y217.993 E90.92731
G1 X122.228 Y218.609 E91.00252
G1 X121.465 Y219.161 E91.0777
G1 X120.658 Y219.648 E91.15293
G1 X119.813 Y220.064 E91.22812
G1 X118.935 Y220.406 E91.30333
G1 X118.032 Y220.673 E91.3785
G1 X117.109 Y220.863 E91.45372
G1 X116.173 Y220.974 E91.52896
G1 X115.232 Y221.004 E91.60411
G1 X114.759 Y220.99 E91.64189
G1 X84.8 Y219.422 E94.03662
G1 X83.862 Y219.333 E94.11183
G1 X82.935 Y219.164 E94.18705
G1 X82.026 Y218.918 E94.26222
G1 X81.14 Y218.595 E94.33749
G1 X80.286 Y218.199 E94.41264
G1 X79.468 Y217.731 E94.48786
G1 X78.692 Y217.196 E94.5631
G1 X77.965 Y216.597 E94.63829
G1 X77.292 Y215.939 E94.71343
G1 X76.676 Y215.226 E94.78864
G1 X76.123 Y214.463 E94.86386
G1 X75.637 Y213.656 E94.93906
G1 X75.221 Y212.81 E95.01431
G1 X74.879 Y211.933 E95.08945
G1 X74.611 Y211.029 E95.16472
G1 X74.422 Y210.106 E95.23993
G1 X74.311 Y209.171 E95.31509
G1 X74.281 Y208.229 E95.39032
G1 X74.295 Y207.757 E95.42801
G1 X75.862 Y177.798 E97.82274
G1 X75.951 Y176.86 E97.89795
G1 X76.12 Y175.933 E97.97317
G1 X76.366 Y175.024 E98.04834
G1 X76.688 Y174.139 E98.12351
G1 X76.921 Y173.638 E98.16762
G1 X76.762 Y173.08 E98.21393
G1 X76.582 Y172.156 E98.28908
G1 X76.521 Y171.687 E98.32683
G1 X73.302 Y141.86 E100.72158
G1 X73.241 Y140.92 E100.79677
G1 X73.26 Y139.978 E100.87198
G1 X73.358 Y139.041 E100.94718
G1 X73.536 Y138.116 E101.02237
G1 X73.791 Y137.209 E101.09758
G1 X74.122 Y136.327 E101.17278
G1 X74.527 Y135.476 E101.24801
G1 X75.003 Y134.663 E101.32321
G1 X75.546 Y133.893 E101.39842
G1 X76.152 Y133.172 E101.47361
G1 X76.818 Y132.505 E101.54885
G1 X77.537 Y131.897 E101.62401
G1 X78.305 Y131.351 E101.69923
G1 X79.117 Y130.873 E101.77444
G0 F7500 X78.908 Y131.682
G1 F1500 X79.712 Y131.243 E101.84757
G1 X80.552 Y130.875 E101.92077
G1 X81.42 Y130.583 E101.99387
G1 X82.311 Y130.367 E102.06706
G1 X83.211 Y130.23 E102.13973
G1 X113.037 Y127.011 E104.53439
G1 X113.952 Y126.952 E104.60758
G1 X114.868 Y126.974 E104.68072
G1 X115.778 Y127.075 E104.75381
G1 X116.677 Y127.255 E104.827
G1 X117.556 Y127.513 E104.90012
G1 X118.41 Y127.847 E104.97332
G1 X119.231 Y128.253 E105.04643
G1 X120.013 Y128.73 E105.11955
G1 X120.751 Y129.273 E105.19269
G1 X121.439 Y129.879 E105.26587
G1 X122.071 Y130.542 E105.33899
G1 X122.643 Y131.257 E105.41208
G1 X123.151 Y132.02 E105.48525
G1 X123.59 Y132.824 E105.55837
G1 X123.958 Y133.664 E105.63158
G1 X124.25 Y134.532 E105.70468
G1 X124.466 Y135.423 E105.77787
G1 X124.603 Y136.323 E105.85054
G1 X125.124 Y141.146 E106.23777
G1 X156.515 Y112.627 E109.62323
G1 X157.22 Y112.041 E109.69641
G1 X157.973 Y111.519 E109.76955
G1 X158.768 Y111.064 E109.84267
G1 X159.6 Y110.681 E109.91578
G1 X160.463 Y110.371 E109.98898
G1 X161.349 Y110.138 E110.06211
G1 X162.252 Y109.983 E110.13524
G1 X163.573 Y109.899 E110.2409
G1 X169.195 Y109.897 E110.68968
G1 X167.527 Y94.441 E111.9306
G1 X167.468 Y93.526 E112.00379
G1 X167.49 Y92.61 E112.07693
G1 X167.591 Y91.7 E112.15002
G1 X167.771 Y90.801 E112.22321
G1 X168.029 Y89.922 E112.29633
G1 X168.363 Y89.069 E112.36946
G1 X168.769 Y88.247 E112.44264
G1 X169.246 Y87.465 E112.51576
G1 X169.789 Y86.727 E112.5889
G1 X170.395 Y86.039 E112.66208
G1 X171.058 Y85.407 E112.7352
G1 X171.773 Y84.835 E112.80829
G1 X172.536 Y84.327 E112.88146
G1 X173.34 Y83.888 E112.95458
G1 X174.18 Y83.52 E113.02779
G1 X175.048 Y83.228 E113.10089
G1 X175.938 Y83.012 E113.174
G1 X176.839 Y82.875 E113.24674
G1 X206.666 Y79.656 E115.64149
G1 X207.581 Y79.597 E115.71468
G1 X208.497 Y79.619 E115.78782
G1 X209.408 Y79.72 E115.86099
G1 X210.306 Y79.9 E115.93409
G1 X211.185 Y80.158 E116.00722
G1 X212.039 Y80.492 E116.08042
G1 X212.86 Y80.898 E116.15353
G1 X213.642 Y81.375 E116.22665
