;FLAVOR:Marlin
;TIME:4257
;Filament used: 7.94026m
;Layer height: 0.32
;MINX:73.83
;MINY:81.092
;MINZ:0.32
;MAXX:226.17
;MAXY:218.908
;MAXZ:7.36
;Generated with Cura_SteamEngine master
M140 S60
M105
M190 S60
M104 S240
M105
M109 S240
M82 ;absolute extrusion mode
G28 ;Home
G1 Z15.0 F2000 ;Move the platform
G92 E0
G92 E0
;LAYER_COUNT:24
;LAYER:0
M107 P2
G0 F7500 X77.608 Y84.182 Z0.32
;TYPE:SKIRT
G1 F1500 X78.346 Y83.557 E0.0772
G1 X79.133 Y82.995 E0.15439
G1 X79.964 Y82.501 E0.23156
G1 X80.833 Y82.076 E0.30878
G1 X81.735 Y81.725 E0.38604
G1 X82.662 Y81.449 E0.46325
G1 X83.609 Y81.251 E0.54048
G1 X84.568 Y81.132 E0.61762
G1 X85.53 Y81.092 E0.69447
G1 X115.53 Y81.092 E3.0892
G1 X116.496 Y81.132 E3.16638
G1 X117.456 Y81.252 E3.24361
G1 X118.403 Y81.45 E3.32084
G1 X119.33 Y81.726 E3.39804
G1 X120.231 Y82.078 E3.47526
G1 X121.1 Y82.503 E3.55248
G1 X121.931 Y82.998 E3.62969
G1 X122.718 Y83.56 E3.70688
G1 X123.456 Y84.186 E3.78413
G1 X124.14 Y84.87 E3.86135
G1 X124.765 Y85.608 E3.93855
G1 X125.327 Y86.395 E4.01574
G1 X125.821 Y87.226 E4.09291
G1 X126.246 Y88.095 E4.17013
G1 X126.597 Y88.997 E4.24739
G1 X126.873 Y89.924 E4.3246
G1 X127.071 Y90.871 E4.40183
G1 X127.19 Y91.83 E4.47897
G1 X127.23 Y92.792 E4.55582
G1 X127.23 Y107.458 E5.72653
G1 X133.736 Y107.459 E6.24586
G1 X134.702 Y107.499 E6.32304
G1 X135.662 Y107.619 E6.40027
G1 X136.609 Y107.818 E6.47751
G1 X137.536 Y108.094 E6.55472
G1 X138.437 Y108.446 E6.63193
G1 X139.306 Y108.871 E6.70915
G1 X140.136 Y109.366 E6.7863
G1 X140.923 Y109.929 E6.86354
G1 X141.601 Y110.499 E6.93424
G1 X172.442 Y138.515 E10.26021
G1 X173.302 Y133.183 E10.69133
G1 X173.495 Y132.235 E10.76856
G1 X173.766 Y131.307 E10.84573
G1 X174.113 Y130.404 E10.92295
G1 X174.533 Y129.532 E11.00021
G1 X175.024 Y128.699 E11.0774
G1 X175.581 Y127.909 E11.15456
G1 X176.203 Y127.167 E11.23184
G1 X176.883 Y126.48 E11.309
G1 X177.618 Y125.85 E11.38628
G1 X178.402 Y125.284 E11.46347
G1 X179.23 Y124.785 E11.54063
G1 X180.097 Y124.355 E11.61789
G1 X180.996 Y123.999 E11.69507
G1 X181.922 Y123.718 E11.77232
G1 X182.867 Y123.515 E11.84947
G1 X183.827 Y123.39 E11.92675
G1 X184.793 Y123.345 E12.00394
G1 X185.759 Y123.38 E12.0811
G1 X186.715 Y123.494 E12.15796
G1 X216.332 Y128.268 E14.55263
G1 X217.28 Y128.461 E14.62986
G1 X218.208 Y128.732 E14.70703
G1 X219.111 Y129.079 E14.78425
G1 X219.983 Y129.499 E14.86151
G1 X220.816 Y129.99 E14.93869
G1 X221.606 Y130.547 E15.01585
G1 X222.348 Y131.169 E15.09314
G1 X223.035 Y131.849 E15.1703
G1 X223.665 Y132.584 E15.24757
G1 X224.231 Y133.368 E15.32476
G1 X224.73 Y134.196 E15.40193
G1 X225.16 Y135.063 E15.47918
G1 X225.516 Y135.962 E15.55637
G1 X225.797 Y136.888 E15.63361
G1 X226 Y137.833 E15.71077
G1 X226.125 Y138.792 E15.78797
G1 X226.17 Y139.759 E15.86524
G1 X226.135 Y140.725 E15.9424
G1 X226.021 Y141.68 E16.01917
G1 X221.248 Y171.298 E18.41391
G1 X221.055 Y172.246 E18.49114
G1 X220.784 Y173.175 E18.56839
G1 X220.437 Y174.078 E18.64561
G1 X220.017 Y174.949 E18.7228
G1 X219.792 Y175.333 E18.75832
G1 X219.905 Y176.246 E18.83176
G1 X219.945 Y177.208 E18.90862
G1 X219.945 Y207.208 E21.30335
G1 X219.905 Y208.174 E21.38052
G1 X219.785 Y209.134 E21.45775
G1 X219.587 Y210.081 E21.53498
G1 X219.311 Y211.008 E21.61218
G1 X218.959 Y211.909 E21.6894
G1 X218.534 Y212.778 E21.76662
G1 X218.039 Y213.609 E21.84383
G1 X217.477 Y214.396 E21.92102
G1 X216.851 Y215.134 E21.99827
G1 X216.167 Y215.818 E22.07549
G1 X215.429 Y216.443 E22.15269
G1 X214.642 Y217.005 E22.22988
G1 X213.811 Y217.499 E22.30705
G1 X212.942 Y217.924 E22.38427
G1 X212.04 Y218.275 E22.46153
G1 X211.113 Y218.551 E22.53874
G1 X210.166 Y218.749 E22.61597
G1 X209.207 Y218.868 E22.69311
G1 X208.245 Y218.908 E22.76996
G1 X178.245 Y218.908 E25.16469
G1 X177.279 Y218.868 E25.24187
G1 X176.319 Y218.748 E25.3191
G1 X175.372 Y218.55 E25.39633
G1 X174.445 Y218.274 E25.47353
G1 X173.544 Y217.922 E25.55075
G1 X172.675 Y217.497 E25.62797
G1 X171.844 Y217.002 E25.70518
G1 X171.057 Y216.44 E25.78237
G1 X170.319 Y215.814 E25.85962
G1 X169.635 Y215.13 E25.93684
G1 X169.01 Y214.392 E26.01404
G1 X168.448 Y213.605 E26.09123
G1 X167.954 Y212.774 E26.1684
G1 X167.529 Y211.905 E26.24562
G1 X167.178 Y211.003 E26.32288
G1 X166.902 Y210.076 E26.40009
G1 X166.704 Y209.129 E26.47732
G1 X166.585 Y208.17 E26.55446
G1 X166.545 Y207.208 E26.63131
G1 X166.545 Y192.325 E27.81934
G1 X127.23 Y192.317 E30.95763
G1 X127.23 Y207.208 E32.1463
G1 X127.19 Y208.174 E32.22347
G1 X127.07 Y209.134 E32.3007
G1 X126.872 Y210.081 E32.37793
G1 X126.596 Y211.008 E32.45513
G1 X126.244 Y211.909 E32.53235
G1 X125.819 Y212.778 E32.60957
G1 X125.324 Y213.609 E32.68678
G1 X124.762 Y214.396 E32.76398
G1 X124.136 Y215.134 E32.84122
G1 X123.452 Y215.818 E32.91844
G1 X122.714 Y216.443 E32.99564
G1 X121.927 Y217.005 E33.07283
G1 X121.096 Y217.499 E33.15
G1 X120.227 Y217.924 E33.22722
G1 X119.325 Y218.275 E33.30448
G1 X118.398 Y218.551 E33.38169
G1 X117.451 Y218.749 E33.45892
G1 X116.492 Y218.868 E33.53606
G1 X115.53 Y218.908 E33.61291
G1 X85.53 Y218.908 E36.00764
G1 X84.564 Y218.868 E36.08482
G1 X83.604 Y218.748 E36.16205
G1 X82.657 Y218.55 E36.23928
G1 X81.73 Y218.274 E36.31648
G1 X80.829 Y217.922 E36.3937
G1 X79.96 Y217.497 E36.47092
G1 X79.129 Y217.002 E36.54813
G1 X78.342 Y216.44 E36.62532
G1 X77.604 Y215.814 E36.70257
G1 X76.92 Y215.13 E36.77979
G1 X76.295 Y214.392 E36.85699
G1 X75.733 Y213.605 E36.93418
G1 X75.239 Y212.774 E37.01135
G1 X74.814 Y211.905 E37.08857
G1 X74.463 Y211.003 E37.16583
G1 X74.187 Y210.076 E37.24304
G1 X73.989 Y209.129 E37.32027
G1 X73.87 Y208.17 E37.39741
G1 X73.83 Y207.208 E37.47426
G1 X73.83 Y177.208 E39.86899
G1 X73.87 Y176.242 E39.94617
G1 X73.99 Y175.282 E40.0234
G1 X74.188 Y174.335 E40.10062
G1 X74.464 Y173.408 E40.17783
G1 X74.816 Y172.507 E40.25505
G1 X75.241 Y171.638 E40.33227
G1 X75.736 Y170.807 E40.40948
G1 X76.298 Y170.02 E40.48667
G1 X76.924 Y169.282 E40.56392
G1 X77.608 Y168.598 E40.64114
G1 X78.346 Y167.973 E40.71833
G1 X79.133 Y167.411 E40.79553
G1 X79.964 Y166.917 E40.8727
G1 X80.833 Y166.492 E40.94992
G1 X81.735 Y166.141 E41.02718
G1 X82.662 Y165.865 E41.10439
G1 X83.609 Y165.667 E41.18162
G1 X84.568 Y165.548 E41.25875
G1 X85.53 Y165.508 E41.33561
G1 X99.107 Y165.508 E42.41939
G1 X99.105 Y157.259 E43.07786
G1 X99.105 Y134.492 E44.89522
G1 X85.53 Y134.492 E45.97883
G1 X84.564 Y134.452 E46.05601
G1 X83.604 Y134.332 E46.13324
G1 X82.657 Y134.134 E46.21046
G1 X81.73 Y133.858 E46.28767
G1 X80.829 Y133.506 E46.36489
G1 X79.96 Y133.081 E46.44211
G1 X79.129 Y132.586 E46.51932
G1 X78.342 Y132.024 E46.59651
G1 X77.604 Y131.398 E46.67376
G1 X76.92 Y130.714 E46.75098
G1 X76.295 Y129.976 E46.82818
G1 X75.733 Y129.189 E46.90537
G1 X75.239 Y128.358 E46.98254
G1 X74.814 Y127.489 E47.05976
G1 X74.463 Y126.587 E47.13702
G1 X74.187 Y125.66 E47.21423
G1 X73.989 Y124.713 E47.29146
G1 X73.87 Y123.754 E47.36859
G1 X73.83 Y122.792 E47.44545
G1 X73.83 Y92.792 E49.84018
G1 X73.87 Y91.826 E49.91736
G1 X73.99 Y90.866 E49.99459
G1 X74.188 Y89.919 E50.07181
G1 X74.464 Y88.992 E50.14902
G1 X74.816 Y88.091 E50.22624
G1 X75.241 Y87.222 E50.30346
G1 X75.736 Y86.391 E50.38067
G1 X76.298 Y85.604 E50.45786
G1 X76.924 Y84.866 E50.53511
G1 X77.608 Y84.182 E50.61233
G0 F7500 X78.196 Y84.46
G1 F1500 X78.929 Y83.868 E50.68754
G1 X79.709 Y83.34 E50.76272
G1 X80.532 Y82.881 E50.83795
G1 X81.39 Y82.493 E50.91311
G1 X82.279 Y82.179 E50.98837
G1 X83.19 Y81.941 E51.06353
G1 X84.119 Y81.782 E51.13877
G1 X85.058 Y81.702 E51.214
G1 X85.53 Y81.692 E51.25168
G1 X115.53 Y81.692 E53.64641
G1 X116.471 Y81.732 E53.72159
G1 X117.406 Y81.852 E53.79684
G1 X118.327 Y82.05 E53.87204
G1 X119.228 Y82.326 E53.94726
G1 X120.102 Y82.677 E54.02244
G1 X120.943 Y83.101 E54.09762
G1 X121.745 Y83.595 E54.17281
G1 X122.503 Y84.155 E54.24804
G1 X123.21 Y84.778 E54.32326
G1 X123.862 Y85.458 E54.39846
G1 X124.454 Y86.191 E54.47367
G1 X124.982 Y86.971 E54.54886
G1 X125.441 Y87.794 E54.62408
G1 X125.829 Y88.652 E54.69925
G1 X126.143 Y89.541 E54.77451
G1 X126.381 Y90.452 E54.84967
G1 X126.54 Y91.381 E54.9249
G1 X126.62 Y92.32 E55.00013
G1 X126.63 Y92.792 E55.03782
G1 X126.63 Y108.058 E56.25641
G1 X133.736 Y108.059 E56.82365
G1 X134.677 Y108.099 E56.89883
G1 X135.612 Y108.219 E56.97408
G1 X136.533 Y108.418 E57.04929
G1 X137.433 Y108.694 E57.12444
G1 X138.307 Y109.045 E57.19962
G1 X139.149 Y109.469 E57.27487
G1 X139.951 Y109.963 E57.35006
G1 X140.708 Y110.524 E57.42527
G1 X141.198 Y110.943 E57.47674
G1 X172.858 Y139.703 E60.89103
G1 X173.894 Y133.279 E61.41044
G1 X174.084 Y132.356 E61.48567
G1 X174.351 Y131.452 E61.56091
G1 X174.693 Y130.574 E61.63613
G1 X175.109 Y129.729 E61.71131
G1 X175.595 Y128.922 E61.78651
G1 X176.147 Y128.159 E61.86168
G1 X176.763 Y127.445 E61.93695
G1 X177.436 Y126.787 E62.01209
G1 X178.163 Y126.187 E62.08733
G1 X178.938 Y125.652 E62.1625
G1 X179.756 Y125.184 E62.23773
G1 X180.611 Y124.788 E62.31295
G1 X181.496 Y124.465 E62.38815
G1 X182.405 Y124.218 E62.46334
G1 X183.332 Y124.05 E62.53854
G1 X184.27 Y123.96 E62.61376
G1 X185.212 Y123.951 E62.68896
G1 X186.152 Y124.021 E62.7642
G1 X186.619 Y124.086 E62.80184
G1 X216.236 Y128.86 E65.19651
G1 X217.159 Y129.05 E65.27173
G1 X218.063 Y129.317 E65.34698
G1 X218.941 Y129.659 E65.42219
G1 X219.786 Y130.075 E65.49738
G1 X220.593 Y130.561 E65.57257
G1 X221.356 Y131.113 E65.64775
G1 X222.07 Y131.729 E65.72302
G1 X222.728 Y132.402 E65.79815
G1 X223.328 Y133.129 E65.8734
G1 X223.863 Y133.904 E65.94857
G1 X224.331 Y134.722 E66.0238
G1 X224.727 Y135.577 E66.09901
G1 X225.05 Y136.462 E66.17421
G1 X225.297 Y137.371 E66.24941
G1 X225.465 Y138.298 E66.32461
G1 X225.555 Y139.236 E66.39983
G1 X225.564 Y140.178 E66.47503
G1 X225.494 Y141.117 E66.55019
G1 X225.429 Y141.585 E66.58791
G1 X220.656 Y171.203 E68.98264
G1 X220.466 Y172.126 E69.05787
G1 X220.2 Y173.029 E69.13301
G1 X219.857 Y173.907 E69.20826
G1 X219.441 Y174.753 E69.28351
G1 X219.157 Y175.225 E69.32748
G1 X219.255 Y175.797 E69.37381
G1 X219.335 Y176.736 E69.44903
G1 X219.345 Y177.208 E69.48672
G1 X219.345 Y207.208 E71.88145
G1 X219.305 Y208.149 E71.95663
G1 X219.185 Y209.084 E72.03188
G1 X218.987 Y210.005 E72.10708
G1 X218.711 Y210.906 E72.1823
G1 X218.36 Y211.78 E72.25748
G1 X217.936 Y212.621 E72.33266
G1 X217.442 Y213.423 E72.40785
G1 X216.882 Y214.181 E72.48308
G1 X216.259 Y214.888 E72.5583
G1 X215.579 Y215.54 E72.6335
G1 X214.846 Y216.132 E72.70871
G1 X214.066 Y216.66 E72.7839
G1 X213.243 Y217.119 E72.85912
G1 X212.385 Y217.507 E72.93429
G1 X211.496 Y217.821 E73.00955
G1 X210.585 Y218.059 E73.08471
G1 X209.656 Y218.218 E73.15994
G1 X208.717 Y218.298 E73.23517
G1 X208.245 Y218.308 E73.27285
G1 X178.245 Y218.308 E75.66758
G1 X177.304 Y218.268 E75.74277
G1 X176.369 Y218.148 E75.81801
G1 X175.448 Y217.95 E75.89321
G1 X174.547 Y217.674 E75.96843
G1 X173.673 Y217.323 E76.04361
G1 X172.832 Y216.899 E76.1188
G1 X172.03 Y216.405 E76.19399
G1 X171.272 Y215.845 E76.26921
G1 X170.565 Y215.222 E76.34443
G1 X169.913 Y214.542 E76.41963
G1 X169.321 Y213.809 E76.49485
G1 X168.793 Y213.029 E76.57003
G1 X168.334 Y212.206 E76.64525
G1 X167.946 Y211.348 E76.72042
G1 X167.632 Y210.459 E76.79568
G1 X167.394 Y209.548 E76.87084
G1 X167.235 Y208.619 E76.94608
G1 X167.155 Y207.68 E77.0213
G1 X167.145 Y207.208 E77.05899
G1 X167.145 Y191.726 E78.29483
G1 X126.63 Y191.716 E81.52891
G1 X126.63 Y207.208 E82.76555
G1 X126.59 Y208.149 E82.84073
G1 X126.47 Y209.084 E82.91598
G1 X126.272 Y210.005 E82.99118
G1 X125.996 Y210.906 E83.0664
G1 X125.645 Y211.78 E83.14158
G1 X125.221 Y212.621 E83.21676
G1 X124.727 Y213.423 E83.29195
G1 X124.167 Y214.181 E83.36718
G1 X123.544 Y214.888 E83.4424
G1 X122.864 Y215.54 E83.5176
G1 X122.131 Y216.132 E83.59281
G1 X121.351 Y216.66 E83.668
G1 X120.528 Y217.119 E83.74322
G1 X119.67 Y217.507 E83.81839
G1 X118.781 Y217.821 E83.89365
G1 X117.87 Y218.059 E83.96881
G1 X116.941 Y218.218 E84.04404
G1 X116.002 Y218.298 E84.11927
G1 X115.53 Y218.308 E84.15696
G1 X85.53 Y218.308 E86.55169
G1 X84.589 Y218.268 E86.62687
G1 X83.654 Y218.148 E86.70212
G1 X82.733 Y217.95 E86.77731
G1 X81.832 Y217.674 E86.85254
G1 X80.958 Y217.323 E86.92772
G1 X80.117 Y216.899 E87.0029
G1 X79.315 Y216.405 E87.07809
G1 X78.557 Y215.845 E87.15332
G1 X77.85 Y215.222 E87.22854
G1 X77.198 Y214.542 E87.30374
G1 X76.606 Y213.809 E87.37895
G1 X76.078 Y213.029 E87.45414
G1 X75.619 Y212.206 E87.52936
G1 X75.231 Y211.348 E87.60452
G1 X74.917 Y210.459 E87.67978
G1 X74.679 Y209.548 E87.75495
G1 X74.52 Y208.619 E87.83018
G1 X74.44 Y207.68 E87.90541
G1 X74.43 Y207.208 E87.94309
G1 X74.43 Y177.208 E90.33782
G1 X74.47 Y176.267 E90.413
G1 X74.59 Y175.332 E90.48825
G1 X74.788 Y174.411 E90.56345
G1 X75.064 Y173.51 E90.63867
G1 X75.415 Y172.636 E90.71385
G1 X75.839 Y171.795 E90.78903
G1 X76.333 Y170.993 E90.86422
G1 X76.893 Y170.235 E90.93945
G1 X77.516 Y169.528 E91.01467
G1 X78.196 Y168.876 E91.08987
G1 X78.929 Y168.284 E91.16508
G1 X79.709 Y167.756 E91.24027
G1 X80.532 Y167.297 E91.31549
G1 X81.39 Y166.909 E91.39066
G1 X82.279 Y166.595 E91.46592
G1 X83.19 Y166.357 E91.54108
G1 X84.119 Y166.198 E91.61632
G1 X85.058 Y166.118 E91.69154
G1 X85.53 Y166.108 E91.72923
G1 X99.707 Y166.108 E92.8609
G1 X99.705 Y157.259 E93.56726
G1 X99.705 Y133.892 E95.43252
G1 X85.53 Y133.892 E96.56403
G1 X84.589 Y133.852 E96.63921
G1 X83.654 Y133.732 E96.71446
G1 X82.733 Y133.534 E96.78966
G1 X81.832 Y133.258 E96.86488
G1 X80.958 Y132.907 E96.94006
G1 X80.117 Y132.483 E97.01524
G1 X79.315 Y131.989 E97.09043
G1 X78.557 Y131.429 E97.16566
G1 X77.85 Y130.806 E97.24088
G1 X77.198 Y130.126 E97.31608
G1 X76.606 Y129.393 E97.39129
G1 X76.078 Y128.613 E97.46648
G1 X75.619 Y127.79 E97.5417
G1 X75.231 Y126.932 E97.61687
G1 X74.917 Y126.043 E97.69213
G1 X74.679 Y125.132 E97.76729
G1 X74.52 Y124.203 E97.84252
G1 X74.44 Y123.264 E97.91775
G1 X74.43 Y122.792 E97.95543
G1 X74.43 Y92.792 E100.35016
G1 X74.47 Y91.851 E100.42535
G1 X74.59 Y90.916 E100.50059
G1 X74.788 Y89.995 E100.57579
G1 X75.064 Y89.094 E100.65101
G1 X75.415 Y88.22 E100.72619
G1 X75.839 Y87.379 E100.80138
G1 X76.333 Y86.577 E100.87657
G1 X76.893 Y85.819 E100.95179
G1 X77.516 Y85.112 E101.02701
G1 X78.196 Y84.46 E101.10221
G0 F7500 X78.107 Y85.366
G1 F1500 X78.783 Y84.747 E101.17538
G1 X79.51 Y84.189 E101.24854
G1 X80.283 Y83.697 E101.32168
G1 X81.096 Y83.274 E101.39483
G1 X81.943 Y82.924 E101.46799
G1 X82.817 Y82.649 E101.54113
G1 X83.711 Y82.451 E101.61422
G1 X84.62 Y82.332 E101.6874
G1 X85.53 Y82.292 E101.76011
G1 X115.53 Y82.292 E104.15484
G1 X116.445 Y82.332 E104.22795
G1 X117.354 Y82.452 E104.30114
G1 X118.248 Y82.65 E104.37423
G1 X119.122 Y82.926 E104.44739
G1 X119.969 Y83.276 E104.52055
G1 X120.782 Y83.7 E104.59374
G1 X121.554 Y84.192 E104.66682
G1 X122.281 Y84.75 E104.73997
G1 X122.956 Y85.369 E104.81308
G1 X123.575 Y86.045 E104.88625
G1 X124.133 Y86.772 E104.9594
G1 X124.625 Y87.545 E105.03255
G1 X125.048 Y88.358 E105.1057
G1 X125.398 Y89.205 E105.17886
G1 X125.673 Y90.079 E105.252
G1 X125.871 Y90.973 E105.32509
G1 X125.99 Y91.882 E105.39827
G1 X126.03 Y92.792 E105.47098
G1 X126.03 Y108.658 E106.73747
G1 X133.736 Y108.659 E107.3526
G1 X134.651 Y108.699 E107.42571
G1 X135.56 Y108.819 E107.4989
G1 X136.454 Y109.017 E107.57199
G1 X137.328 Y109.293 E107.64515
G1 X138.174 Y109.644 E107.71826
G1 X138.987 Y110.067 E107.79142
G1 X139.76 Y110.56 E107.8646
G1 X140.794 Y111.387 E107.9703
G1 X173.275 Y140.893 E111.47314
G1 X174.487 Y133.374 E112.08108
G1 X174.672 Y132.477 E112.15419
G1 X174.935 Y131.599 E112.22736
G1 X175.273 Y130.747 E112.30052
G1 X175.684 Y129.928 E112.37367
G1 X176.165 Y129.148 E112.44682
G1 X176.712 Y128.413 E112.51995
G1 X177.321 Y127.729 E112.59306
G1 X177.988 Y127.1 E112.66624
G1 X178.707 Y126.532 E112.73938
G1 X179.472 Y126.028 E112.81251
G1 X180.279 Y125.594 E112.88565
G1 X181.12 Y125.231 E112.95877
G1 X181.99 Y124.943 E113.03193
G1 X182.882 Y124.732 E113.10509
G1 X183.788 Y124.599 E113.17819
G1 X184.703 Y124.546 E113.25135
G1 X185.619 Y124.573 E113.3245
G1 X186.524 Y124.679 E113.39724
G1 X216.141 Y129.453 E115.79191
G1 X217.038 Y129.638 E115.86502
G1 X217.916 Y129.901 E115.93818
G1 X218.768 Y130.239 E116.01135
G1 X219.587 Y130.65 E116.0845
G1 X220.367 Y131.131 E116.15765
