;FLAVOR:Marlin
;TIME:10833
;Filament used: 16.8412m
;Layer height: 0.32
;MINX:52.19
;MINY:83.615
;MINZ:0.32
;MAXX:259.811
;MAXY:216.385
;MAXZ:34.24
;Generated with Cura_SteamEngine master
M140 S60
M105
M190 S60
M104 S240
M105
M109 S240
M82 ;absolute extrusion mode
G28 ;Home
G1 Z15.0 F2000 ;Move the platform
G92 E0
G92 E0
;LAYER_COUNT:107
;LAYER:0
M107 P2
G0 F7500 X62.226 Y86.501 Z0.32
;TYPE:SKIRT
G1 F1500 X63.013 Y85.939 E0.0772
G1 X63.844 Y85.445 E0.15437
G1 X64.713 Y85.02 E0.23158
G1 X65.615 Y84.669 E0.30884
G1 X66.542 Y84.393 E0.38605
G1 X67.489 Y84.195 E0.46328
G1 X68.448 Y84.076 E0.54042
G1 X69.41 Y84.036 E0.61728
G1 X99.41 Y84.036 E3.01201
G1 X100.376 Y84.076 E3.08918
G1 X101.336 Y84.196 E3.16641
G1 X102.283 Y84.394 E3.24364
G1 X103.21 Y84.67 E3.32085
G1 X104.111 Y85.022 E3.39806
G1 X104.98 Y85.447 E3.47528
G1 X105.811 Y85.942 E3.55249
G1 X106.598 Y86.504 E3.62969
G1 X107.336 Y87.13 E3.70694
G1 X108.02 Y87.814 E3.78415
G1 X108.645 Y88.552 E3.86135
G1 X109.207 Y89.339 E3.93854
G1 X109.701 Y90.17 E4.01571
G1 X110.126 Y91.039 E4.09293
G1 X110.477 Y91.941 E4.17019
G1 X110.753 Y92.868 E4.2474
G1 X110.951 Y93.815 E4.32463
G1 X111.07 Y94.774 E4.40177
G1 X111.11 Y95.736 E4.47862
G1 X111.11 Y110.078 E5.62347
G1 X205.308 Y110.078 E13.14276
G1 X205.308 Y95.315 E14.3212
G1 X205.348 Y94.349 E14.39838
G1 X205.468 Y93.389 E14.47561
G1 X205.666 Y92.442 E14.55284
G1 X205.942 Y91.515 E14.63004
G1 X206.294 Y90.614 E14.70726
G1 X206.719 Y89.745 E14.78448
G1 X207.214 Y88.914 E14.86169
G1 X207.776 Y88.127 E14.93888
G1 X208.402 Y87.389 E15.01613
G1 X209.086 Y86.705 E15.09335
G1 X209.824 Y86.08 E15.17055
G1 X210.611 Y85.518 E15.24774
G1 X211.442 Y85.024 E15.32491
G1 X212.311 Y84.599 E15.40213
G1 X213.213 Y84.248 E15.47939
G1 X214.14 Y83.972 E15.5566
G1 X215.087 Y83.774 E15.63383
G1 X216.046 Y83.655 E15.71097
G1 X217.008 Y83.615 E15.78782
G1 X247.008 Y83.615 E18.18255
G1 X247.974 Y83.655 E18.25973
G1 X248.934 Y83.775 E18.33696
G1 X249.881 Y83.973 E18.41418
G1 X250.808 Y84.249 E18.49139
G1 X251.709 Y84.601 E18.56861
G1 X252.578 Y85.026 E18.64583
G1 X253.409 Y85.521 E18.72304
G1 X254.196 Y86.083 E18.80023
G1 X254.934 Y86.709 E18.87748
G1 X255.618 Y87.393 E18.9547
G1 X256.243 Y88.131 E19.03189
G1 X256.805 Y88.918 E19.10909
G1 X257.299 Y89.749 E19.18626
G1 X257.724 Y90.618 E19.26348
G1 X258.075 Y91.52 E19.34074
G1 X258.351 Y92.447 E19.41795
G1 X258.549 Y93.394 E19.49518
G1 X258.668 Y94.353 E19.57231
G1 X258.708 Y95.315 E19.64917
G1 X258.708 Y125.315 E22.0439
G1 X258.668 Y126.281 E22.12108
G1 X258.548 Y127.241 E22.1983
G1 X258.35 Y128.188 E22.27553
G1 X258.074 Y129.115 E22.35274
G1 X257.722 Y130.016 E22.42996
G1 X257.297 Y130.885 E22.50717
G1 X256.802 Y131.716 E22.58439
G1 X256.24 Y132.503 E22.66158
G1 X255.614 Y133.241 E22.73883
G1 X254.93 Y133.925 E22.81605
G1 X254.192 Y134.55 E22.89324
G1 X253.405 Y135.112 E22.97044
G1 X252.574 Y135.606 E23.04761
G1 X251.705 Y136.031 E23.12483
G1 X250.803 Y136.382 E23.20209
G1 X249.876 Y136.658 E23.2793
G1 X248.929 Y136.856 E23.35652
G1 X247.97 Y136.975 E23.43366
G1 X247.008 Y137.015 E23.51052
G1 X232.486 Y137.015 E24.66973
G1 X232.486 Y162.985 E26.74277
G1 X248.111 Y162.985 E27.99002
G1 X249.077 Y163.025 E28.0672
G1 X250.037 Y163.145 E28.14443
G1 X250.984 Y163.343 E28.22165
G1 X251.911 Y163.619 E28.29886
G1 X252.812 Y163.971 E28.37608
G1 X253.681 Y164.396 E28.4533
G1 X254.512 Y164.891 E28.53051
G1 X255.299 Y165.453 E28.6077
G1 X256.037 Y166.079 E28.68495
G1 X256.721 Y166.763 E28.76217
G1 X257.346 Y167.501 E28.83936
G1 X257.908 Y168.288 E28.91656
G1 X258.402 Y169.119 E28.99373
G1 X258.827 Y169.988 E29.07095
G1 X259.178 Y170.89 E29.14821
G1 X259.454 Y171.817 E29.22542
G1 X259.652 Y172.764 E29.30264
G1 X259.771 Y173.723 E29.37978
G1 X259.811 Y174.685 E29.45664
G1 X259.811 Y204.685 E31.85137
G1 X259.771 Y205.651 E31.92855
G1 X259.651 Y206.611 E32.00577
G1 X259.453 Y207.558 E32.083
G1 X259.177 Y208.485 E32.16021
G1 X258.825 Y209.386 E32.23742
G1 X258.4 Y210.255 E32.31464
G1 X257.905 Y211.086 E32.39185
G1 X257.343 Y211.873 E32.46905
G1 X256.717 Y212.611 E32.5463
G1 X256.033 Y213.295 E32.62351
G1 X255.295 Y213.92 E32.70071
G1 X254.508 Y214.482 E32.77791
G1 X253.677 Y214.976 E32.85508
G1 X252.808 Y215.401 E32.9323
G1 X251.906 Y215.752 E33.00956
G1 X250.979 Y216.028 E33.08676
G1 X250.032 Y216.226 E33.16399
G1 X249.073 Y216.345 E33.24113
G1 X248.111 Y216.385 E33.31799
G1 X218.111 Y216.385 E35.71272
G1 X217.145 Y216.345 E35.78989
G1 X216.185 Y216.225 E35.86712
G1 X215.238 Y216.027 E35.94435
G1 X214.311 Y215.751 E36.02156
G1 X213.41 Y215.399 E36.09877
G1 X212.541 Y214.974 E36.17599
G1 X211.71 Y214.479 E36.2532
G1 X210.923 Y213.917 E36.3304
G1 X210.185 Y213.291 E36.40765
G1 X209.501 Y212.607 E36.48486
G1 X208.876 Y211.869 E36.56206
G1 X208.314 Y211.082 E36.63926
G1 X207.82 Y210.251 E36.71643
G1 X207.395 Y209.382 E36.79364
G1 X207.044 Y208.48 E36.87091
G1 X206.768 Y207.553 E36.94811
G1 X206.57 Y206.606 E37.02534
G1 X206.451 Y205.647 E37.10248
G1 X206.411 Y204.685 E37.17934
G1 X206.411 Y190.098 E38.34373
G1 X111.11 Y190.098 E45.95107
G1 X111.11 Y204.685 E47.11547
G1 X111.07 Y205.651 E47.19265
G1 X110.95 Y206.611 E47.26987
G1 X110.752 Y207.558 E47.3471
G1 X110.476 Y208.485 E47.42431
G1 X110.124 Y209.386 E47.50153
G1 X109.699 Y210.255 E47.57874
G1 X109.204 Y211.086 E47.65595
G1 X108.642 Y211.873 E47.73315
G1 X108.016 Y212.611 E47.8104
G1 X107.332 Y213.295 E47.88761
G1 X106.594 Y213.92 E47.96481
G1 X105.807 Y214.482 E48.04201
G1 X104.976 Y214.976 E48.11918
G1 X104.107 Y215.401 E48.1964
G1 X103.205 Y215.752 E48.27366
G1 X102.278 Y216.028 E48.35086
G1 X101.331 Y216.226 E48.42809
G1 X100.372 Y216.345 E48.50523
G1 X99.41 Y216.385 E48.58209
G1 X69.41 Y216.385 E50.97682
G1 X68.444 Y216.345 E51.05399
G1 X67.484 Y216.225 E51.13122
G1 X66.537 Y216.027 E51.20845
G1 X65.61 Y215.751 E51.28566
G1 X64.709 Y215.399 E51.36287
G1 X63.84 Y214.974 E51.44009
G1 X63.009 Y214.479 E51.5173
G1 X62.222 Y213.917 E51.5945
G1 X61.484 Y213.291 E51.67175
G1 X60.8 Y212.607 E51.74896
G1 X60.175 Y211.869 E51.82616
G1 X59.613 Y211.082 E51.90336
G1 X59.119 Y210.251 E51.98053
G1 X58.694 Y209.382 E52.05774
G1 X58.343 Y208.48 E52.13501
G1 X58.067 Y207.553 E52.21221
G1 X57.869 Y206.606 E52.28944
G1 X57.75 Y205.647 E52.36658
G1 X57.71 Y204.685 E52.44344
G1 X57.71 Y174.685 E54.83817
G1 X57.75 Y173.719 E54.91534
G1 X57.87 Y172.759 E54.99257
G1 X58.068 Y171.812 E55.0698
G1 X58.344 Y170.885 E55.14701
G1 X58.696 Y169.984 E55.22422
G1 X59.121 Y169.115 E55.30144
G1 X59.616 Y168.284 E55.37865
G1 X60.178 Y167.497 E55.45585
G1 X60.804 Y166.759 E55.5331
G1 X61.488 Y166.075 E55.61031
G1 X62.226 Y165.45 E55.68751
G1 X63.013 Y164.888 E55.7647
G1 X63.844 Y164.394 E55.84187
G1 X64.713 Y163.969 E55.91909
G1 X65.615 Y163.618 E55.99635
G1 X66.542 Y163.342 E56.07356
G1 X67.489 Y163.144 E56.15079
G1 X68.448 Y163.025 E56.22793
G1 X69.41 Y162.985 E56.30479
G1 X83.016 Y162.985 E57.39088
G1 X83.016 Y137.436 E59.43031
G1 X69.41 Y137.436 E60.5164
G1 X68.444 Y137.396 E60.59357
G1 X67.484 Y137.276 E60.6708
G1 X66.537 Y137.078 E60.74803
G1 X65.61 Y136.802 E60.82524
G1 X64.709 Y136.45 E60.90245
G1 X63.84 Y136.025 E60.97967
G1 X63.009 Y135.53 E61.05688
G1 X62.222 Y134.968 E61.13408
G1 X61.484 Y134.342 E61.21133
G1 X60.8 Y133.658 E61.28854
G1 X60.175 Y132.92 E61.36574
G1 X59.613 Y132.133 E61.44293
G1 X59.119 Y131.302 E61.5201
G1 X58.694 Y130.433 E61.59732
G1 X58.343 Y129.531 E61.67458
G1 X58.067 Y128.604 E61.75179
G1 X57.869 Y127.657 E61.82902
G1 X57.75 Y126.698 E61.90616
G1 X57.71 Y125.736 E61.98302
G1 X57.71 Y95.736 E64.37775
G1 X57.75 Y94.77 E64.45492
G1 X57.87 Y93.81 E64.53215
G1 X58.068 Y92.863 E64.60938
G1 X58.344 Y91.936 E64.68659
G1 X58.696 Y91.035 E64.7638
G1 X59.121 Y90.166 E64.84102
G1 X59.616 Y89.335 E64.91823
G1 X60.178 Y88.548 E64.99543
G1 X60.804 Y87.81 E65.07267
G1 X61.488 Y87.126 E65.14989
G1 X62.226 Y86.501 E65.22709
G0 F7500 X62.809 Y86.812
G1 F1500 X63.589 Y86.284 E65.30227
G1 X64.412 Y85.825 E65.3775
G1 X65.27 Y85.437 E65.45266
G1 X66.159 Y85.123 E65.52792
G1 X67.07 Y84.885 E65.60308
G1 X67.999 Y84.726 E65.67832
G1 X68.938 Y84.646 E65.75355
G1 X69.41 Y84.636 E65.79123
G1 X99.41 Y84.636 E68.18596
G1 X100.351 Y84.676 E68.26114
G1 X101.286 Y84.796 E68.33639
G1 X102.207 Y84.994 E68.41159
G1 X103.108 Y85.27 E68.48681
G1 X103.982 Y85.621 E68.56199
G1 X104.823 Y86.045 E68.63717
G1 X105.625 Y86.539 E68.71236
G1 X106.383 Y87.099 E68.78759
G1 X107.09 Y87.722 E68.86281
G1 X107.742 Y88.402 E68.93801
G1 X108.334 Y89.135 E69.01322
G1 X108.862 Y89.915 E69.08841
G1 X109.321 Y90.738 E69.16363
G1 X109.709 Y91.596 E69.2388
G1 X110.023 Y92.485 E69.31406
G1 X110.261 Y93.396 E69.38922
G1 X110.42 Y94.325 E69.46446
G1 X110.5 Y95.264 E69.53968
G1 X110.51 Y95.736 E69.57737
G1 X110.51 Y110.678 E70.7701
G1 X205.908 Y110.678 E78.38518
G1 X205.908 Y95.315 E79.61152
G1 X205.948 Y94.374 E79.68671
G1 X206.068 Y93.439 E79.76195
G1 X206.266 Y92.518 E79.83715
G1 X206.542 Y91.617 E79.91237
G1 X206.893 Y90.743 E79.98756
G1 X207.317 Y89.902 E80.06274
G1 X207.811 Y89.1 E80.13793
G1 X208.371 Y88.342 E80.21315
G1 X208.994 Y87.635 E80.28838
G1 X209.674 Y86.983 E80.36358
G1 X210.407 Y86.391 E80.43879
G1 X211.187 Y85.863 E80.51397
G1 X212.01 Y85.404 E80.5892
G1 X212.868 Y85.016 E80.66436
G1 X213.757 Y84.702 E80.73962
G1 X214.668 Y84.464 E80.81478
G1 X215.597 Y84.305 E80.89002
G1 X216.536 Y84.225 E80.96524
G1 X217.008 Y84.215 E81.00293
G1 X247.008 Y84.215 E83.39766
G1 X247.949 Y84.255 E83.47284
G1 X248.884 Y84.375 E83.54809
G1 X249.805 Y84.573 E83.62329
G1 X250.706 Y84.849 E83.69851
G1 X251.58 Y85.2 E83.77369
G1 X252.421 Y85.624 E83.84887
G1 X253.223 Y86.118 E83.92406
G1 X253.981 Y86.678 E83.99929
G1 X254.688 Y87.301 E84.07451
G1 X255.34 Y87.981 E84.14971
G1 X255.932 Y88.714 E84.22492
G1 X256.46 Y89.494 E84.30011
G1 X256.919 Y90.317 E84.37533
G1 X257.307 Y91.175 E84.4505
G1 X257.621 Y92.064 E84.52576
G1 X257.859 Y92.975 E84.60092
G1 X258.018 Y93.904 E84.67615
G1 X258.098 Y94.843 E84.75138
G1 X258.108 Y95.315 E84.78907
G1 X258.108 Y125.315 E87.1838
G1 X258.068 Y126.256 E87.25898
G1 X257.948 Y127.191 E87.33423
G1 X257.75 Y128.112 E87.40942
G1 X257.474 Y129.013 E87.48464
G1 X257.123 Y129.887 E87.55983
G1 X256.699 Y130.728 E87.63501
G1 X256.205 Y131.53 E87.7102
G1 X255.645 Y132.288 E87.78543
G1 X255.022 Y132.995 E87.86065
G1 X254.342 Y133.647 E87.93585
G1 X253.609 Y134.239 E88.01106
G1 X252.829 Y134.767 E88.08625
G1 X252.006 Y135.226 E88.16147
G1 X251.148 Y135.614 E88.23663
G1 X250.259 Y135.928 E88.31189
G1 X249.348 Y136.166 E88.38705
G1 X248.419 Y136.325 E88.46229
G1 X247.48 Y136.405 E88.53752
G1 X247.008 Y136.415 E88.5752
G1 X231.886 Y136.415 E89.78231
G1 X231.886 Y163.585 E91.95113
G1 X248.111 Y163.585 E93.24628
G1 X249.052 Y163.625 E93.32146
G1 X249.987 Y163.745 E93.39671
G1 X250.908 Y163.943 E93.47191
G1 X251.809 Y164.219 E93.54713
G1 X252.683 Y164.57 E93.62231
G1 X253.524 Y164.994 E93.69749
G1 X254.326 Y165.488 E93.77268
G1 X255.084 Y166.048 E93.84791
G1 X255.791 Y166.671 E93.92313
G1 X256.443 Y167.351 E93.99833
G1 X257.035 Y168.084 E94.07354
G1 X257.563 Y168.864 E94.14873
G1 X258.022 Y169.687 E94.22395
G1 X258.41 Y170.545 E94.29912
G1 X258.724 Y171.434 E94.37438
G1 X258.962 Y172.345 E94.44954
G1 X259.121 Y173.274 E94.52478
G1 X259.201 Y174.213 E94.6
G1 X259.211 Y174.685 E94.63769
G1 X259.211 Y204.685 E97.03242
G1 X259.171 Y205.626 E97.1076
G1 X259.051 Y206.561 E97.18285
G1 X258.853 Y207.482 E97.25805
G1 X258.577 Y208.383 E97.33327
G1 X258.226 Y209.257 E97.40845
G1 X257.802 Y210.098 E97.48363
G1 X257.308 Y210.9 E97.55882
G1 X256.748 Y211.658 E97.63405
G1 X256.125 Y212.365 E97.70927
G1 X255.445 Y213.017 E97.78447
G1 X254.712 Y213.609 E97.85968
G1 X253.932 Y214.137 E97.93487
G1 X253.109 Y214.596 E98.01009
G1 X252.251 Y214.984 E98.08526
G1 X251.362 Y215.298 E98.16052
G1 X250.451 Y215.536 E98.23568
G1 X249.522 Y215.695 E98.31091
G1 X248.583 Y215.775 E98.38614
G1 X248.111 Y215.785 E98.42382
G1 X218.111 Y215.785 E100.81855
G1 X217.17 Y215.745 E100.89374
G1 X216.235 Y215.625 E100.96898
G1 X215.314 Y215.427 E101.04418
G1 X214.413 Y215.151 E101.1194
G1 X213.539 Y214.8 E101.19458
G1 X212.698 Y214.376 E101.26977
G1 X211.896 Y213.882 E101.34496
G1 X211.138 Y213.322 E101.42018
G1 X210.431 Y212.699 E101.4954
G1 X209.779 Y212.019 E101.5706
G1 X209.187 Y211.286 E101.64582
G1 X208.659 Y210.506 E101.721
G1 X208.2 Y209.683 E101.79622
G1 X207.812 Y208.825 E101.87139
G1 X207.498 Y207.936 E101.94665
G1 X207.26 Y207.025 E102.02181
G1 X207.101 Y206.096 E102.09705
G1 X207.021 Y205.157 E102.17227
G1 X207.011 Y204.685 E102.20996
G1 X207.011 Y189.498 E103.42225
G1 X110.51 Y189.498 E111.12538
G1 X110.51 Y204.685 E112.33767
G1 X110.47 Y205.626 E112.41285
G1 X110.35 Y206.561 E112.4881
G1 X110.152 Y207.482 E112.5633
G1 X109.876 Y208.383 E112.63852
G1 X109.525 Y209.257 E112.7137
G1 X109.101 Y210.098 E112.78888
G1 X108.607 Y210.9 E112.86407
G1 X108.047 Y211.658 E112.9393
G1 X107.424 Y212.365 E113.01452
G1 X106.744 Y213.017 E113.08972
G1 X106.011 Y213.609 E113.16493
G1 X105.231 Y214.137 E113.24012
G1 X104.408 Y214.596 E113.31534
G1 X103.55 Y214.984 E113.39051
G1 X102.661 Y215.298 E113.46577
G1 X101.75 Y215.536 E113.54093
G1 X100.821 Y215.695 E113.61616
G1 X99.882 Y215.775 E113.69139
G1 X99.41 Y215.785 E113.72908
G1 X69.41 Y215.785 E116.12381
G1 X68.469 Y215.745 E116.19899
G1 X67.534 Y215.625 E116.27424
G1 X66.613 Y215.427 E116.34943
G1 X65.712 Y215.151 E116.42465
G1 X64.838 Y214.8 E116.49984
G1 X63.997 Y214.376 E116.57502
G1 X63.195 Y213.882 E116.65021
G1 X62.437 Y213.322 E116.72544
G1 X61.73 Y212.699 E116.80066
G1 X61.078 Y212.019 E116.87586
G1 X60.486 Y211.286 E116.95107
G1 X59.958 Y210.506 E117.02626
G1 X59.499 Y209.683 E117.10148
G1 X59.111 Y208.825 E117.17664
G1 X58.797 Y207.936 E117.2519
G1 X58.559 Y207.025 E117.32706
G1 X58.4 Y206.096 E117.4023
G1 X58.32 Y205.157 E117.47753
G1 X58.31 Y204.685 E117.51521
G1 X58.31 Y174.685 E119.90994
G1 X58.35 Y173.744 E119.98512
G1 X58.47 Y172.809 E120.06037
G1 X58.668 Y171.888 E120.13557
G1 X58.944 Y170.987 E120.21079
G1 X59.295 Y170.113 E120.28597
G1 X59.719 Y169.272 E120.36115
G1 X60.213 Y168.47 E120.43634
G1 X60.773 Y167.712 E120.51157
G1 X61.396 Y167.005 E120.58679
G1 X62.076 Y166.353 E120.66199
G1 X62.809 Y165.761 E120.7372
G1 X63.589 Y165.233 E120.81239
G1 X64.412 Y164.774 E120.88761
G1 X65.27 Y164.386 E120.96278
G1 X66.159 Y164.072 E121.03804
G1 X67.07 Y163.834 E121.1132
G1 X67.999 Y163.675 E121.18844
G1 X68.938 Y163.595 E121.26366
G1 X69.41 Y163.585 E121.30135
G1 X83.616 Y163.585 E122.43533
G1 X83.616 Y136.836 E124.57055
G1 X69.41 Y136.836 E125.70454
G1 X68.469 Y136.796 E125.77972
G1 X67.534 Y136.676 E125.85497
G1 X66.613 Y136.478 E125.93017
G1 X65.712 Y136.202 E126.00539
G1 X64.838 Y135.851 E126.08057
G1 X63.997 Y135.427 E126.15575
G1 X63.195 Y134.933 E126.23094
G1 X62.437 Y134.373 E126.30617
G1 X61.73 Y133.75 E126.38139
G1 X61.078 Y133.07 E126.45659
G1 X60.486 Y132.337 E126.5318
G1 X59.958 Y131.557 E126.60699
G1 X59.499 Y130.734 E126.68221
G1 X59.111 Y129.876 E126.75738
G1 X58.797 Y128.987 E126.83264
G1 X58.559 Y128.076 E126.9078
G1 X58.4 Y127.147 E126.98303
G1 X58.32 Y126.208 E127.05826
G1 X58.31 Y125.736 E127.09594
G1 X58.31 Y95.736 E129.49067
G1 X58.35 Y94.795 E129.56586
G1 X58.47 Y93.86 E129.6411
G1 X58.668 Y92.939 E129.7163
G1 X58.944 Y92.038 E129.79152
G1 X59.295 Y91.164 E129.8667
G1 X59.719 Y90.323 E129.94189
G1 X60.213 Y89.521 E130.01707
G1 X60.773 Y88.763 E130.0923
G1 X61.396 Y88.056 E130.16752
G1 X62.076 Y87.404 E130.24272
G1 X62.809 Y86.812 E130.31794
G0 F7500 X62.663 Y87.691
G1 F1500 X63.39 Y87.133 E130.39109
G1 X64.163 Y86.641 E130.46423
G1 X64.976 Y86.218 E130.53739
G1 X65.823 Y85.868 E130.61055
G1 X66.697 Y85.593 E130.68368
G1 X67.591 Y85.395 E130.75678
G1 X68.5 Y85.276 E130.82996
G1 X69.41 Y85.236 E130.90267
G1 X99.41 Y85.236 E133.2974
G1 X100.325 Y85.276 E133.3705
G1 X101.234 Y85.396 E133.44369
G1 X102.128 Y85.594 E133.51679
G1 X103.002 Y85.87 E133.58995
G1 X103.849 Y86.22 E133.66311
G1 X104.662 Y86.644 E133.7363
G1 X105.434 Y87.136 E133.80937
G1 X106.161 Y87.694 E133.88253
G1 X106.836 Y88.313 E133.95564
G1 X107.455 Y88.989 E134.0288
