; generated by PrusaSlicer 2.5.2 on 2023-06-17 at 16:05:25 UTC

; 

; external perimeters extrusion width = 0.45mm
; perimeters extrusion width = 0.45mm
; infill extrusion width = 0.45mm
; solid infill extrusion width = 0.45mm
; top infill extrusion width = 0.40mm
; first layer extrusion width = 0.42mm

M107
M104 S230 ; set temperature
;TYPE:Custom
G28 ;Home
G1 Z15.0 F2000 ;Move the platform
M106 S255
M109 S230 ; set temperature and wait for it to be reached
G21 ; set units to millimeters
G90 ; use absolute coordinates
M82 ; use absolute distances for extrusion
G92 E0
; Filament gcode
M107
;LAYER_CHANGE
;Z:0.35
;HEIGHT:0.35
G1 Z.35 F7800
G1 E-2 F2400
G92 E0
G1 X61.84 Y59.385 F7800
G1 E2 F2400
;TYPE:Skirt/Brim
;WIDTH:0.42
G1 F1800
G1 X62.888 Y58.35 E2.07388
G1 X63.496 Y58.037 E2.10822
G1 X64.451 Y57.795 E2.15765
G1 X95.296 Y57.795 E3.70567
G1 X96.251 Y58.037 E3.75509
G1 X96.86 Y58.351 E3.78945
G1 X97.939 Y59.43 E3.86607
G1 X98.253 Y60.039 E3.90044
G1 X98.495 Y60.994 E3.94986
G1 X98.495 Y82.366 E5.02246
G1 X107.972 Y82.366 E5.49809
G1 X108.433 Y82.466 E5.52178
G1 X162.681 Y82.466 E8.24422
G1 X163.142 Y82.366 E8.26793
G1 X202.133 Y82.378 E10.2247
G1 X202.133 Y60.212 E11.33711
G1 X202.375 Y59.257 E11.38653
G1 X202.687 Y58.651 E11.42078
G1 X203.715 Y57.608 E11.49424
G1 X204.371 Y57.257 E11.5316
G1 X205.331 Y57.013 E11.58133
G1 X236.164 Y57.017 E13.1287
G1 X236.893 Y57.164 E13.16603
G1 X237.573 Y57.463 E13.20328
G1 X238.525 Y58.28 E13.26626
G1 X239.104 Y59.181 E13.31998
G1 X239.376 Y60.212 E13.37349
G1 X239.376 Y91.058 E14.92152
G1 X239.128 Y92.03 E14.97186
G1 X238.619 Y92.882 E15.02171
G1 X237.887 Y93.592 E15.07286
G1 X237.134 Y94.013 E15.11618
G1 X236.177 Y94.256 E15.16572
G1 X213.479 Y94.256 E16.30485
G1 X213.479 Y122.257 E17.71011
G1 X225.176 Y109.524 E18.57783
G1 X225.777 Y109.091 E18.615
G1 X226.562 Y108.772 E18.65751
G1 X228.035 Y108.674 E18.7316
G1 X228.74 Y108.839 E18.76795
G1 X229.683 Y109.335 E18.82141
G1 X252.37 Y130.16 E20.36693
G1 X252.847 Y130.817 E20.40769
G1 X253.167 Y131.607 E20.45046
G1 X253.268 Y132.867 E20.51392
G1 X253.207 Y133.417 E20.54169
G1 X252.608 Y134.704 E20.6129
G1 X231.774 Y157.401 E22.1591
G1 X231.065 Y157.906 E22.20276
G1 X230.253 Y158.215 E22.24639
G1 X228.745 Y158.277 E22.32212
G1 X228.088 Y158.097 E22.3563
G1 X227.222 Y157.63 E22.40572
G1 X213.479 Y145.015 E23.34192
G1 X213.479 Y168.128 E24.50187
G1 X236.554 Y168.128 E25.6599
G1 X237.508 Y168.37 E25.70932
G1 X238.114 Y168.682 E25.74352
G1 X239.154 Y169.706 E25.81678
G1 X239.508 Y170.364 E25.85425
G1 X239.752 Y171.327 E25.9041
G1 X239.752 Y202.172 E27.45212
G1 X239.51 Y203.128 E27.5016
G1 X239.164 Y203.781 E27.53867
G1 X238.117 Y204.816 E27.61256
G1 X237.508 Y205.129 E27.6469
G1 X236.553 Y205.371 E27.69635
G1 X210.522 Y205.362 E29.00276
G1 X221.175 Y216.984 E29.79399
G1 X221.617 Y217.814 E29.84118
G1 X221.804 Y218.531 E29.87835
G1 X221.726 Y220.016 E29.95296
G1 X221.412 Y220.817 E29.99617
G1 X220.918 Y221.503 E30.03857
G1 X198.266 Y242.283 E31.58127
G1 X197.611 Y242.686 E31.61984
G1 X196.887 Y242.934 E31.65829
G1 X195.266 Y242.92 E31.7396
G1 X194.423 Y242.616 E31.78459
G1 X193.673 Y242.089 E31.8306
G1 X172.854 Y219.395 E33.37614
G1 X172.388 Y218.528 E33.42557
G1 X172.205 Y217.857 E33.46046
G1 X172.321 Y216.16 E33.54581
G1 X172.631 Y215.456 E33.58444
G1 X173.09 Y214.839 E33.62302
G1 X188.786 Y200.439 E34.69203
G1 X188.52 Y200.136 E34.71228
G1 X187.355 Y198.358 E34.81895
G1 X186.197 Y195.9 E34.95533
G1 X185.291 Y192.986 E35.10846
G1 X184.733 Y189.856 E35.26804
G1 X184.537 Y186.675 E35.42794
G1 X184.535 Y180.309 E35.74746
G1 X113.305 Y180.309 E39.32217
G1 X113.305 Y186.539 E39.63487
G1 X113.234 Y188.497 E39.73318
G1 X113.133 Y189.582 E39.78788
G1 X112.677 Y192.412 E39.93173
G1 X112.194 Y194.282 E40.02866
G1 X111.521 Y196.194 E40.13037
G1 X110.908 Y197.555 E40.20528
G1 X109.78 Y199.492 E40.3178
G1 X109.569 Y199.748 E40.33446
G1 X125.348 Y216.949 E41.50586
G1 X125.814 Y217.816 E41.55528
G1 X125.994 Y218.473 E41.58947
G1 X125.932 Y219.98 E41.6652
G1 X125.622 Y220.792 E41.70882
G1 X125.117 Y221.501 E41.75249
G1 X102.457 Y242.288 E43.29573
G1 X101.532 Y242.798 E43.34873
G1 X100.474 Y243.002 E43.4028
G1 X99.193 Y242.854 E43.46752
G1 X98.661 Y242.637 E43.49634
G1 X98.155 Y242.332 E43.52601
G1 X77.053 Y219.396 E45.09014
G1 X76.556 Y218.452 E45.14365
G1 X76.391 Y217.747 E45.18001
G1 X76.49 Y216.274 E45.2541
G1 X76.81 Y215.49 E45.29661
G1 X77.242 Y214.888 E45.33379
G1 X88.028 Y204.985 E46.06864
G1 X63.092 Y204.985 E47.32005
G1 X62.066 Y204.716 E47.37332
G1 X61.192 Y204.164 E47.42517
G1 X60.422 Y203.297 E47.48337
G1 X59.966 Y202.249 E47.54075
G1 X59.893 Y201.705 E47.56829
G1 X59.893 Y170.941 E49.11222
G1 X60.142 Y169.965 E49.16274
G1 X60.581 Y169.204 E49.20685
G1 X61.188 Y168.569 E49.2509
G1 X61.638 Y168.223 E49.27939
G1 X63.071 Y167.742 E49.35525
G1 X86.236 Y167.742 E50.51783
G1 X86.236 Y145.255 E51.64636
G1 X72.956 Y157.621 E52.55701
G1 X72.093 Y158.094 E52.60643
G1 X71.432 Y158.28 E52.64089
G1 X69.839 Y158.207 E52.7209
G1 X69.054 Y157.892 E52.76334
G1 X68.401 Y157.422 E52.80372
G1 X47.407 Y134.875 E54.34981
G1 X46.799 Y133.593 E54.42102
G1 X46.734 Y133.044 E54.44879
G1 X46.826 Y131.783 E54.51225
G1 X47.14 Y130.991 E54.55502
G1 X47.613 Y130.33 E54.59578
G1 X70.152 Y109.344 E56.14132
G1 X71.137 Y108.824 E56.19722
G1 X71.85 Y108.666 E56.23386
G1 X73.209 Y108.746 E56.3022
G1 X74.012 Y109.05 E56.34531
G1 X74.657 Y109.499 E56.38475
G1 X86.236 Y121.925 E57.2371
G1 X86.236 Y95.038 E58.58644
G1 X64.451 Y95.038 E59.67977
G1 X63.494 Y94.795 E59.72931
G1 X62.734 Y94.369 E59.77304
G1 X62 Y93.655 E59.82442
G1 X61.497 Y92.805 E59.87399
G1 X61.252 Y91.839 E59.92397
G1 X61.252 Y60.994 E61.47199
G1 X61.494 Y60.038 E61.52147
G1 X61.812 Y59.438 E61.55554
G1 X62.116 Y59.602 F7800
G1 F1800
G1 X63.071 Y58.644 E61.62341
G1 X63.603 Y58.366 E61.65353
G1 X64.473 Y58.14 E61.69866
G1 X95.274 Y58.14 E63.24443
G1 X96.144 Y58.366 E63.28956
G1 X96.676 Y58.644 E63.31969
G1 X97.646 Y59.614 E63.38852
G1 X97.924 Y60.146 E63.41864
G1 X98.15 Y61.016 E63.46377
G1 X98.15 Y82.711 E64.55255
G1 X107.952 Y82.711 E65.04449
G1 X108.394 Y82.811 E65.06722
G1 X162.72 Y82.811 E67.79361
G1 X163.162 Y82.711 E67.81637
G1 X202.478 Y82.723 E69.78946
G1 X202.478 Y60.234 E70.91806
G1 X202.703 Y59.364 E70.96318
G1 X202.981 Y58.834 E70.99322
G1 X203.902 Y57.899 E71.05909
G1 X204.479 Y57.585 E71.09205
G1 X205.354 Y57.358 E71.1374
G1 X236.146 Y57.362 E72.68275
G1 X236.805 Y57.498 E72.71648
G1 X237.408 Y57.767 E72.74965
G1 X238.281 Y58.524 E72.80763
G1 X238.778 Y59.296 E72.85373
G1 X239.031 Y60.235 E72.9025
G1 X239.031 Y91.035 E74.44825
G1 X238.801 Y91.918 E74.494
G1 X238.336 Y92.683 E74.53895
G1 X237.665 Y93.328 E74.58567
G1 X237.025 Y93.685 E74.62243
G1 X236.155 Y93.911 E74.66758
G1 X213.134 Y93.911 E75.82289
G1 X213.134 Y123.143 E77.2899
G1 X225.393 Y109.792 E78.19953
G1 X225.93 Y109.401 E78.23288
G1 X226.614 Y109.114 E78.27009
G1 X228.03 Y109.02 E78.34133
G1 X228.637 Y109.168 E78.37266
G1 X229.466 Y109.604 E78.41967
G1 X252.123 Y130.402 E79.96317
G1 X252.555 Y131.001 E80.0002
G1 X252.837 Y131.709 E80.03846
G1 X252.923 Y132.875 E80.09716
G1 X252.868 Y133.349 E80.1211
G1 X252.336 Y134.49 E80.18426
G1 X231.532 Y157.153 E81.72819
G1 X230.885 Y157.611 E81.76795
G1 X230.159 Y157.883 E81.80689
G1 X228.809 Y157.937 E81.87469
G1 X228.232 Y157.783 E81.90464
G1 X227.438 Y157.361 E81.94977
G1 X213.134 Y144.23 E82.92422
G1 X213.134 Y168.473 E84.14087
G1 X236.531 Y168.473 E85.31508
G1 X237.402 Y168.699 E85.36021
G1 X237.931 Y168.976 E85.3902
G1 X238.864 Y169.894 E85.4559
G1 X239.18 Y170.472 E85.48895
G1 X239.407 Y171.349 E85.53442
G1 X239.407 Y202.15 E87.08019
G1 X239.181 Y203.02 E87.12532
G1 X238.873 Y203.594 E87.15803
G1 X237.934 Y204.522 E87.22428
G1 X237.402 Y204.8 E87.25441
G1 X236.531 Y205.026 E87.29955
G1 X209.737 Y205.017 E88.64423
G1 X220.881 Y217.165 E89.47157
G1 X221.303 Y217.959 E89.5167
G1 X221.458 Y218.54 E89.54688
G1 X221.383 Y219.968 E89.61863
G1 X221.101 Y220.668 E89.65651
G1 X220.672 Y221.26 E89.69319
G1 X198.045 Y242.017 E91.23417
G1 X197.449 Y242.381 E91.26923
G1 X196.805 Y242.598 E91.30335
G1 X195.356 Y242.585 E91.37605
G1 X194.562 Y242.299 E91.4184
G1 X193.915 Y241.842 E91.45817
G1 X173.124 Y219.178 E93.00168
G1 X172.702 Y218.384 E93.04681
G1 X172.545 Y217.796 E93.07734
G1 X172.649 Y216.27 E93.1541
G1 X172.921 Y215.644 E93.18837
G1 X173.335 Y215.081 E93.22343
G1 X189.271 Y200.463 E94.3087
G1 X188.801 Y199.935 E94.34412
G1 X187.65 Y198.179 E94.44951
G1 X186.514 Y195.764 E94.58347
G1 X185.628 Y192.915 E94.73319
G1 X185.074 Y189.805 E94.89172
G1 X184.882 Y186.66 E95.04987
G1 X184.879 Y179.964 E95.38591
G1 X112.96 Y179.964 E98.99523
G1 X112.96 Y186.536 E99.32507
G1 X112.89 Y188.48 E99.42267
G1 X112.792 Y189.533 E99.47577
G1 X112.338 Y192.349 E99.61892
G1 X111.867 Y194.175 E99.71354
G1 X111.204 Y196.059 E99.81378
G1 X110.605 Y197.389 E99.88698
G1 X109.49 Y199.305 E99.99822
G1 X109.107 Y199.756 E100.02791
G1 X125.078 Y217.165 E101.21356
G1 X125.5 Y217.959 E101.25869
G1 X125.654 Y218.536 E101.28864
G1 X125.599 Y219.886 E101.35644
G1 X125.327 Y220.612 E101.39538
G1 X124.87 Y221.259 E101.43514
G1 X102.238 Y242.021 E102.97644
G1 X101.437 Y242.465 E103.02245
G1 X100.484 Y242.657 E103.0712
G1 X99.301 Y242.526 E103.13097
G1 X98.804 Y242.323 E103.15787
G1 X98.355 Y242.05 E103.18426
G1 X77.322 Y219.179 E104.74365
G1 X76.886 Y218.349 E104.7907
G1 X76.737 Y217.743 E104.82203
G1 X76.832 Y216.326 E104.89326
G1 X77.119 Y215.643 E104.93048
G1 X77.511 Y215.106 E104.96383
G1 X88.914 Y204.64 E105.7406
G1 X63.114 Y204.64 E107.03539
G1 X62.225 Y204.409 E107.0815
G1 X61.431 Y203.915 E107.12844
G1 X60.725 Y203.132 E107.18131
G1 X60.304 Y202.178 E107.23367
G1 X60.238 Y201.693 E107.25821
G1 X60.238 Y170.963 E108.80042
G1 X60.469 Y170.076 E108.84642
G1 X60.868 Y169.397 E108.88593
G1 X61.426 Y168.819 E108.92629
G1 X61.824 Y168.515 E108.95141
G1 X63.099 Y168.087 E109.01888
G1 X86.581 Y168.087 E110.19736
G1 X86.581 Y144.463 E111.38297
G1 X72.738 Y157.353 E112.33226
G1 X71.947 Y157.781 E112.37739
G1 X71.367 Y157.94 E112.40757
G1 X69.939 Y157.876 E112.47932
G1 X69.237 Y157.598 E112.5172
G1 X68.641 Y157.174 E112.55389
G1 X47.678 Y134.66 E114.09776
G1 X47.138 Y133.523 E114.16092
G1 X47.079 Y133.05 E114.18486
G1 X47.157 Y131.883 E114.24355
G1 X47.434 Y131.172 E114.28182
G1 X47.861 Y130.571 E114.31885
G1 X70.37 Y109.612 E115.86234
G1 X71.237 Y109.155 E115.91153
G1 X71.855 Y109.012 E115.94336
G1 X73.161 Y109.089 E116.00903
G1 X73.867 Y109.363 E116.04701
G1 X74.443 Y109.77 E116.08244
G1 X86.581 Y122.801 E116.97615
G1 X86.581 Y94.693 E118.38677
G1 X64.473 Y94.693 E119.49629
G1 X63.602 Y94.467 E119.54143
G1 X62.958 Y94.106 E119.57849
G1 X62.257 Y93.423 E119.62759
G1 X61.825 Y92.694 E119.67015
G1 X61.597 Y91.817 E119.71562
G1 X61.597 Y61.016 E121.2614
G1 X61.823 Y60.146 E121.30652
G1 X62.087 Y59.654 E121.33453
G1 X62.389 Y59.82 F7800
G1 F1800
G1 X62.422 Y59.76 E121.33794
G1 X63.255 Y58.936 E121.39675
G1 X63.711 Y58.694 E121.42268
G1 X64.496 Y58.485 E121.46343
G1 X95.251 Y58.485 E123.00689
G1 X96.035 Y58.694 E123.04764
G1 X96.491 Y58.936 E123.07355
G1 X97.354 Y59.799 E123.13477
G1 X97.596 Y60.254 E123.16068
G1 X97.805 Y61.039 E123.20142
G1 X97.805 Y83.056 E124.30636
G1 X107.931 Y83.056 E124.81455
G1 X108.353 Y83.156 E124.8363
G1 X162.761 Y83.156 E127.56683
G1 X163.183 Y83.056 E127.58859
G1 X202.823 Y83.068 E129.57794
G1 X202.823 Y60.257 E130.7227
G1 X203.031 Y59.473 E130.76344
G1 X203.273 Y59.018 E130.78929
G1 X204.091 Y58.188 E130.84777
G1 X204.589 Y57.913 E130.87634
G1 X205.377 Y57.703 E130.91724
G1 X236.129 Y57.707 E132.46056
G1 X236.681 Y57.82 E132.48885
G1 X237.243 Y58.071 E132.51974
G1 X238.034 Y58.766 E132.57257
G1 X238.473 Y59.458 E132.6137
G1 X238.686 Y60.257 E132.6552
G1 X238.686 Y91.012 E134.19867
G1 X238.475 Y91.804 E134.23981
G1 X238.081 Y92.45 E134.27773
G1 X237.442 Y93.064 E134.32223
G1 X236.915 Y93.358 E134.35249
G1 X236.132 Y93.566 E134.3932
G1 X212.789 Y93.566 E135.56467
G1 X212.789 Y124.029 E137.09344
G1 X225.612 Y110.06 E138.04506
G1 X226.087 Y109.709 E138.07471
G1 X226.668 Y109.456 E138.10649
G1 X228.025 Y109.366 E138.17473
G1 X228.53 Y109.497 E138.20094
G1 X229.249 Y109.874 E138.24169
G1 X251.876 Y130.644 E139.78313
G1 X252.261 Y131.183 E139.81636
G1 X252.506 Y131.809 E139.8501
G1 X252.578 Y132.881 E139.90403
G1 X252.529 Y133.279 E139.92418
G1 X252.064 Y134.276 E139.97937
G1 X231.29 Y156.907 E141.52106
G1 X230.743 Y157.296 E141.55475
G1 X230.064 Y157.55 E141.59117
G1 X228.87 Y157.597 E141.65109
G1 X228.374 Y157.468 E141.67685
G1 X227.655 Y157.091 E141.71759
G1 X212.789 Y143.446 E142.73028
G1 X212.789 Y168.818 E144.00361
G1 X236.508 Y168.818 E145.19398
G1 X237.293 Y169.027 E145.23472
G1 X237.747 Y169.268 E145.26054
G1 X238.575 Y170.083 E145.31886
G1 X238.852 Y170.583 E145.34751
G1 X239.062 Y171.372 E145.38851
G1 X239.062 Y202.127 E146.93198
G1 X238.854 Y202.911 E146.97267
G1 X238.583 Y203.406 E147.00103
G1 X237.749 Y204.23 E147.05984
G1 X237.293 Y204.472 E147.08577
G1 X236.508 Y204.681 E147.12653
G1 X208.952 Y204.672 E148.50944
G1 X220.611 Y217.382 E149.37501
G1 X220.988 Y218.101 E149.41576
G1 X221.118 Y218.601 E149.44168
G1 X221.052 Y219.868 E149.50536
G1 X220.808 Y220.485 E149.53867
G1 X220.425 Y221.018 E149.5716
G1 X197.824 Y241.752 E151.11083
G1 X197.321 Y242.061 E151.14048
G1 X196.723 Y242.261 E151.17211
G1 X195.392 Y242.241 E151.23891
G1 X194.705 Y241.985 E151.27574
G1 X194.157 Y241.596 E151.30946
G1 X173.393 Y218.962 E152.85091
G1 X173.017 Y218.243 E152.89165
G1 X172.886 Y217.737 E152.91786
G1 X172.977 Y216.38 E152.98611
G1 X173.23 Y215.8 E153.01789
G1 X173.581 Y215.324 E153.04754
G1 X189.755 Y200.486 E154.14912
G1 X189.082 Y199.735 E154.19973
G1 X187.957 Y198.021 E154.30263
G1 X186.84 Y195.65 E154.43418
G1 X185.966 Y192.844 E154.58168
G1 X185.418 Y189.774 E154.73817
G1 X185.227 Y186.644 E154.89555
G1 X185.224 Y179.619 E155.2481
G1 X112.615 Y179.619 E158.89203
G1 X112.615 Y186.533 E159.23903
G1 X112.545 Y188.462 E159.33592
G1 X112.451 Y189.484 E159.38741
G1 X111.999 Y192.287 E159.52987
G1 X111.539 Y194.067 E159.62218
G1 X110.886 Y195.924 E159.72096
G1 X110.302 Y197.223 E159.79243
G1 X109.2 Y199.117 E159.9024
G1 X108.646 Y199.763 E159.9451
G1 X124.809 Y217.382 E161.14503
G1 X125.185 Y218.101 E161.18577
G1 X125.314 Y218.597 E161.21153
G1 X125.267 Y219.791 E161.27145
G1 X125.012 Y220.47 E161.30787
G1 X124.623 Y221.017 E161.34155
G1 X102.02 Y241.753 E162.88095
G1 X101.339 Y242.133 E162.92008
G1 X100.493 Y242.311 E162.9635
G1 X99.408 Y242.197 E163.01824
G1 X98.948 Y242.009 E163.04316
G1 X98.556 Y241.769 E163.06624
G1 X77.591 Y218.962 E164.62093
G1 X77.214 Y218.243 E164.6617
G1 X77.083 Y217.737 E164.68791
G1 X77.174 Y216.38 E164.75615
G1 X77.427 Y215.8 E164.78794
G1 X77.778 Y215.324 E164.81758
G1 X89.8 Y204.295 E165.63637
G1 X63.137 Y204.295 E166.97448
G1 X62.339 Y204.082 E167.01593
G1 X61.669 Y203.664 E167.05558
G1 X61.028 Y202.965 E167.10319
G1 X60.642 Y202.105 E167.15047
G1 X60.583 Y201.681 E167.17197
G1 X60.583 Y170.986 E168.71241
G1 X60.796 Y170.189 E168.7538
G1 X61.153 Y169.593 E168.7887
G1 X61.663 Y169.069 E168.8254
G1 X62.01 Y168.807 E168.8472
G1 X63.127 Y168.432 E168.90633
G1 X86.926 Y168.432 E170.10071
G1 X86.926 Y143.67 E171.3434
G1 X72.519 Y157.085 E172.3313
G1 X71.803 Y157.467 E172.37205
G1 X71.304 Y157.6 E172.39797
G1 X70.036 Y157.544 E172.46164
G1 X69.417 Y157.304 E172.49496
G1 X68.881 Y156.926 E172.52789
G1 X47.948 Y134.444 E174.06952
G1 X47.476 Y133.451 E174.1247
G1 X47.424 Y133.053 E174.14485
G1 X47.489 Y131.98 E174.19878
G1 X47.729 Y131.352 E174.23252
G1 X48.11 Y130.81 E174.26575
G1 X70.588 Y109.88 E175.80717
G1 X71.34 Y109.485 E175.84979
G1 X71.861 Y109.358 E175.87672
G1 X73.112 Y109.431 E175.9396
G1 X73.718 Y109.675 E175.97235
G1 X74.228 Y110.04 E176.00386
G1 X86.926 Y123.678 E176.93901
G1 X86.926 Y94.348 E178.41094
G1 X64.496 Y94.348 E179.53661
G1 X63.712 Y94.14 E179.57731
G1 X63.182 Y93.843 E179.60777
G1 X62.514 Y93.192 E179.6546
G1 X62.151 Y92.582 E179.69022
G1 X61.942 Y91.794 E179.73114
G1 X61.942 Y61.039 E181.2746
G1 X62.15 Y60.255 E181.31529
