;FLAVOR:Marlin
;TIME:2864
;Filament used: 4.29428m
;Layer height: 0.32
;MINX:127.41
;MINY:126.602
;MINZ:0.32
;MAXX:172.434
;MAXY:173.562
;MAXZ:24.32
;Generated with Cura_SteamEngine master
M140 S60
M105
M190 S60
M104 S240
M105
M109 S240
M82 ;absolute extrusion mode
G28 ;Home
G1 Z15.0 F2000 ;Move the platform
G92 E0
G92 E0
;LAYER_COUNT:76
;LAYER:0
M107 P2
G0 F7500 X129.838 Y128.919 Z0.32
;TYPE:SKIRT
G1 F1500 X130.44 Y128.385 E0.06424
G1 X131.092 Y127.913 E0.12849
G1 X131.788 Y127.508 E0.19277
G1 X132.52 Y127.174 E0.25699
G1 X133.282 Y126.915 E0.32124
G1 X134.065 Y126.732 E0.38542
G1 X134.863 Y126.628 E0.44966
G1 X135.51 Y126.602 E0.50135
G1 X164.334 Y126.602 E2.80221
G1 X165.138 Y126.642 E2.86646
G1 X165.934 Y126.762 E2.93072
G1 X166.714 Y126.959 E2.99494
G1 X167.47 Y127.234 E3.05916
G1 X168.196 Y127.582 E3.12342
G1 X168.883 Y128 E3.18762
G1 X169.526 Y128.485 E3.25191
G1 X170.117 Y129.03 E3.31608
G1 X170.651 Y129.632 E3.38031
G1 X171.123 Y130.284 E3.44457
G1 X171.528 Y130.98 E3.50885
G1 X171.862 Y131.712 E3.57307
G1 X172.121 Y132.474 E3.63732
G1 X172.304 Y133.257 E3.7015
G1 X172.408 Y134.055 E3.76574
G1 X172.434 Y134.702 E3.81743
G1 X172.434 Y165.462 E6.27283
G1 X172.394 Y166.266 E6.33708
G1 X172.274 Y167.062 E6.40134
G1 X172.077 Y167.842 E6.46556
G1 X171.802 Y168.598 E6.52978
G1 X171.454 Y169.324 E6.59404
G1 X171.036 Y170.011 E6.65823
G1 X170.551 Y170.654 E6.72253
G1 X170.006 Y171.245 E6.7867
G1 X169.404 Y171.779 E6.85093
G1 X168.752 Y172.251 E6.91519
G1 X168.056 Y172.656 E6.97947
G1 X167.324 Y172.99 E7.04369
G1 X166.562 Y173.249 E7.10794
G1 X165.779 Y173.432 E7.17212
G1 X164.981 Y173.536 E7.23636
G1 X164.334 Y173.562 E7.28805
G1 X135.51 Y173.562 E9.58891
G1 X134.706 Y173.522 E9.65316
G1 X133.91 Y173.402 E9.71742
G1 X133.13 Y173.205 E9.78164
G1 X132.374 Y172.93 E9.84586
G1 X131.648 Y172.582 E9.91012
G1 X130.961 Y172.164 E9.97431
G1 X130.318 Y171.679 E10.0386
G1 X129.727 Y171.134 E10.10278
G1 X129.193 Y170.532 E10.16701
G1 X128.721 Y169.88 E10.23127
G1 X128.316 Y169.184 E10.29554
G1 X127.982 Y168.452 E10.35977
G1 X127.723 Y167.69 E10.42401
G1 X127.54 Y166.907 E10.4882
G1 X127.436 Y166.109 E10.55244
G1 X127.41 Y165.462 E10.60413
G1 X127.41 Y134.702 E13.05952
G1 X127.45 Y133.898 E13.12378
G1 X127.57 Y133.102 E13.18804
G1 X127.767 Y132.322 E13.25226
G1 X128.042 Y131.566 E13.31647
G1 X128.39 Y130.84 E13.38074
G1 X128.808 Y130.153 E13.44493
G1 X129.293 Y129.51 E13.50922
G1 X129.838 Y128.919 E13.5734
G0 F7500 X130.428 Y129.186
G1 F1500 X131.024 Y128.692 E13.63519
G1 X131.668 Y128.261 E13.69705
G1 X132.352 Y127.899 E13.75882
G1 X133.07 Y127.61 E13.82061
G1 X133.815 Y127.396 E13.88248
G1 X134.577 Y127.26 E13.94427
G1 X135.51 Y127.202 E14.01889
G1 X164.334 Y127.202 E16.31974
G1 X165.107 Y127.242 E16.38153
G1 X165.872 Y127.361 E16.44333
G1 X166.621 Y127.559 E16.50517
G1 X167.345 Y127.833 E16.56696
G1 X168.038 Y128.18 E16.62883
G1 X168.69 Y128.597 E16.69061
G1 X169.296 Y129.079 E16.75242
G1 X169.85 Y129.62 E16.81423
G1 X170.344 Y130.216 E16.87602
G1 X170.775 Y130.86 E16.93788
G1 X171.137 Y131.544 E16.99966
G1 X171.426 Y132.262 E17.06144
G1 X171.64 Y133.007 E17.12331
G1 X171.776 Y133.769 E17.1851
G1 X171.834 Y134.702 E17.25972
G1 X171.834 Y165.462 E19.71511
G1 X171.794 Y166.235 E19.7769
G1 X171.675 Y167 E19.8387
G1 X171.477 Y167.749 E19.90054
G1 X171.203 Y168.473 E19.96234
G1 X170.856 Y169.166 E20.0242
G1 X170.439 Y169.818 E20.08598
G1 X169.957 Y170.424 E20.14779
G1 X169.416 Y170.978 E20.2096
G1 X168.82 Y171.472 E20.2714
G1 X168.176 Y171.903 E20.33325
G1 X167.492 Y172.265 E20.39503
G1 X166.774 Y172.554 E20.45681
G1 X166.029 Y172.768 E20.51868
G1 X165.267 Y172.904 E20.58047
G1 X164.334 Y172.962 E20.65509
G1 X135.51 Y172.962 E22.95595
G1 X134.737 Y172.922 E23.01773
G1 X133.972 Y172.803 E23.07953
G1 X133.223 Y172.605 E23.14138
G1 X132.499 Y172.331 E23.20317
G1 X131.806 Y171.984 E23.26503
G1 X131.154 Y171.567 E23.32681
G1 X130.548 Y171.085 E23.38862
G1 X129.994 Y170.544 E23.45043
G1 X129.5 Y169.948 E23.51223
G1 X129.069 Y169.304 E23.57408
G1 X128.707 Y168.62 E23.63586
G1 X128.418 Y167.902 E23.69764
G1 X128.204 Y167.157 E23.75952
G1 X128.068 Y166.395 E23.8213
G1 X128.01 Y165.462 E23.89592
G1 X128.01 Y134.702 E26.35132
G1 X128.05 Y133.929 E26.41311
G1 X128.169 Y133.164 E26.47491
G1 X128.367 Y132.415 E26.53675
G1 X128.641 Y131.691 E26.59854
G1 X128.988 Y130.998 E26.66041
G1 X129.405 Y130.346 E26.72219
G1 X129.887 Y129.74 E26.784
G1 X130.428 Y129.186 E26.84581
G0 F7500 X130.479 Y129.979
G1 F1500 X131.016 Y129.466 E26.90509
G1 X131.605 Y129.013 E26.9644
G1 X132.239 Y128.627 E27.02365
G1 X132.911 Y128.31 E27.08296
G1 X133.613 Y128.068 E27.14224
G1 X134.337 Y127.902 E27.20153
G1 X135.075 Y127.816 E27.26084
G1 X135.51 Y127.802 E27.29558
G1 X164.334 Y127.802 E29.59644
G1 X165.076 Y127.842 E29.65575
G1 X165.809 Y127.961 E29.71503
G1 X166.525 Y128.159 E29.77433
G1 X167.215 Y128.432 E29.83356
G1 X167.872 Y128.778 E29.89283
G1 X168.489 Y129.193 E29.95219
G1 X169.057 Y129.671 E30.01145
G1 X169.57 Y130.208 E30.07073
G1 X170.023 Y130.797 E30.13004
G1 X170.409 Y131.431 E30.1893
G1 X170.726 Y132.103 E30.24861
G1 X170.968 Y132.805 E30.30788
G1 X171.134 Y133.529 E30.36717
G1 X171.22 Y134.267 E30.42648
G1 X171.234 Y134.702 E30.46122
G1 X171.234 Y165.462 E32.91662
G1 X171.194 Y166.204 E32.97593
G1 X171.075 Y166.937 E33.03521
G1 X170.877 Y167.653 E33.09451
G1 X170.604 Y168.343 E33.15374
G1 X170.258 Y169 E33.21302
G1 X169.843 Y169.617 E33.27237
G1 X169.365 Y170.185 E33.33163
G1 X168.828 Y170.698 E33.39091
G1 X168.239 Y171.151 E33.45023
G1 X167.605 Y171.537 E33.50948
G1 X166.933 Y171.854 E33.56879
G1 X166.231 Y172.096 E33.62806
G1 X165.507 Y172.262 E33.68735
G1 X164.769 Y172.348 E33.74666
G1 X164.334 Y172.362 E33.7814
G1 X135.51 Y172.362 E36.08226
G1 X134.768 Y172.322 E36.14158
G1 X134.035 Y172.203 E36.20085
G1 X133.319 Y172.005 E36.26015
G1 X132.629 Y171.732 E36.31939
G1 X131.972 Y171.386 E36.37866
G1 X131.355 Y170.971 E36.43801
G1 X130.787 Y170.493 E36.49727
G1 X130.274 Y169.956 E36.55656
G1 X129.821 Y169.367 E36.61587
G1 X129.435 Y168.733 E36.67512
G1 X129.118 Y168.061 E36.73443
G1 X128.876 Y167.359 E36.7937
G1 X128.71 Y166.635 E36.853
G1 X128.624 Y165.897 E36.9123
G1 X128.61 Y165.462 E36.94705
G1 X128.61 Y134.702 E39.40244
G1 X128.65 Y133.96 E39.46176
G1 X128.769 Y133.227 E39.52104
G1 X128.967 Y132.511 E39.58033
G1 X129.24 Y131.821 E39.63957
G1 X129.586 Y131.164 E39.69884
G1 X130.001 Y130.547 E39.7582
G1 X130.479 Y129.979 E39.81746
G0 F7500 X131.071 Y130.232
G1 F1500 X131.602 Y129.761 E39.87411
G1 X132.182 Y129.353 E39.93072
G1 X132.805 Y129.012 E39.98741
G1 X133.462 Y128.744 E40.04405
G1 X134.145 Y128.552 E40.10069
G1 X134.846 Y128.437 E40.15739
G1 X135.51 Y128.402 E40.21047
G1 X164.334 Y128.402 E42.51132
G1 X165.043 Y128.442 E42.56801
G1 X165.742 Y128.561 E42.62461
G1 X166.424 Y128.759 E42.6813
G1 X167.079 Y129.031 E42.73791
G1 X167.699 Y129.376 E42.79455
G1 X168.277 Y129.788 E42.85121
G1 X168.804 Y130.263 E42.90784
G1 X169.275 Y130.794 E42.9645
G1 X169.683 Y131.374 E43.02111
G1 X170.024 Y131.997 E43.0778
G1 X170.292 Y132.654 E43.13444
G1 X170.484 Y133.337 E43.19107
G1 X170.599 Y134.038 E43.24778
G1 X170.634 Y134.702 E43.30085
G1 X170.634 Y165.462 E45.75625
G1 X170.594 Y166.171 E45.81294
G1 X170.475 Y166.87 E45.86954
G1 X170.277 Y167.552 E45.92622
G1 X170.005 Y168.207 E45.98284
G1 X169.66 Y168.827 E46.03947
G1 X169.248 Y169.405 E46.09613
G1 X168.773 Y169.932 E46.15277
G1 X168.242 Y170.403 E46.20943
G1 X167.662 Y170.811 E46.26603
G1 X167.039 Y171.152 E46.32273
G1 X166.382 Y171.42 E46.37937
G1 X165.699 Y171.612 E46.436
G1 X164.998 Y171.727 E46.4927
G1 X164.334 Y171.762 E46.54578
G1 X135.51 Y171.762 E48.84664
G1 X134.801 Y171.722 E48.90332
G1 X134.102 Y171.603 E48.95992
G1 X133.42 Y171.405 E49.01661
G1 X132.765 Y171.133 E49.07322
G1 X132.145 Y170.788 E49.12986
G1 X131.567 Y170.376 E49.18652
G1 X131.04 Y169.901 E49.24315
G1 X130.569 Y169.37 E49.29981
G1 X130.161 Y168.79 E49.35642
G1 X129.82 Y168.167 E49.41311
G1 X129.552 Y167.51 E49.46975
G1 X129.36 Y166.827 E49.52638
G1 X129.245 Y166.126 E49.58309
G1 X129.21 Y165.462 E49.63617
G1 X129.21 Y134.702 E52.09156
G1 X129.25 Y133.993 E52.14825
G1 X129.369 Y133.294 E52.20485
G1 X129.567 Y132.612 E52.26154
G1 X129.839 Y131.957 E52.31815
G1 X130.184 Y131.337 E52.37479
G1 X130.596 Y130.759 E52.43145
G1 X131.071 Y130.232 E52.48808
G0 F7500 X131.661 Y130.498
G1 F1500 X132.185 Y130.073 E52.54194
G1 X132.755 Y129.712 E52.59579
G1 X133.364 Y129.421 E52.64967
G1 X134.004 Y129.205 E52.70359
G1 X134.664 Y129.065 E52.75745
G1 X135.51 Y129.002 E52.82517
G1 X164.334 Y129.002 E55.12602
G1 X165.008 Y129.042 E55.17992
G1 X165.672 Y129.161 E55.23377
G1 X166.318 Y129.358 E55.28768
G1 X166.935 Y129.63 E55.3415
G1 X167.517 Y129.973 E55.39543
G1 X168.053 Y130.383 E55.4493
G1 X168.538 Y130.853 E55.50321
G1 X168.963 Y131.377 E55.55706
G1 X169.324 Y131.947 E55.61092
G1 X169.615 Y132.556 E55.6648
G1 X169.831 Y133.196 E55.71872
G1 X169.971 Y133.856 E55.77257
G1 X170.034 Y134.702 E55.84029
G1 X170.034 Y165.462 E58.29569
G1 X169.994 Y166.136 E58.34958
G1 X169.875 Y166.8 E58.40343
G1 X169.678 Y167.446 E58.45734
G1 X169.406 Y168.063 E58.51117
G1 X169.063 Y168.645 E58.56509
G1 X168.653 Y169.181 E58.61896
G1 X168.183 Y169.666 E58.67287
G1 X167.659 Y170.091 E58.72673
G1 X167.089 Y170.452 E58.78059
G1 X166.48 Y170.743 E58.83446
G1 X165.84 Y170.959 E58.88838
G1 X165.18 Y171.099 E58.94224
G1 X164.334 Y171.162 E59.00996
G1 X135.51 Y171.162 E61.31081
G1 X134.836 Y171.122 E61.36471
G1 X134.172 Y171.003 E61.41856
G1 X133.526 Y170.806 E61.47247
G1 X132.909 Y170.534 E61.52629
G1 X132.327 Y170.191 E61.58022
G1 X131.791 Y169.781 E61.63409
G1 X131.306 Y169.311 E61.688
G1 X130.881 Y168.787 E61.74185
G1 X130.52 Y168.217 E61.79571
G1 X130.229 Y167.608 E61.84959
G1 X130.013 Y166.968 E61.90351
G1 X129.873 Y166.308 E61.95736
G1 X129.81 Y165.462 E62.02508
G1 X129.81 Y134.702 E64.48048
G1 X129.85 Y134.028 E64.53438
G1 X129.969 Y133.364 E64.58822
G1 X130.166 Y132.718 E64.64213
G1 X130.438 Y132.101 E64.69596
G1 X130.781 Y131.519 E64.74989
G1 X131.191 Y130.983 E64.80375
G1 X131.661 Y130.498 E64.85766
G0 F7500 X131.784 Y131.22
G1 F1500 X132.248 Y130.781 E64.90865
G1 X132.764 Y130.405 E64.95962
G1 X133.322 Y130.095 E65.01057
G1 X133.915 Y129.858 E65.06155
G1 X134.532 Y129.697 E65.11245
G1 X135.165 Y129.614 E65.16341
G1 X135.51 Y129.602 E65.19097
G1 X164.334 Y129.602 E67.49182
G1 X164.971 Y129.642 E67.54277
G1 X165.598 Y129.761 E67.59371
G1 X166.206 Y129.958 E67.64473
G1 X166.784 Y130.229 E67.69569
G1 X167.323 Y130.57 E67.7466
G1 X167.816 Y130.976 E67.79758
G1 X168.255 Y131.44 E67.84857
G1 X168.631 Y131.956 E67.89954
G1 X168.941 Y132.514 E67.95049
G1 X169.178 Y133.107 E68.00147
G1 X169.339 Y133.724 E68.05237
G1 X169.422 Y134.357 E68.10333
G1 X169.434 Y134.702 E68.13088
G1 X169.434 Y165.462 E70.58628
G1 X169.394 Y166.099 E70.63723
G1 X169.275 Y166.726 E70.68817
G1 X169.078 Y167.334 E70.73919
G1 X168.807 Y167.912 E70.79015
G1 X168.466 Y168.451 E70.84106
G1 X168.06 Y168.944 E70.89204
G1 X167.596 Y169.383 E70.94303
G1 X167.08 Y169.759 E70.99399
G1 X166.522 Y170.069 E71.04495
G1 X165.929 Y170.306 E71.09592
G1 X165.312 Y170.467 E71.14683
G1 X164.679 Y170.55 E71.19779
G1 X164.334 Y170.562 E71.22534
G1 X135.51 Y170.562 E73.5262
G1 X134.873 Y170.522 E73.57715
G1 X134.246 Y170.403 E73.62809
G1 X133.638 Y170.206 E73.67911
G1 X133.06 Y169.935 E73.73007
G1 X132.521 Y169.594 E73.78098
G1 X132.028 Y169.188 E73.83196
G1 X131.589 Y168.724 E73.88295
G1 X131.213 Y168.208 E73.93391
G1 X130.903 Y167.65 E73.98487
G1 X130.666 Y167.057 E74.03584
G1 X130.505 Y166.44 E74.08674
G1 X130.422 Y165.807 E74.13771
G1 X130.41 Y165.462 E74.16526
G1 X130.41 Y134.702 E76.62066
G1 X130.45 Y134.065 E76.67161
G1 X130.569 Y133.438 E76.72255
G1 X130.766 Y132.83 E76.77357
G1 X131.037 Y132.252 E76.82452
G1 X131.378 Y131.713 E76.87544
G1 X131.784 Y131.22 E76.92642
G0 F7500 X132.375 Y131.473
G1 F1500 X132.832 Y131.085 E76.97427
G1 X133.337 Y130.761 E77.02217
G1 X133.88 Y130.507 E77.07002
G1 X134.453 Y130.328 E77.11794
G1 X135.043 Y130.226 E77.16573
G1 X135.51 Y130.202 E77.20306
G1 X164.334 Y130.202 E79.50392
G1 X164.932 Y130.242 E79.55176
G1 X165.52 Y130.361 E79.59965
G1 X166.087 Y130.557 E79.64753
G1 X166.622 Y130.827 E79.69537
G1 X167.117 Y131.166 E79.74326
G1 X167.563 Y131.567 E79.79114
G1 X167.951 Y132.024 E79.83899
G1 X168.275 Y132.529 E79.88689
G1 X168.529 Y133.072 E79.93474
G1 X168.708 Y133.645 E79.98266
G1 X168.81 Y134.235 E80.03045
G1 X168.834 Y134.702 E80.06778
G1 X168.834 Y165.462 E82.52318
G1 X168.794 Y166.06 E82.57102
G1 X168.675 Y166.648 E82.61891
G1 X168.479 Y167.215 E82.66679
G1 X168.209 Y167.75 E82.71463
G1 X167.87 Y168.245 E82.76252
G1 X167.469 Y168.691 E82.8104
G1 X167.012 Y169.079 E82.85825
G1 X166.507 Y169.403 E82.90615
G1 X165.964 Y169.657 E82.954
G1 X165.391 Y169.836 E83.00192
G1 X164.801 Y169.938 E83.04971
G1 X164.334 Y169.962 E83.08704
G1 X135.51 Y169.962 E85.3879
G1 X134.912 Y169.922 E85.43574
G1 X134.324 Y169.803 E85.48363
G1 X133.757 Y169.607 E85.53151
G1 X133.222 Y169.337 E85.57935
G1 X132.727 Y168.998 E85.62724
G1 X132.281 Y168.597 E85.67512
G1 X131.893 Y168.14 E85.72297
G1 X131.569 Y167.635 E85.77087
G1 X131.315 Y167.092 E85.81872
G1 X131.136 Y166.519 E85.86664
G1 X131.034 Y165.929 E85.91443
G1 X131.01 Y165.462 E85.95176
G1 X131.01 Y134.702 E88.40716
G1 X131.05 Y134.104 E88.455
G1 X131.169 Y133.516 E88.50289
G1 X131.365 Y132.949 E88.55077
G1 X131.635 Y132.414 E88.59861
G1 X131.974 Y131.919 E88.6465
G1 X132.375 Y131.473 E88.69438
G0 F7500 X132.964 Y131.748
G1 F1500 X133.412 Y131.414 E88.73898
G1 X133.903 Y131.149 E88.78352
G1 X134.427 Y130.956 E88.8281
G1 X134.973 Y130.839 E88.87267
G1 X135.51 Y130.802 E88.91564
G1 X164.334 Y130.802 E91.21649
G1 X164.891 Y130.842 E91.26107
G1 X165.436 Y130.961 E91.3056
G1 X165.959 Y131.157 E91.35018
G1 X166.448 Y131.425 E91.3947
G1 X166.895 Y131.76 E91.43929
G1 X167.288 Y132.156 E91.48382
G1 X167.622 Y132.604 E91.52843
G1 X167.887 Y133.095 E91.57296
G1 X168.08 Y133.619 E91.61754
G1 X168.197 Y134.165 E91.66211
G1 X168.234 Y134.702 E91.70508
G1 X168.234 Y165.462 E94.16048
G1 X168.194 Y166.019 E94.20505
G1 X168.075 Y166.564 E94.24958
G1 X167.879 Y167.087 E94.29417
G1 X167.611 Y167.576 E94.33868
G1 X167.276 Y168.023 E94.38327
G1 X166.88 Y168.416 E94.4278
G1 X166.432 Y168.75 E94.47241
G1 X165.941 Y169.015 E94.51695
G1 X165.417 Y169.208 E94.56152
G1 X164.871 Y169.325 E94.60609
G1 X164.334 Y169.362 E94.64906
G1 X135.51 Y169.362 E96.94992
G1 X134.953 Y169.322 E96.99449
G1 X134.408 Y169.203 E97.03902
G1 X133.885 Y169.007 E97.08361
G1 X133.396 Y168.739 E97.12812
G1 X132.949 Y168.404 E97.17271
G1 X132.556 Y168.008 E97.21724
G1 X132.222 Y167.56 E97.26185
G1 X131.957 Y167.069 E97.30639
G1 X131.764 Y166.545 E97.35096
G1 X131.647 Y165.999 E97.39554
G1 X131.61 Y165.462 E97.4385
G1 X131.61 Y134.702 E99.8939
G1 X131.65 Y134.145 E99.93848
G1 X131.769 Y133.6 E99.98301
G1 X131.965 Y133.077 E100.02759
G1 X132.233 Y132.588 E100.0721
G1 X132.568 Y132.141 E100.11669
G1 X132.964 Y131.748 E100.16123
G0 F7500 X133.161 Y132.384
G1 F1500 X133.549 Y132.048 E100.2022
G1 X133.984 Y131.776 E100.24315
G1 X134.457 Y131.575 E100.28417
G1 X134.954 Y131.449 E100.3251
G1 X135.51 Y131.402 E100.36964
G1 X164.334 Y131.402 E102.6705
G1 X164.846 Y131.442 E102.71149
G1 X165.345 Y131.561 E102.75244
G1 X165.82 Y131.756 E102.79343
G1 X166.259 Y132.022 E102.8344
G1 X166.652 Y132.353 E102.87542
G1 X166.988 Y132.741 E102.91639
G1 X167.26 Y133.176 E102.95734
G1 X167.461 Y133.649 E102.99837
G1 X167.587 Y134.146 E103.0393
G1 X167.634 Y134.702 E103.08384
G1 X167.634 Y165.462 E105.53923
G1 X167.594 Y165.974 E105.58023
G1 X167.475 Y166.473 E105.62118
G1 X167.28 Y166.948 E105.66216
G1 X167.014 Y167.387 E105.70314
G1 X166.683 Y167.78 E105.74415
G1 X166.295 Y168.116 E105.78512
G1 X165.86 Y168.388 E105.82608
G1 X165.387 Y168.589 E105.8671
G1 X164.89 Y168.715 E105.90803
G1 X164.334 Y168.762 E105.95257
G1 X135.51 Y168.762 E108.25343
G1 X134.998 Y168.722 E108.29442
G1 X134.499 Y168.603 E108.33537
G1 X134.024 Y168.408 E108.37636
G1 X133.585 Y168.142 E108.41733
G1 X133.192 Y167.811 E108.45835
