;FLAVOR:Marlin
;TIME:5544
;Filament used: 9.44872m
;Layer height: 0.32
;MINX:70.53
;MINY:69.696
;MINZ:0.32
;MAXX:229.47
;MAXY:230.303
;MAXZ:20.16
;Generated with Cura_SteamEngine master
M140 S60
M105
M190 S60
M104 S240
M105
M109 S240
M82 ;absolute extrusion mode
G28 ;Home
G1 Z15.0 F2000 ;Move the platform
G92 E0
G92 E0
;LAYER_COUNT:63
;LAYER:0
M107 P2
G0 F7500 X72.967 Y72.357 Z0.32
;TYPE:SKIRT
G1 F1500 X73.574 Y71.785 E0.06658
G1 X74.233 Y71.274 E0.13314
G1 X74.938 Y70.828 E0.19974
G1 X75.683 Y70.452 E0.26635
G1 X76.46 Y70.149 E0.33292
G1 X77.262 Y69.921 E0.39948
G1 X78.083 Y69.772 E0.46608
G1 X79.23 Y69.696 E0.55784
G1 X109.23 Y69.696 E2.95257
G1 X110.063 Y69.736 E3.01914
G1 X110.888 Y69.856 E3.08569
G1 X111.699 Y70.054 E3.15233
G1 X112.486 Y70.328 E3.21885
G1 X113.244 Y70.677 E3.28546
G1 X113.964 Y71.097 E3.352
G1 X114.642 Y71.584 E3.41864
G1 X115.269 Y72.133 E3.48516
G1 X115.841 Y72.74 E3.55174
G1 X116.352 Y73.399 E3.6183
G1 X116.798 Y74.104 E3.6849
G1 X117.174 Y74.849 E3.75151
G1 X117.477 Y75.626 E3.81808
G1 X117.705 Y76.428 E3.88464
G1 X117.854 Y77.249 E3.95124
G1 X117.93 Y78.396 E4.043
G1 X117.93 Y94.924 E5.36234
G1 X182.07 Y94.924 E10.48227
G1 X182.07 Y78.396 E11.80161
G1 X182.11 Y77.563 E11.86818
G1 X182.23 Y76.738 E11.93473
G1 X182.428 Y75.927 E12.00137
G1 X182.702 Y75.14 E12.06789
G1 X183.051 Y74.382 E12.1345
G1 X183.471 Y73.662 E12.20104
G1 X183.958 Y72.984 E12.26767
G1 X184.507 Y72.357 E12.3342
G1 X185.114 Y71.785 E12.40077
G1 X185.773 Y71.274 E12.46734
G1 X186.478 Y70.828 E12.53393
G1 X187.223 Y70.452 E12.60054
G1 X188 Y70.149 E12.66712
G1 X188.802 Y69.921 E12.73367
G1 X189.623 Y69.772 E12.80028
G1 X190.77 Y69.696 E12.89204
G1 X220.77 Y69.696 E15.28677
G1 X221.603 Y69.736 E15.35334
G1 X222.428 Y69.856 E15.41989
G1 X223.239 Y70.054 E15.48653
G1 X224.026 Y70.328 E15.55305
G1 X224.784 Y70.677 E15.61966
G1 X225.504 Y71.097 E15.6862
G1 X226.182 Y71.584 E15.75283
G1 X226.809 Y72.133 E15.81935
G1 X227.381 Y72.74 E15.88593
G1 X227.892 Y73.399 E15.9525
G1 X228.338 Y74.104 E16.01909
G1 X228.714 Y74.849 E16.0857
G1 X229.017 Y75.626 E16.15228
G1 X229.245 Y76.428 E16.21883
G1 X229.394 Y77.249 E16.28544
G1 X229.47 Y78.396 E16.3772
G1 X229.47 Y108.396 E18.77193
G1 X229.43 Y109.229 E18.8385
G1 X229.31 Y110.054 E18.90505
G1 X229.112 Y110.865 E18.97169
G1 X228.838 Y111.652 E19.03821
G1 X228.489 Y112.41 E19.10482
G1 X228.069 Y113.13 E19.17135
G1 X227.582 Y113.808 E19.23799
G1 X227.033 Y114.435 E19.30451
G1 X226.426 Y115.007 E19.37109
G1 X225.767 Y115.518 E19.43766
G1 X225.062 Y115.964 E19.50425
G1 X224.317 Y116.34 E19.57086
G1 X223.54 Y116.643 E19.63744
G1 X222.738 Y116.871 E19.70399
G1 X221.917 Y117.02 E19.7706
G1 X220.77 Y117.096 E19.86236
G1 X203.003 Y117.096 E21.2806
G1 X203.003 Y139.282 E23.05158
G1 X202.963 Y140.115 E23.11815
G1 X202.843 Y140.94 E23.1847
G1 X202.645 Y141.751 E23.25134
G1 X202.449 Y142.314 E23.29892
G1 X202.448 Y157.688 E24.52614
G1 X202.446 Y157.865 E24.54027
G1 X202.381 Y161.063 E24.7956
G1 X202.364 Y161.455 E24.82692
G1 X202.354 Y161.602 E24.83868
G1 X202.306 Y162.61 E24.91924
G1 X202.283 Y162.948 E24.94628
G1 X201.88 Y167.574 E25.31695
G1 X201.854 Y167.828 E25.33733
G1 X201.806 Y168.22 E25.36885
G1 X201.465 Y170.66 E25.56552
G1 X201.391 Y171.105 E25.60153
G1 X200.752 Y174.416 E25.8707
G1 X200.648 Y174.886 E25.90913
G1 X200.188 Y176.718 E26.05991
G1 X200.044 Y177.224 E26.1019
G1 X199.376 Y179.334 E26.27857
G1 X214.269 Y194.369 E27.96785
G1 X214.827 Y194.989 E28.03444
G1 X215.323 Y195.66 E28.10104
G1 X215.752 Y196.375 E28.1676
G1 X216.111 Y197.128 E28.23419
G1 X216.397 Y197.912 E28.30081
G1 X216.605 Y198.719 E28.36733
G1 X216.736 Y199.543 E28.43393
G1 X216.787 Y200.375 E28.50047
G1 X216.758 Y201.209 E28.56709
G1 X216.65 Y202.036 E28.63366
G1 X216.463 Y202.848 E28.70018
G1 X216.199 Y203.64 E28.76682
G1 X215.86 Y204.402 E28.83339
G1 X215.45 Y205.128 E28.89995
G1 X214.972 Y205.812 E28.96656
G1 X214.21 Y206.673 E29.05834
G1 X192.896 Y227.785 E31.45307
G1 X192.276 Y228.343 E31.51965
G1 X191.606 Y228.839 E31.5862
G1 X190.891 Y229.268 E31.65276
G1 X190.138 Y229.627 E31.71935
G1 X189.354 Y229.913 E31.78596
G1 X188.547 Y230.121 E31.85249
G1 X187.723 Y230.252 E31.91909
G1 X186.891 Y230.303 E31.98563
G1 X186.057 Y230.274 E32.05224
G1 X185.23 Y230.166 E32.11881
G1 X184.418 Y229.979 E32.18533
G1 X183.626 Y229.715 E32.25197
G1 X182.864 Y229.376 E32.31854
G1 X182.138 Y228.966 E32.3851
G1 X181.454 Y228.488 E32.45171
G1 X180.593 Y227.726 E32.54349
G1 X159.481 Y206.412 E34.93822
G1 X158.923 Y205.792 E35.00481
G1 X158.427 Y205.122 E35.07135
G1 X157.998 Y204.407 E35.13791
G1 X157.639 Y203.654 E35.2045
G1 X157.353 Y202.87 E35.27111
G1 X157.145 Y202.063 E35.33764
G1 X157.014 Y201.239 E35.40424
G1 X156.963 Y200.407 E35.47078
G1 X156.992 Y199.573 E35.53739
G1 X157.1 Y198.746 E35.60397
G1 X157.287 Y197.934 E35.67048
G1 X157.551 Y197.142 E35.73712
G1 X157.89 Y196.38 E35.8037
G1 X158.3 Y195.654 E35.87025
G1 X158.778 Y194.97 E35.93686
G1 X159.54 Y194.109 E36.02864
G1 X172.739 Y181.036 E37.51156
G1 X171.931 Y178.817 E37.70007
G1 X171.729 Y178.187 E37.75288
G1 X171.635 Y177.849 E37.78089
G1 X170.783 Y174.575 E38.05094
G1 X170.684 Y174.151 E38.08569
G1 X170.656 Y174.016 E38.0967
G1 X170.604 Y173.744 E38.1188
G1 X169.872 Y169.549 E38.45873
G1 X169.824 Y169.248 E38.48306
G1 X169.77 Y168.82 E38.51749
G1 X169.303 Y164.249 E38.88427
G1 X169.259 Y163.721 E38.92656
G1 X169.237 Y163.329 E38.9579
G1 X169.054 Y157.891 E39.39223
G1 X169.049 Y157.598 E39.41562
G1 X169.049 Y147.982 E40.18321
G1 X130.406 Y147.982 E43.26787
G1 X130.405 Y157.688 E44.04264
G1 X130.403 Y157.865 E44.05677
G1 X130.338 Y161.063 E44.3121
G1 X130.321 Y161.455 E44.34342
G1 X130.311 Y161.602 E44.35518
G1 X130.263 Y162.61 E44.43574
G1 X130.24 Y162.948 E44.46278
G1 X129.837 Y167.574 E44.83345
G1 X129.811 Y167.828 E44.85383
G1 X129.763 Y168.22 E44.88535
G1 X129.422 Y170.66 E45.08202
G1 X129.348 Y171.105 E45.11803
G1 X128.709 Y174.416 E45.3872
G1 X128.605 Y174.886 E45.42563
G1 X128.145 Y176.718 E45.5764
G1 X128.001 Y177.224 E45.6184
G1 X127.247 Y179.606 E45.81784
G1 X141.871 Y194.369 E47.47659
G1 X142.429 Y194.989 E47.54317
G1 X142.925 Y195.66 E47.60978
G1 X143.354 Y196.375 E47.67634
G1 X143.713 Y197.128 E47.74293
G1 X143.998 Y197.911 E47.80944
G1 X144.207 Y198.719 E47.87606
G1 X144.338 Y199.543 E47.94266
G1 X144.389 Y200.375 E48.0092
G1 X144.36 Y201.209 E48.07581
G1 X144.252 Y202.035 E48.14231
G1 X144.065 Y202.848 E48.2089
G1 X143.801 Y203.639 E48.27547
G1 X143.462 Y204.402 E48.34211
G1 X143.052 Y205.128 E48.40867
G1 X142.574 Y205.811 E48.47522
G1 X141.812 Y206.673 E48.56705
G1 X120.498 Y227.785 E50.96179
G1 X119.878 Y228.343 E51.02837
G1 X119.208 Y228.839 E51.09491
G1 X118.493 Y229.268 E51.16147
G1 X117.74 Y229.627 E51.22806
G1 X116.956 Y229.913 E51.29468
G1 X116.149 Y230.121 E51.3612
G1 X115.325 Y230.252 E51.42781
G1 X114.493 Y230.303 E51.49434
G1 X113.659 Y230.274 E51.56096
G1 X112.832 Y230.166 E51.62753
G1 X112.02 Y229.979 E51.69405
G1 X111.228 Y229.715 E51.76069
G1 X110.466 Y229.376 E51.82726
G1 X109.74 Y228.966 E51.89382
G1 X109.056 Y228.488 E51.96043
G1 X108.195 Y227.726 E52.05221
G1 X87.083 Y206.412 E54.44694
G1 X86.525 Y205.792 E54.51352
G1 X86.029 Y205.122 E54.58007
G1 X85.6 Y204.407 E54.64663
G1 X85.241 Y203.654 E54.71322
G1 X84.955 Y202.87 E54.77983
G1 X84.747 Y202.063 E54.84636
G1 X84.616 Y201.239 E54.91296
G1 X84.565 Y200.407 E54.9795
G1 X84.594 Y199.573 E55.04611
G1 X84.702 Y198.746 E55.11268
G1 X84.889 Y197.934 E55.1792
G1 X85.153 Y197.142 E55.24584
G1 X85.492 Y196.38 E55.31241
G1 X85.902 Y195.654 E55.37897
G1 X86.38 Y194.97 E55.44558
G1 X87.142 Y194.109 E55.53736
G1 X100.602 Y180.778 E57.04958
G1 X99.888 Y178.817 E57.21616
G1 X99.686 Y178.187 E57.26898
G1 X99.592 Y177.849 E57.29698
G1 X98.74 Y174.575 E57.56703
G1 X98.641 Y174.151 E57.60179
G1 X98.613 Y174.016 E57.61279
G1 X98.561 Y173.744 E57.6349
G1 X97.829 Y169.549 E57.97482
G1 X97.781 Y169.248 E57.99915
G1 X97.727 Y168.82 E58.03359
G1 X97.26 Y164.249 E58.40036
G1 X97.216 Y163.721 E58.44266
G1 X97.194 Y163.329 E58.474
G1 X97.011 Y157.891 E58.90833
G1 X97.006 Y157.598 E58.93172
G1 X97.006 Y141.876 E60.18672
G1 X96.828 Y141.25 E60.23867
G1 X96.679 Y140.429 E60.30527
G1 X96.603 Y139.282 E60.39703
G1 X96.603 Y117.096 E62.16801
G1 X79.23 Y117.096 E63.5548
G1 X78.397 Y117.056 E63.62137
G1 X77.572 Y116.936 E63.68792
G1 X76.761 Y116.738 E63.75456
G1 X75.974 Y116.464 E63.82108
G1 X75.216 Y116.115 E63.88769
G1 X74.496 Y115.695 E63.95423
G1 X73.818 Y115.208 E64.02087
G1 X73.191 Y114.659 E64.08739
G1 X72.619 Y114.052 E64.15397
G1 X72.108 Y113.393 E64.22053
G1 X71.662 Y112.688 E64.28713
G1 X71.286 Y111.943 E64.35374
G1 X70.983 Y111.166 E64.42031
G1 X70.755 Y110.364 E64.48687
G1 X70.606 Y109.543 E64.55347
G1 X70.53 Y108.396 E64.64523
G1 X70.53 Y78.396 E67.03996
G1 X70.57 Y77.563 E67.10653
G1 X70.69 Y76.738 E67.17308
G1 X70.888 Y75.927 E67.23972
G1 X71.162 Y75.14 E67.30624
G1 X71.511 Y74.382 E67.37285
G1 X71.931 Y73.662 E67.43939
G1 X72.418 Y72.984 E67.50603
G1 X72.967 Y72.357 E67.57255
G0 F7500 X73.558 Y72.613
G1 F1500 X74.16 Y72.079 E67.63679
G1 X74.812 Y71.607 E67.70104
G1 X75.508 Y71.202 E67.76532
G1 X76.24 Y70.868 E67.82954
G1 X77.002 Y70.609 E67.89379
G1 X77.785 Y70.426 E67.95797
G1 X78.583 Y70.322 E68.02221
G1 X79.23 Y70.296 E68.0739
G1 X109.23 Y70.296 E70.46863
G1 X110.034 Y70.336 E70.53289
G1 X110.83 Y70.456 E70.59715
G1 X111.61 Y70.653 E70.66136
G1 X112.366 Y70.928 E70.72558
G1 X113.092 Y71.276 E70.78985
G1 X113.779 Y71.694 E70.85404
G1 X114.422 Y72.179 E70.91833
G1 X115.013 Y72.724 E70.9825
G1 X115.547 Y73.326 E71.04674
G1 X116.019 Y73.978 E71.11099
G1 X116.424 Y74.674 E71.17527
G1 X116.758 Y75.406 E71.2395
G1 X117.017 Y76.168 E71.30374
G1 X117.2 Y76.951 E71.36793
G1 X117.304 Y77.749 E71.43216
G1 X117.33 Y78.396 E71.48385
G1 X117.33 Y95.524 E72.85108
G1 X182.67 Y95.524 E78.06681
G1 X182.67 Y78.396 E79.43404
G1 X182.71 Y77.592 E79.49829
G1 X182.83 Y76.796 E79.56255
G1 X183.027 Y76.016 E79.62677
G1 X183.302 Y75.26 E79.69099
G1 X183.65 Y74.534 E79.75525
G1 X184.068 Y73.847 E79.81945
G1 X184.553 Y73.204 E79.88374
G1 X185.098 Y72.613 E79.94791
G1 X185.7 Y72.079 E80.01214
G1 X186.352 Y71.607 E80.0764
G1 X187.048 Y71.202 E80.14068
G1 X187.78 Y70.868 E80.2049
G1 X188.542 Y70.609 E80.26915
G1 X189.325 Y70.426 E80.33333
G1 X190.123 Y70.322 E80.39757
G1 X190.77 Y70.296 E80.44926
G1 X220.77 Y70.296 E82.84399
G1 X221.574 Y70.336 E82.90825
G1 X222.37 Y70.456 E82.97251
G1 X223.15 Y70.653 E83.03672
G1 X223.906 Y70.928 E83.10094
G1 X224.632 Y71.276 E83.16521
G1 X225.319 Y71.694 E83.2294
G1 X225.962 Y72.179 E83.29369
G1 X226.553 Y72.724 E83.35786
G1 X227.087 Y73.326 E83.4221
G1 X227.559 Y73.978 E83.48635
G1 X227.964 Y74.674 E83.55063
G1 X228.298 Y75.406 E83.61485
G1 X228.557 Y76.168 E83.6791
G1 X228.74 Y76.951 E83.74329
G1 X228.844 Y77.749 E83.80752
G1 X228.87 Y78.396 E83.85921
G1 X228.87 Y108.396 E86.25394
G1 X228.83 Y109.2 E86.3182
G1 X228.71 Y109.996 E86.38246
G1 X228.513 Y110.776 E86.44668
G1 X228.238 Y111.532 E86.51089
G1 X227.89 Y112.258 E86.57516
G1 X227.472 Y112.945 E86.63935
G1 X226.987 Y113.588 E86.70364
G1 X226.442 Y114.179 E86.76781
G1 X225.84 Y114.713 E86.83205
G1 X225.188 Y115.185 E86.8963
G1 X224.492 Y115.59 E86.96058
G1 X223.76 Y115.924 E87.02481
G1 X222.998 Y116.183 E87.08905
G1 X222.215 Y116.366 E87.15324
G1 X221.417 Y116.47 E87.21748
G1 X220.77 Y116.496 E87.26916
G1 X202.403 Y116.496 E88.7353
G1 X202.403 Y139.282 E90.55418
G1 X202.363 Y140.086 E90.61843
G1 X202.243 Y140.882 E90.68269
G1 X202.046 Y141.662 E90.74691
G1 X201.849 Y142.204 E90.79294
G1 X201.848 Y157.688 E92.02894
G1 X201.781 Y161.051 E92.29745
G1 X201.766 Y161.416 E92.32661
G1 X201.754 Y161.593 E92.34077
G1 X201.707 Y162.581 E92.41972
G1 X201.685 Y162.896 E92.44493
G1 X201.282 Y167.522 E92.8156
G1 X201.235 Y167.955 E92.85036
G1 X201.212 Y168.137 E92.86501
G1 X200.871 Y170.577 E93.06167
G1 X200.802 Y170.991 E93.09517
G1 X200.163 Y174.302 E93.36435
G1 X200.066 Y174.74 E93.40016
G1 X199.606 Y176.572 E93.55094
G1 X199.472 Y177.043 E93.59003
G1 X198.695 Y179.499 E93.79565
G1 X213.843 Y194.792 E95.51389
G1 X214.38 Y195.391 E95.57811
G1 X214.855 Y196.04 E95.64231
G1 X215.263 Y196.734 E95.70657
G1 X215.601 Y197.464 E95.77078
G1 X215.864 Y198.225 E95.83506
G1 X216.051 Y199.008 E95.89932
G1 X216.159 Y199.805 E95.96352
G1 X216.187 Y200.609 E96.02774
G1 X216.136 Y201.412 E96.09196
G1 X216.004 Y202.206 E96.15621
G1 X215.795 Y202.983 E96.22044
G1 X215.51 Y203.736 E96.28471
G1 X215.152 Y204.456 E96.3489
G1 X214.723 Y205.138 E96.41321
G1 X214.23 Y205.773 E96.47738
G1 X213.788 Y206.247 E96.52912
G1 X192.474 Y227.359 E98.92385
G1 X191.875 Y227.896 E98.98807
G1 X191.226 Y228.371 E99.05227
G1 X190.532 Y228.779 E99.11653
G1 X189.802 Y229.117 E99.18075
G1 X189.041 Y229.38 E99.24502
G1 X188.258 Y229.567 E99.30928
G1 X187.461 Y229.675 E99.37348
G1 X186.657 Y229.703 E99.4377
G1 X185.854 Y229.652 E99.50192
G1 X185.06 Y229.52 E99.56617
G1 X184.282 Y229.311 E99.63048
G1 X183.53 Y229.026 E99.69467
G1 X182.81 Y228.668 E99.75886
G1 X182.128 Y228.239 E99.82318
G1 X181.493 Y227.746 E99.88735
G1 X181.019 Y227.304 E99.93908
G1 X159.907 Y205.99 E102.33382
G1 X159.37 Y205.391 E102.39803
G1 X158.895 Y204.742 E102.46223
G1 X158.487 Y204.048 E102.52649
G1 X158.149 Y203.318 E102.59071
G1 X157.886 Y202.557 E102.65498
G1 X157.699 Y201.774 E102.71924
G1 X157.591 Y200.977 E102.78344
G1 X157.563 Y200.173 E102.84766
G1 X157.614 Y199.37 E102.91189
G1 X157.746 Y198.576 E102.97614
G1 X157.955 Y197.798 E103.04044
G1 X158.24 Y197.046 E103.10464
G1 X158.598 Y196.326 E103.16882
G1 X159.027 Y195.644 E103.23314
G1 X159.52 Y195.009 E103.29731
G1 X159.962 Y194.535 E103.34904
G1 X173.438 Y181.188 E104.86307
G1 X173.408 Y181.119 E104.86907
G1 X172.495 Y178.612 E105.08205
G1 X172.306 Y178.026 E105.1312
G1 X172.216 Y177.698 E105.15835
G1 X171.364 Y174.424 E105.4284
G1 X171.272 Y174.029 E105.46077
G1 X171.244 Y173.894 E105.47178
G1 X171.196 Y173.641 E105.49234
G1 X170.464 Y169.446 E105.83226
G1 X170.418 Y169.157 E105.85562
G1 X170.367 Y168.759 E105.88765
G1 X169.9 Y164.188 E106.25442
G1 X169.883 Y164.003 E106.26925
G1 X169.857 Y163.674 E106.2956
G1 X169.837 Y163.308 E106.32486
G1 X169.654 Y157.87 E106.75919
G1 X169.649 Y157.598 E106.7809
G1 X169.649 Y147.382 E107.59639
G1 X129.806 Y147.382 E110.77683
G1 X129.805 Y157.688 E111.5995
G1 X129.738 Y161.051 E111.868
G1 X129.723 Y161.416 E111.89716
G1 X129.711 Y161.593 E111.91132
G1 X129.664 Y162.581 E111.99028
G1 X129.642 Y162.896 E112.01549
G1 X129.239 Y167.522 E112.38615
G1 X129.192 Y167.955 E112.42092
G1 X129.169 Y168.137 E112.43556
G1 X128.828 Y170.577 E112.63223
G1 X128.759 Y170.991 E112.66573
G1 X128.12 Y174.302 E112.9349
G1 X128.023 Y174.74 E112.97071
G1 X127.563 Y176.572 E113.12149
G1 X127.429 Y177.043 E113.16058
G1 X126.565 Y179.771 E113.389
G1 X141.445 Y194.792 E115.07676
G1 X141.982 Y195.391 E115.14098
G1 X142.457 Y196.04 E115.20518
G1 X142.865 Y196.734 E115.26944
G1 X143.203 Y197.464 E115.33366
G1 X143.466 Y198.225 E115.39793
G1 X143.653 Y199.007 E115.46211
G1 X143.761 Y199.805 E115.52639
G1 X143.789 Y200.609 E115.59061
G1 X143.738 Y201.412 E115.65484
G1 X143.607 Y202.206 E115.71907
G1 X143.397 Y202.983 E115.78332
G1 X143.112 Y203.736 E115.84759
G1 X142.754 Y204.456 E115.91178
G1 X142.325 Y205.138 E115.97609
G1 X141.832 Y205.773 E116.04026
G1 X141.39 Y206.247 E116.092
G1 X120.076 Y227.359 E118.48673
G1 X119.477 Y227.896 E118.55095
G1 X118.828 Y228.371 E118.61515
G1 X118.134 Y228.779 E118.67941
G1 X117.404 Y229.117 E118.74363
G1 X116.643 Y229.38 E118.8079
G1 X115.86 Y229.567 E118.87216
G1 X115.063 Y229.675 E118.93636
G1 X114.259 Y229.703 E119.00058
G1 X113.456 Y229.652 E119.0648
G1 X112.662 Y229.52 E119.12905
G1 X111.884 Y229.311 E119.19336
G1 X111.132 Y229.026 E119.25755
G1 X110.412 Y228.668 E119.32174
G1 X109.73 Y228.239 E119.38606
G1 X109.095 Y227.746 E119.45023
G1 X108.621 Y227.304 E119.50196
G1 X87.509 Y205.99 E121.8967
G1 X86.972 Y205.391 E121.96091
G1 X86.497 Y204.742 E122.02511
G1 X86.089 Y204.048 E122.08937
G1 X85.751 Y203.318 E122.15359
G1 X85.488 Y202.557 E122.21786
G1 X85.301 Y201.774 E122.28212
