;FLAVOR:Marlin
;TIME:21155
;Filament used: 51.6629m
;Layer height: 0.32
;MINX:20.429
;MINY:19.604
;MINZ:0.32
;MAXX:279.571
;MAXY:280.396
;MAXZ:32
;Generated with Cura_SteamEngine master
M140 S60
M105
M190 S60
M104 S240
M105
M109 S240
M82 ;absolute extrusion mode
G28 ;Home
G1 Z15.0 F2000 ;Move the platform
G92 E0
G92 E0
G1 F900 E-3
;LAYER_COUNT:100
;LAYER:0
M107 P2
G0 F7500 X93.876 Y26.963 Z0.32
;TYPE:SKIRT
G1 F900 E0
G1 F1500 X94.15 Y26.176 E0.06652
G1 X94.499 Y25.418 E0.13313
G1 X94.919 Y24.698 E0.19967
G1 X95.406 Y24.02 E0.26631
G1 X95.955 Y23.393 E0.33283
G1 X96.562 Y22.821 E0.39941
G1 X97.221 Y22.31 E0.46597
G1 X97.926 Y21.864 E0.53256
G1 X98.671 Y21.488 E0.59918
G1 X99.448 Y21.185 E0.66575
G1 X100.25 Y20.957 E0.73231
G1 X101.071 Y20.808 E0.79891
G1 X102.218 Y20.732 E0.89067
G1 X132.218 Y20.732 E3.2854
G1 X133.051 Y20.772 E3.35197
G1 X133.876 Y20.892 E3.41852
G1 X134.687 Y21.09 E3.48516
G1 X135.474 Y21.364 E3.55168
G1 X136.232 Y21.713 E3.61829
G1 X136.952 Y22.133 E3.68483
G1 X137.63 Y22.62 E3.75147
G1 X138.257 Y23.169 E3.81799
G1 X138.829 Y23.776 E3.88457
G1 X139.34 Y24.435 E3.95113
G1 X139.786 Y25.14 E4.01772
G1 X140.162 Y25.885 E4.08434
G1 X140.465 Y26.662 E4.15091
G1 X140.693 Y27.464 E4.21747
G1 X140.842 Y28.285 E4.28407
G1 X140.918 Y29.432 E4.37583
G1 X140.918 Y47.47 E5.8157
G1 X158.531 Y47.47 E7.22165
G1 X158.531 Y28.304 E8.75156
G1 X158.571 Y27.471 E8.81813
G1 X158.691 Y26.646 E8.88468
G1 X158.889 Y25.835 E8.95132
G1 X159.163 Y25.048 E9.01784
G1 X159.512 Y24.29 E9.08445
G1 X159.932 Y23.57 E9.15099
G1 X160.419 Y22.892 E9.21763
G1 X160.968 Y22.265 E9.28415
G1 X161.575 Y21.693 E9.35073
G1 X162.234 Y21.182 E9.41729
G1 X162.939 Y20.736 E9.48388
G1 X163.684 Y20.36 E9.5505
G1 X164.461 Y20.057 E9.61707
G1 X165.263 Y19.829 E9.68363
G1 X166.084 Y19.68 E9.75023
G1 X167.231 Y19.604 E9.84199
G1 X197.231 Y19.604 E12.23672
G1 X198.064 Y19.644 E12.30329
G1 X198.889 Y19.764 E12.36984
G1 X199.7 Y19.962 E12.43648
G1 X200.487 Y20.236 E12.503
G1 X201.245 Y20.585 E12.56961
G1 X201.965 Y21.005 E12.63615
G1 X202.643 Y21.492 E12.70279
G1 X203.27 Y22.041 E12.76931
G1 X203.842 Y22.648 E12.83589
G1 X204.353 Y23.307 E12.90245
G1 X204.799 Y24.012 E12.96904
G1 X205.175 Y24.757 E13.03566
G1 X205.478 Y25.534 E13.10223
G1 X205.706 Y26.336 E13.16879
G1 X205.855 Y27.157 E13.23539
G1 X205.931 Y28.304 E13.32715
G1 X205.931 Y58.304 E15.72188
G1 X205.891 Y59.137 E15.78845
G1 X205.771 Y59.962 E15.855
G1 X205.573 Y60.773 E15.92164
G1 X205.299 Y61.56 E15.98816
G1 X204.95 Y62.318 E16.05477
G1 X204.53 Y63.038 E16.12131
G1 X204.043 Y63.716 E16.18795
G1 X203.494 Y64.343 E16.25447
G1 X202.887 Y64.915 E16.32105
G1 X202.228 Y65.426 E16.38761
G1 X201.523 Y65.872 E16.4542
G1 X200.778 Y66.248 E16.52082
G1 X200.001 Y66.551 E16.58739
G1 X199.199 Y66.779 E16.65395
G1 X198.378 Y66.928 E16.72055
G1 X197.231 Y67.004 E16.81231
G1 X180.427 Y67.004 E18.15368
G1 X180.427 Y106.289 E21.28958
G1 X191.517 Y106.289 E22.17483
G1 X192.35 Y106.329 E22.2414
G1 X193.175 Y106.449 E22.30795
G1 X193.986 Y106.647 E22.37459
G1 X194.773 Y106.921 E22.44111
G1 X195.531 Y107.27 E22.50772
G1 X196.251 Y107.69 E22.57426
G1 X196.929 Y108.177 E22.64089
G1 X197.556 Y108.726 E22.70742
G1 X198.128 Y109.333 E22.774
G1 X198.639 Y109.992 E22.84056
G1 X199.085 Y110.697 E22.90715
G1 X199.461 Y111.442 E22.97377
G1 X199.764 Y112.219 E23.04034
G1 X199.992 Y113.021 E23.1069
G1 X200.141 Y113.842 E23.1735
G1 X200.217 Y114.989 E23.26526
G1 X200.217 Y120.637 E23.71611
G1 X231.999 Y120.637 E26.25309
G1 X231.999 Y103.137 E27.65001
G1 X232.039 Y102.304 E27.71658
G1 X232.159 Y101.479 E27.78313
G1 X232.357 Y100.668 E27.84977
G1 X232.631 Y99.881 E27.91629
G1 X232.98 Y99.123 E27.9829
G1 X233.4 Y98.403 E28.04944
G1 X233.887 Y97.725 E28.11607
G1 X234.436 Y97.098 E28.1826
G1 X235.043 Y96.526 E28.24918
G1 X235.702 Y96.015 E28.31574
G1 X236.407 Y95.569 E28.38233
G1 X237.152 Y95.193 E28.44895
G1 X237.929 Y94.89 E28.51552
G1 X238.731 Y94.662 E28.58208
G1 X239.552 Y94.513 E28.64868
G1 X240.699 Y94.437 E28.74044
G1 X270.699 Y94.437 E31.13517
G1 X271.532 Y94.477 E31.20174
G1 X272.357 Y94.597 E31.26829
G1 X273.168 Y94.795 E31.33493
G1 X273.955 Y95.069 E31.40145
G1 X274.713 Y95.418 E31.46806
G1 X275.433 Y95.838 E31.5346
G1 X276.111 Y96.325 E31.60123
G1 X276.738 Y96.874 E31.66776
G1 X277.31 Y97.481 E31.73434
G1 X277.821 Y98.14 E31.8009
G1 X278.267 Y98.845 E31.86749
G1 X278.643 Y99.59 E31.93411
G1 X278.946 Y100.367 E32.00068
G1 X279.174 Y101.169 E32.06724
G1 X279.323 Y101.99 E32.13384
G1 X279.399 Y103.137 E32.2256
G1 X279.399 Y133.137 E34.62033
G1 X279.359 Y133.97 E34.6869
G1 X279.239 Y134.795 E34.75345
G1 X279.041 Y135.606 E34.82009
G1 X278.767 Y136.393 E34.88661
G1 X278.418 Y137.151 E34.95322
G1 X277.998 Y137.871 E35.01976
G1 X277.511 Y138.549 E35.08639
G1 X276.962 Y139.176 E35.15292
G1 X276.355 Y139.748 E35.2195
G1 X275.696 Y140.259 E35.28606
G1 X274.991 Y140.705 E35.35265
G1 X274.246 Y141.081 E35.41927
G1 X273.469 Y141.384 E35.48584
G1 X272.667 Y141.612 E35.5524
G1 X271.846 Y141.761 E35.619
G1 X270.699 Y141.837 E35.71076
G1 X253.594 Y141.837 E37.07616
G1 X253.594 Y159.23 E38.46454
G1 X270.871 Y159.23 E39.84367
G1 X271.704 Y159.27 E39.91024
G1 X272.529 Y159.39 E39.97678
G1 X273.34 Y159.588 E40.04342
G1 X274.127 Y159.862 E40.10994
G1 X274.885 Y160.211 E40.17656
G1 X275.605 Y160.631 E40.24309
G1 X276.283 Y161.118 E40.30973
G1 X276.91 Y161.667 E40.37625
G1 X277.482 Y162.274 E40.44283
G1 X277.993 Y162.933 E40.5094
G1 X278.439 Y163.638 E40.57599
G1 X278.815 Y164.383 E40.6426
G1 X279.118 Y165.16 E40.70917
G1 X279.346 Y165.962 E40.77573
G1 X279.495 Y166.783 E40.84234
G1 X279.571 Y167.93 E40.9341
G1 X279.571 Y197.93 E43.32883
G1 X279.531 Y198.763 E43.3954
G1 X279.411 Y199.588 E43.46194
G1 X279.213 Y200.399 E43.52858
G1 X278.939 Y201.186 E43.5951
G1 X278.59 Y201.944 E43.66172
G1 X278.17 Y202.664 E43.72825
G1 X277.683 Y203.342 E43.79489
G1 X277.134 Y203.969 E43.86141
G1 X276.527 Y204.541 E43.92799
G1 X275.868 Y205.052 E43.99456
G1 X275.163 Y205.498 E44.06115
G1 X274.418 Y205.874 E44.12776
G1 X273.641 Y206.177 E44.19433
G1 X272.839 Y206.405 E44.26089
G1 X272.018 Y206.554 E44.3275
G1 X270.871 Y206.63 E44.41926
G1 X240.871 Y206.63 E46.81399
G1 X240.038 Y206.59 E46.88056
G1 X239.213 Y206.47 E46.9471
G1 X238.402 Y206.272 E47.01374
G1 X237.615 Y205.998 E47.08026
G1 X236.857 Y205.649 E47.14688
G1 X236.137 Y205.229 E47.21341
G1 X235.459 Y204.742 E47.28005
G1 X234.832 Y204.193 E47.34657
G1 X234.26 Y203.586 E47.41315
G1 X233.749 Y202.927 E47.47972
G1 X233.303 Y202.222 E47.54631
G1 X232.927 Y201.477 E47.61292
G1 X232.624 Y200.7 E47.67949
G1 X232.396 Y199.898 E47.74605
G1 X232.247 Y199.077 E47.81266
G1 X232.171 Y197.93 E47.90442
G1 X232.171 Y181.703 E49.19972
G1 X200.217 Y181.703 E51.75043
G1 X200.217 Y187.351 E52.20128
G1 X200.177 Y188.184 E52.26785
G1 X200.057 Y189.009 E52.3344
G1 X199.859 Y189.82 E52.40104
G1 X199.585 Y190.607 E52.46756
G1 X199.236 Y191.365 E52.53417
G1 X198.816 Y192.085 E52.60071
G1 X198.329 Y192.763 E52.66734
G1 X197.78 Y193.39 E52.73387
G1 X197.173 Y193.962 E52.80044
G1 X196.514 Y194.473 E52.86701
G1 X195.809 Y194.919 E52.9336
G1 X195.064 Y195.295 E53.00022
G1 X194.287 Y195.598 E53.06679
G1 X193.485 Y195.826 E53.13334
G1 X192.664 Y195.975 E53.19995
G1 X191.517 Y196.051 E53.29171
G1 X180.427 Y196.051 E54.17696
G1 X180.427 Y232.981 E57.12487
G1 X197.573 Y232.981 E58.49354
G1 X198.406 Y233.021 E58.56011
G1 X199.231 Y233.141 E58.62666
G1 X200.042 Y233.339 E58.6933
G1 X200.829 Y233.613 E58.75982
G1 X201.587 Y233.962 E58.82643
G1 X202.307 Y234.382 E58.89297
G1 X202.985 Y234.869 E58.9596
G1 X203.612 Y235.418 E59.02613
G1 X204.184 Y236.025 E59.09271
G1 X204.695 Y236.684 E59.15927
G1 X205.141 Y237.389 E59.22586
G1 X205.517 Y238.134 E59.29248
G1 X205.82 Y238.911 E59.35905
G1 X206.048 Y239.713 E59.42561
G1 X206.197 Y240.534 E59.49221
G1 X206.273 Y241.681 E59.58397
G1 X206.273 Y271.681 E61.9787
G1 X206.233 Y272.514 E62.04527
G1 X206.113 Y273.339 E62.11182
G1 X205.915 Y274.15 E62.17846
G1 X205.641 Y274.937 E62.24498
G1 X205.292 Y275.695 E62.31159
G1 X204.872 Y276.415 E62.37813
G1 X204.385 Y277.093 E62.44476
G1 X203.836 Y277.72 E62.51129
G1 X203.229 Y278.292 E62.57787
G1 X202.57 Y278.803 E62.64443
G1 X201.865 Y279.249 E62.71102
G1 X201.12 Y279.625 E62.77764
G1 X200.343 Y279.928 E62.84421
G1 X199.541 Y280.156 E62.91077
G1 X198.72 Y280.305 E62.97737
G1 X197.573 Y280.381 E63.06913
G1 X167.573 Y280.381 E65.46386
G1 X166.74 Y280.341 E65.53043
G1 X165.915 Y280.221 E65.59698
G1 X165.104 Y280.023 E65.66362
G1 X164.317 Y279.749 E65.73014
G1 X163.559 Y279.4 E65.79675
G1 X162.839 Y278.98 E65.86329
G1 X162.161 Y278.493 E65.92992
G1 X161.534 Y277.944 E65.99645
G1 X160.962 Y277.337 E66.06303
G1 X160.451 Y276.678 E66.12959
G1 X160.005 Y275.973 E66.19618
G1 X159.629 Y275.228 E66.2628
G1 X159.326 Y274.451 E66.32937
G1 X159.098 Y273.649 E66.39593
G1 X158.949 Y272.828 E66.46253
G1 X158.873 Y271.681 E66.55429
G1 X158.873 Y254.87 E67.89622
G1 X141.911 Y254.87 E69.2502
G1 X141.911 Y271.696 E70.59332
G1 X141.871 Y272.529 E70.65989
G1 X141.751 Y273.354 E70.72644
G1 X141.553 Y274.165 E70.79308
G1 X141.279 Y274.952 E70.8596
G1 X140.93 Y275.71 E70.92621
G1 X140.51 Y276.43 E70.99275
G1 X140.023 Y277.108 E71.05938
G1 X139.474 Y277.735 E71.12591
G1 X138.867 Y278.307 E71.19249
G1 X138.208 Y278.818 E71.25905
G1 X137.503 Y279.264 E71.32564
G1 X136.758 Y279.64 E71.39226
G1 X135.981 Y279.943 E71.45883
G1 X135.179 Y280.171 E71.52539
G1 X134.358 Y280.32 E71.59199
G1 X133.211 Y280.396 E71.68375
G1 X103.211 Y280.396 E74.07848
G1 X102.378 Y280.356 E74.14505
G1 X101.553 Y280.236 E74.2116
G1 X100.742 Y280.038 E74.27824
G1 X99.955 Y279.764 E74.34476
G1 X99.197 Y279.415 E74.41137
G1 X98.477 Y278.995 E74.47791
G1 X97.799 Y278.508 E74.54454
G1 X97.172 Y277.959 E74.61107
G1 X96.6 Y277.352 E74.67765
G1 X96.089 Y276.693 E74.74421
G1 X95.643 Y275.988 E74.8108
G1 X95.267 Y275.243 E74.87742
G1 X94.964 Y274.466 E74.94399
G1 X94.736 Y273.664 E75.01055
G1 X94.587 Y272.843 E75.07715
G1 X94.511 Y271.696 E75.16891
G1 X94.511 Y241.696 E77.56364
G1 X94.551 Y240.863 E77.63021
G1 X94.671 Y240.038 E77.69676
G1 X94.869 Y239.227 E77.7634
G1 X95.143 Y238.44 E77.82992
G1 X95.492 Y237.682 E77.89653
G1 X95.912 Y236.962 E77.96307
G1 X96.399 Y236.284 E78.0297
G1 X96.948 Y235.657 E78.09623
G1 X97.555 Y235.085 E78.16281
G1 X98.214 Y234.574 E78.22937
G1 X98.919 Y234.128 E78.29596
G1 X99.664 Y233.752 E78.36258
G1 X100.441 Y233.449 E78.42915
G1 X101.243 Y233.221 E78.49571
G1 X102.064 Y233.072 E78.56231
G1 X103.211 Y232.996 E78.65407
G1 X119.361 Y232.996 E79.94324
G1 X119.361 Y196.051 E82.89234
G1 X108.271 Y196.051 E83.7776
G1 X107.438 Y196.011 E83.84417
G1 X106.613 Y195.891 E83.91071
G1 X105.802 Y195.693 E83.97735
G1 X105.015 Y195.419 E84.04387
G1 X104.257 Y195.07 E84.11049
G1 X103.537 Y194.65 E84.17702
G1 X102.859 Y194.163 E84.24366
G1 X102.232 Y193.614 E84.31018
G1 X101.66 Y193.007 E84.37676
G1 X101.149 Y192.348 E84.44333
G1 X100.703 Y191.643 E84.50992
G1 X100.327 Y190.898 E84.57653
G1 X100.024 Y190.121 E84.64311
G1 X99.796 Y189.319 E84.70966
G1 X99.647 Y188.498 E84.77627
G1 X99.571 Y187.351 E84.86803
G1 X99.571 Y181.703 E85.31887
G1 X68.273 Y181.703 E87.81722
G1 X68.273 Y197.93 E89.11253
G1 X68.233 Y198.763 E89.1791
G1 X68.113 Y199.588 E89.24564
G1 X67.915 Y200.399 E89.31228
G1 X67.641 Y201.186 E89.3788
G1 X67.292 Y201.944 E89.44542
G1 X66.872 Y202.664 E89.51195
G1 X66.385 Y203.342 E89.57859
G1 X65.836 Y203.969 E89.64511
G1 X65.229 Y204.541 E89.71169
G1 X64.57 Y205.052 E89.77826
G1 X63.865 Y205.498 E89.84485
G1 X63.12 Y205.874 E89.91146
G1 X62.343 Y206.177 E89.97803
G1 X61.541 Y206.405 E90.04459
G1 X60.72 Y206.554 E90.1112
G1 X59.573 Y206.63 E90.20296
G1 X29.573 Y206.63 E92.59769
G1 X28.74 Y206.59 E92.66426
G1 X27.915 Y206.47 E92.7308
G1 X27.104 Y206.272 E92.79744
G1 X26.317 Y205.998 E92.86396
G1 X25.559 Y205.649 E92.93058
G1 X24.839 Y205.229 E92.99711
G1 X24.161 Y204.742 E93.06375
G1 X23.534 Y204.193 E93.13027
G1 X22.962 Y203.586 E93.19685
G1 X22.451 Y202.927 E93.26342
G1 X22.005 Y202.222 E93.33001
G1 X21.629 Y201.477 E93.39662
G1 X21.326 Y200.7 E93.46319
G1 X21.098 Y199.898 E93.52975
G1 X20.949 Y199.077 E93.59636
G1 X20.873 Y197.93 E93.68812
G1 X20.873 Y167.93 E96.08285
G1 X20.913 Y167.097 E96.14942
G1 X21.033 Y166.272 E96.21596
G1 X21.231 Y165.461 E96.2826
G1 X21.505 Y164.674 E96.34912
G1 X21.854 Y163.916 E96.41574
G1 X22.274 Y163.196 E96.48227
G1 X22.761 Y162.518 E96.54891
G1 X23.31 Y161.891 E96.61543
G1 X23.917 Y161.319 E96.68201
G1 X24.576 Y160.808 E96.74858
G1 X25.281 Y160.362 E96.81517
G1 X26.026 Y159.986 E96.88178
G1 X26.803 Y159.683 E96.94835
G1 X27.605 Y159.455 E97.01491
G1 X28.426 Y159.306 E97.08152
G1 X29.573 Y159.23 E97.17328
G1 X46.194 Y159.23 E98.50004
G1 X46.194 Y142.325 E99.84947
G1 X29.129 Y142.325 E101.21167
G1 X28.296 Y142.285 E101.27824
G1 X27.471 Y142.165 E101.34479
G1 X26.66 Y141.967 E101.41143
G1 X25.873 Y141.693 E101.47795
G1 X25.115 Y141.344 E101.54456
G1 X24.395 Y140.924 E101.61109
G1 X23.717 Y140.437 E101.67773
G1 X23.09 Y139.888 E101.74425
G1 X22.518 Y139.281 E101.81083
G1 X22.007 Y138.622 E101.8774
G1 X21.561 Y137.917 E101.94399
G1 X21.185 Y137.172 E102.0106
G1 X20.882 Y136.395 E102.07718
G1 X20.654 Y135.593 E102.14373
G1 X20.505 Y134.772 E102.21034
G1 X20.429 Y133.625 E102.3021
G1 X20.429 Y103.625 E104.69683
G1 X20.469 Y102.792 E104.7634
G1 X20.589 Y101.967 E104.82995
G1 X20.787 Y101.156 E104.89659
G1 X21.061 Y100.369 E104.96311
G1 X21.41 Y99.611 E105.02972
G1 X21.83 Y98.891 E105.09625
G1 X22.317 Y98.213 E105.16289
G1 X22.866 Y97.586 E105.22941
G1 X23.473 Y97.014 E105.29599
G1 X24.132 Y96.503 E105.36256
G1 X24.837 Y96.057 E105.42915
G1 X25.582 Y95.681 E105.49576
G1 X26.359 Y95.378 E105.56234
G1 X27.161 Y95.15 E105.62889
G1 X27.982 Y95.001 E105.6955
G1 X29.129 Y94.925 E105.78726
G1 X59.129 Y94.925 E108.18199
G1 X59.962 Y94.965 E108.24856
G1 X60.787 Y95.085 E108.31511
G1 X61.598 Y95.283 E108.38174
G1 X62.385 Y95.557 E108.44827
G1 X63.143 Y95.906 E108.51488
G1 X63.863 Y96.326 E108.58141
G1 X64.541 Y96.813 E108.64805
G1 X65.168 Y97.362 E108.71457
G1 X65.74 Y97.969 E108.78115
G1 X66.251 Y98.628 E108.84772
G1 X66.697 Y99.333 E108.91431
G1 X67.073 Y100.078 E108.98092
G1 X67.376 Y100.855 E109.0475
G1 X67.604 Y101.657 E109.11405
G1 X67.753 Y102.478 E109.18066
G1 X67.829 Y103.625 E109.27242
G1 X67.829 Y120.637 E110.63039
G1 X99.571 Y120.637 E113.16417
G1 X99.571 Y114.989 E113.61502
G1 X99.611 Y114.156 E113.68159
G1 X99.731 Y113.331 E113.74814
G1 X99.929 Y112.52 E113.81478
G1 X100.203 Y111.733 E113.8813
G1 X100.552 Y110.975 E113.94791
G1 X100.972 Y110.255 E114.01445
G1 X101.459 Y109.577 E114.08108
G1 X102.008 Y108.95 E114.14761
G1 X102.615 Y108.378 E114.21418
G1 X103.274 Y107.867 E114.28075
G1 X103.979 Y107.421 E114.34734
G1 X104.724 Y107.045 E114.41396
G1 X105.501 Y106.742 E114.48053
G1 X106.303 Y106.514 E114.54709
G1 X107.124 Y106.365 E114.61369
G1 X108.271 Y106.289 E114.70545
G1 X119.361 Y106.289 E115.5907
G1 X119.361 Y68.132 E118.63656
G1 X102.218 Y68.132 E120.00499
G1 X101.385 Y68.092 E120.07156
G1 X100.56 Y67.972 E120.13811
G1 X99.749 Y67.774 E120.20475
G1 X98.962 Y67.5 E120.27127
G1 X98.204 Y67.151 E120.33788
G1 X97.484 Y66.731 E120.40441
G1 X96.806 Y66.244 E120.47105
G1 X96.179 Y65.695 E120.53757
G1 X95.607 Y65.088 E120.60415
G1 X95.096 Y64.429 E120.67072
G1 X94.65 Y63.724 E120.73731
G1 X94.274 Y62.979 E120.80392
G1 X93.971 Y62.202 E120.8705
G1 X93.743 Y61.4 E120.93705
G1 X93.594 Y60.579 E121.00366
G1 X93.518 Y59.432 E121.09542
G1 X93.518 Y29.432 E123.49015
G1 X93.558 Y28.599 E123.55672
G1 X93.678 Y27.774 E123.62327
G1 X93.876 Y26.963 E123.6899
G0 F7500 X94.475 Y27.052
G1 F1500 X94.75 Y26.296 E123.75412
G1 X95.098 Y25.57 E123.81839
G1 X95.516 Y24.883 E123.88258
G1 X96.001 Y24.24 E123.94687
G1 X96.546 Y23.649 E124.01104
G1 X97.148 Y23.115 E124.07528
G1 X97.8 Y22.643 E124.13953
G1 X98.496 Y22.238 E124.20381
G1 X99.228 Y21.904 E124.26804
G1 X99.99 Y21.645 E124.33228
G1 X100.773 Y21.462 E124.39647
G1 X101.571 Y21.358 E124.46071
G1 X102.218 Y21.332 E124.51239
G1 X132.218 Y21.332 E126.90712
G1 X133.022 Y21.372 E126.97138
G1 X133.818 Y21.492 E127.03564
