;FLAVOR:Marlin
;TIME:13435
;Filament used: 31.1276m
;Layer height: 0.32
;MINX:11.579
;MINY:10.754
;MINZ:0.32
;MAXX:288.421
;MAXY:289.246
;MAXZ:17.28
;Generated with Cura_SteamEngine master
M140 S60
M105
M190 S60
M104 S250
M105
M109 S250
M82 ;absolute extrusion mode
G28 ;Home
G1 Z15.0 F2000 ;Move the platform
G92 E0
G92 E0
G1 F1200 E-3
;LAYER_COUNT:54
;LAYER:0
M107 P2
G0 F7500 X85.304 Y24.75 Z0.32
;TYPE:SKIRT
G1 F1200 E0
G1 F1500 X85.659 Y23.619 E0.14194
G1 X86.089 Y22.515 E0.2838
G1 X86.592 Y21.443 E0.42558
G1 X87.167 Y20.407 E0.56746
G1 X87.81 Y19.412 E0.70931
G1 X88.519 Y18.462 E0.85124
G1 X89.29 Y17.563 E0.99305
G1 X90.12 Y16.718 E1.13487
G1 X91.006 Y15.931 E1.27677
G1 X91.942 Y15.205 E1.4186
G1 X92.925 Y14.544 E1.56044
G1 X93.951 Y13.951 E1.70233
G1 X95.014 Y13.429 E1.84413
G1 X96.11 Y12.979 E1.98599
G1 X97.234 Y12.604 E2.12787
G1 X98.381 Y12.307 E2.26973
G1 X99.545 Y12.087 E2.41157
G1 X100.721 Y11.946 E2.55339
G1 X102.218 Y11.882 E2.7328
G1 X132.218 Y11.882 E6.3249
G1 X133.402 Y11.922 E6.46675
G1 X134.581 Y12.042 E6.60864
G1 X135.749 Y12.241 E6.75051
G1 X136.9 Y12.518 E6.89226
G1 X138.031 Y12.873 E7.0342
G1 X139.135 Y13.303 E7.17606
G1 X140.207 Y13.806 E7.31785
G1 X141.243 Y14.381 E7.45972
G1 X142.238 Y15.024 E7.60157
G1 X143.188 Y15.733 E7.74351
G1 X144.087 Y16.504 E7.88531
G1 X144.932 Y17.334 E8.02713
G1 X145.719 Y18.22 E8.16903
G1 X146.445 Y19.156 E8.31086
G1 X147.106 Y20.139 E8.4527
G1 X147.699 Y21.165 E8.59459
G1 X148.221 Y22.228 E8.73639
G1 X148.671 Y23.324 E8.87825
G1 X149.046 Y24.448 E9.02013
G1 X149.343 Y25.595 E9.162
G1 X149.563 Y26.759 E9.30384
G1 X149.696 Y27.866 E9.43734
G1 X149.721 Y27.12 E9.52671
G1 X149.841 Y25.941 E9.66861
G1 X150.04 Y24.773 E9.81048
G1 X150.317 Y23.622 E9.95223
G1 X150.672 Y22.491 E10.09417
G1 X151.102 Y21.387 E10.23603
G1 X151.605 Y20.315 E10.37781
G1 X152.18 Y19.279 E10.51969
G1 X152.823 Y18.284 E10.66154
G1 X153.532 Y17.334 E10.80347
G1 X154.303 Y16.435 E10.94528
G1 X155.133 Y15.59 E11.0871
G1 X156.019 Y14.803 E11.229
G1 X156.955 Y14.077 E11.37083
G1 X157.938 Y13.416 E11.51267
G1 X158.964 Y12.823 E11.65456
G1 X160.027 Y12.301 E11.79636
G1 X161.123 Y11.851 E11.93822
G1 X162.247 Y11.476 E12.0801
G1 X163.394 Y11.179 E12.22196
G1 X164.558 Y10.959 E12.36381
G1 X165.734 Y10.818 E12.50562
G1 X167.231 Y10.754 E12.68503
G1 X197.231 Y10.754 E16.27713
G1 X198.415 Y10.794 E16.41898
G1 X199.594 Y10.914 E16.56088
G1 X200.762 Y11.113 E16.70274
G1 X201.913 Y11.39 E16.84449
G1 X203.044 Y11.745 E16.98643
G1 X204.148 Y12.175 E17.12829
G1 X205.22 Y12.678 E17.27008
G1 X206.256 Y13.253 E17.41195
G1 X207.251 Y13.896 E17.5538
G1 X208.201 Y14.605 E17.69574
G1 X209.1 Y15.376 E17.83754
G1 X209.945 Y16.206 E17.97937
G1 X210.732 Y17.092 E18.12126
G1 X211.458 Y18.028 E18.26309
G1 X212.119 Y19.011 E18.40493
G1 X212.712 Y20.037 E18.54682
G1 X213.234 Y21.1 E18.68862
G1 X213.684 Y22.196 E18.83048
G1 X214.059 Y23.32 E18.97236
G1 X214.356 Y24.467 E19.11423
G1 X214.576 Y25.631 E19.25607
G1 X214.717 Y26.807 E19.39789
G1 X214.781 Y28.304 E19.5773
G1 X214.781 Y58.304 E23.16939
G1 X214.741 Y59.488 E23.31124
G1 X214.621 Y60.667 E23.45314
G1 X214.422 Y61.835 E23.59501
G1 X214.145 Y62.986 E23.73676
G1 X213.79 Y64.117 E23.87869
G1 X213.36 Y65.221 E24.02056
G1 X212.857 Y66.293 E24.16234
G1 X212.282 Y67.329 E24.30421
G1 X211.639 Y68.324 E24.44606
G1 X210.93 Y69.274 E24.588
G1 X210.159 Y70.173 E24.72981
G1 X209.329 Y71.018 E24.87163
G1 X208.443 Y71.805 E25.01352
G1 X207.507 Y72.531 E25.15536
G1 X206.524 Y73.192 E25.29719
G1 X205.498 Y73.785 E25.43909
G1 X204.435 Y74.307 E25.58089
G1 X203.339 Y74.757 E25.72275
G1 X202.215 Y75.132 E25.86462
G1 X201.068 Y75.429 E26.00649
G1 X199.904 Y75.649 E26.14833
G1 X198.728 Y75.79 E26.29015
G1 X197.231 Y75.854 E26.46956
G1 X189.277 Y75.854 E27.42194
G1 X189.277 Y97.439 E30.00646
G1 X191.517 Y97.439 E30.27467
G1 X192.701 Y97.479 E30.41651
G1 X193.88 Y97.599 E30.55841
G1 X195.048 Y97.798 E30.70028
G1 X196.199 Y98.075 E30.84203
G1 X197.33 Y98.43 E30.98397
G1 X198.434 Y98.86 E31.12583
G1 X199.506 Y99.363 E31.26762
G1 X200.542 Y99.938 E31.40949
G1 X201.537 Y100.581 E31.55134
G1 X202.487 Y101.29 E31.69327
G1 X203.386 Y102.061 E31.83508
G1 X204.231 Y102.891 E31.9769
G1 X205.018 Y103.777 E32.1188
G1 X205.744 Y104.713 E32.26063
G1 X206.405 Y105.696 E32.40247
G1 X206.998 Y106.722 E32.54436
G1 X207.52 Y107.785 E32.68616
G1 X207.97 Y108.881 E32.82802
G1 X208.345 Y110.005 E32.9699
G1 X208.642 Y111.152 E33.11177
G1 X208.762 Y111.787 E33.18914
G1 X223.149 Y111.787 E34.91179
G1 X223.149 Y103.137 E35.94751
G1 X223.189 Y101.953 E36.08936
G1 X223.309 Y100.774 E36.23126
G1 X223.508 Y99.606 E36.37313
G1 X223.785 Y98.455 E36.51488
G1 X224.14 Y97.324 E36.65682
G1 X224.57 Y96.22 E36.79868
G1 X225.073 Y95.148 E36.94046
G1 X225.648 Y94.112 E37.08234
G1 X226.291 Y93.117 E37.22419
G1 X227 Y92.167 E37.36612
G1 X227.771 Y91.268 E37.50793
G1 X228.601 Y90.423 E37.64975
G1 X229.487 Y89.636 E37.79165
G1 X230.423 Y88.91 E37.93348
G1 X231.406 Y88.249 E38.07532
G1 X232.432 Y87.656 E38.21721
G1 X233.495 Y87.134 E38.35901
G1 X234.591 Y86.684 E38.50087
G1 X235.715 Y86.309 E38.64275
G1 X236.862 Y86.012 E38.78461
G1 X238.026 Y85.792 E38.92645
G1 X239.202 Y85.651 E39.06827
G1 X240.699 Y85.587 E39.24768
G1 X270.699 Y85.587 E42.83978
G1 X271.883 Y85.627 E42.98163
G1 X273.062 Y85.747 E43.12352
G1 X274.23 Y85.946 E43.26539
G1 X275.381 Y86.223 E43.40714
G1 X276.512 Y86.578 E43.54908
G1 X277.616 Y87.008 E43.69094
G1 X278.688 Y87.511 E43.83273
G1 X279.724 Y88.086 E43.9746
G1 X280.719 Y88.729 E44.11645
G1 X281.669 Y89.438 E44.25839
G1 X282.568 Y90.209 E44.40019
G1 X283.413 Y91.039 E44.54202
G1 X284.2 Y91.925 E44.68391
G1 X284.926 Y92.861 E44.82574
G1 X285.587 Y93.844 E44.96758
G1 X286.18 Y94.87 E45.10947
G1 X286.702 Y95.933 E45.25127
G1 X287.152 Y97.029 E45.39313
G1 X287.527 Y98.153 E45.53501
G1 X287.824 Y99.3 E45.67688
G1 X288.044 Y100.464 E45.81872
G1 X288.185 Y101.64 E45.96054
G1 X288.249 Y103.137 E46.13995
G1 X288.249 Y133.137 E49.73204
G1 X288.209 Y134.321 E49.87389
G1 X288.089 Y135.5 E50.01579
G1 X287.89 Y136.668 E50.15766
G1 X287.613 Y137.819 E50.29941
G1 X287.258 Y138.95 E50.44134
G1 X286.828 Y140.054 E50.58321
G1 X286.325 Y141.126 E50.72499
G1 X285.75 Y142.162 E50.86686
G1 X285.107 Y143.157 E51.00871
G1 X284.398 Y144.107 E51.15065
G1 X283.627 Y145.006 E51.29246
G1 X282.797 Y145.851 E51.43428
G1 X281.911 Y146.638 E51.57617
G1 X280.975 Y147.364 E51.71801
G1 X279.992 Y148.025 E51.85984
G1 X278.966 Y148.618 E52.00174
G1 X277.903 Y149.14 E52.14354
G1 X276.807 Y149.59 E52.2854
G1 X275.683 Y149.965 E52.42727
G1 X274.536 Y150.262 E52.56914
G1 X273.372 Y150.482 E52.71098
G1 X273.047 Y150.521 E52.75018
G1 X273.234 Y150.54 E52.77268
G1 X274.402 Y150.739 E52.91455
G1 X275.553 Y151.016 E53.0563
G1 X276.684 Y151.371 E53.19824
G1 X277.788 Y151.801 E53.3401
G1 X278.86 Y152.304 E53.48188
G1 X279.896 Y152.879 E53.62376
G1 X280.891 Y153.522 E53.76561
G1 X281.841 Y154.231 E53.90754
G1 X282.74 Y155.002 E54.04935
G1 X283.585 Y155.832 E54.19117
G1 X284.372 Y156.718 E54.33307
G1 X285.098 Y157.654 E54.4749
G1 X285.759 Y158.637 E54.61674
G1 X286.352 Y159.663 E54.75863
G1 X286.874 Y160.726 E54.90043
G1 X287.324 Y161.822 E55.04229
G1 X287.699 Y162.946 E55.18417
G1 X287.996 Y164.093 E55.32603
G1 X288.216 Y165.257 E55.46787
G1 X288.357 Y166.433 E55.60969
G1 X288.421 Y167.93 E55.7891
G1 X288.421 Y197.93 E59.3812
G1 X288.381 Y199.114 E59.52305
G1 X288.261 Y200.293 E59.66494
G1 X288.062 Y201.461 E59.80681
G1 X287.785 Y202.612 E59.94856
G1 X287.43 Y203.743 E60.0905
G1 X287 Y204.847 E60.23236
G1 X286.497 Y205.919 E60.37415
G1 X285.922 Y206.955 E60.51602
G1 X285.279 Y207.95 E60.65787
G1 X284.57 Y208.9 E60.79981
G1 X283.799 Y209.799 E60.94161
G1 X282.969 Y210.644 E61.08344
G1 X282.083 Y211.431 E61.22533
G1 X281.147 Y212.157 E61.36716
G1 X280.164 Y212.818 E61.509
G1 X279.138 Y213.411 E61.65089
G1 X278.075 Y213.933 E61.79269
G1 X276.979 Y214.383 E61.93455
G1 X275.855 Y214.758 E62.07643
G1 X274.708 Y215.055 E62.2183
G1 X273.544 Y215.275 E62.36014
G1 X272.368 Y215.416 E62.50196
G1 X270.871 Y215.48 E62.68137
G1 X240.871 Y215.48 E66.27346
G1 X239.687 Y215.44 E66.41531
G1 X238.508 Y215.32 E66.55721
G1 X237.34 Y215.121 E66.69908
G1 X236.189 Y214.844 E66.84083
G1 X235.058 Y214.489 E66.98276
G1 X233.954 Y214.059 E67.12463
G1 X232.882 Y213.556 E67.26641
G1 X231.846 Y212.981 E67.40828
G1 X230.851 Y212.338 E67.55013
G1 X229.901 Y211.629 E67.69207
G1 X229.002 Y210.858 E67.83388
G1 X228.157 Y210.028 E67.9757
G1 X227.37 Y209.142 E68.11759
G1 X226.644 Y208.206 E68.25943
G1 X225.983 Y207.223 E68.40126
G1 X225.39 Y206.197 E68.54316
G1 X224.868 Y205.134 E68.68496
G1 X224.418 Y204.038 E68.82682
G1 X224.043 Y202.914 E68.96869
G1 X223.746 Y201.767 E69.11056
G1 X223.526 Y200.603 E69.2524
G1 X223.385 Y199.427 E69.39422
G1 X223.321 Y197.93 E69.57363
G1 X223.321 Y190.553 E70.45693
G1 X208.764 Y190.553 E72.19993
G1 X208.708 Y190.882 E72.23989
G1 X208.431 Y192.033 E72.38164
G1 X208.076 Y193.164 E72.52358
G1 X207.646 Y194.268 E72.66544
G1 X207.143 Y195.34 E72.80722
G1 X206.568 Y196.376 E72.9491
G1 X205.925 Y197.371 E73.09095
G1 X205.216 Y198.321 E73.23288
G1 X204.445 Y199.22 E73.37469
G1 X203.615 Y200.065 E73.51651
G1 X202.729 Y200.852 E73.65841
G1 X201.793 Y201.578 E73.80024
G1 X200.81 Y202.239 E73.94208
G1 X199.784 Y202.832 E74.08397
G1 X198.721 Y203.354 E74.22577
G1 X197.625 Y203.804 E74.36763
G1 X196.501 Y204.179 E74.50951
G1 X195.354 Y204.476 E74.65137
G1 X194.19 Y204.696 E74.79322
G1 X193.014 Y204.837 E74.93503
G1 X191.517 Y204.901 E75.11444
G1 X189.277 Y204.901 E75.38265
G1 X189.277 Y224.131 E77.68519
G1 X197.573 Y224.131 E78.67852
G1 X198.757 Y224.171 E78.82037
G1 X199.936 Y224.291 E78.96227
G1 X201.104 Y224.49 E79.10413
G1 X202.255 Y224.767 E79.24589
G1 X203.386 Y225.122 E79.38782
G1 X204.49 Y225.552 E79.52968
G1 X205.562 Y226.055 E79.67147
G1 X206.598 Y226.63 E79.81334
G1 X207.593 Y227.273 E79.95519
G1 X208.543 Y227.982 E80.09713
G1 X209.442 Y228.753 E80.23894
G1 X210.287 Y229.583 E80.38076
G1 X211.074 Y230.469 E80.52265
G1 X211.8 Y231.405 E80.66449
G1 X212.461 Y232.388 E80.80632
G1 X213.054 Y233.414 E80.94822
G1 X213.576 Y234.477 E81.09001
G1 X214.026 Y235.573 E81.23188
G1 X214.401 Y236.697 E81.37375
G1 X214.698 Y237.844 E81.51562
G1 X214.918 Y239.008 E81.65746
G1 X215.059 Y240.184 E81.79928
G1 X215.123 Y241.681 E81.97869
G1 X215.123 Y271.681 E85.57078
G1 X215.083 Y272.865 E85.71263
G1 X214.963 Y274.044 E85.85453
G1 X214.764 Y275.212 E85.9964
G1 X214.487 Y276.363 E86.13815
G1 X214.132 Y277.494 E86.28009
G1 X213.702 Y278.598 E86.42195
G1 X213.199 Y279.67 E86.56373
G1 X212.624 Y280.706 E86.70561
G1 X211.981 Y281.701 E86.84746
G1 X211.272 Y282.651 E86.98939
G1 X210.501 Y283.55 E87.1312
G1 X209.671 Y284.395 E87.27302
G1 X208.785 Y285.182 E87.41492
G1 X207.849 Y285.908 E87.55675
G1 X206.866 Y286.569 E87.69859
G1 X205.84 Y287.162 E87.84048
G1 X204.777 Y287.684 E87.98228
G1 X203.681 Y288.134 E88.12414
G1 X202.557 Y288.509 E88.26602
G1 X201.41 Y288.806 E88.40788
G1 X200.246 Y289.026 E88.54972
G1 X199.07 Y289.167 E88.69154
G1 X197.573 Y289.231 E88.87095
G1 X167.573 Y289.231 E92.46305
G1 X166.389 Y289.191 E92.6049
G1 X165.21 Y289.071 E92.74679
G1 X164.042 Y288.872 E92.88866
G1 X162.891 Y288.595 E93.03041
G1 X161.76 Y288.24 E93.17235
G1 X160.656 Y287.81 E93.31421
G1 X159.584 Y287.307 E93.456
G1 X158.548 Y286.732 E93.59787
G1 X157.553 Y286.089 E93.73972
G1 X156.603 Y285.38 E93.88165
G1 X155.704 Y284.609 E94.02346
G1 X154.859 Y283.779 E94.16528
G1 X154.072 Y282.893 E94.30718
G1 X153.346 Y281.957 E94.44901
G1 X152.685 Y280.974 E94.59085
G1 X152.092 Y279.948 E94.73274
G1 X151.57 Y278.885 E94.87454
G1 X151.12 Y277.789 E95.0164
G1 X150.745 Y276.665 E95.15828
G1 X150.448 Y275.518 E95.30015
G1 X150.397 Y275.248 E95.33305
G1 X150.125 Y276.378 E95.47221
G1 X149.77 Y277.509 E95.61415
G1 X149.34 Y278.613 E95.75601
G1 X148.837 Y279.685 E95.8978
G1 X148.262 Y280.721 E96.03967
G1 X147.619 Y281.716 E96.18152
G1 X146.91 Y282.666 E96.32346
G1 X146.139 Y283.565 E96.46526
G1 X145.309 Y284.41 E96.60709
G1 X144.423 Y285.197 E96.74898
G1 X143.487 Y285.923 E96.89081
G1 X142.504 Y286.584 E97.03265
G1 X141.478 Y287.177 E97.17454
G1 X140.415 Y287.699 E97.31634
G1 X139.319 Y288.149 E97.4582
G1 X138.195 Y288.524 E97.60008
G1 X137.048 Y288.821 E97.74195
G1 X135.884 Y289.041 E97.88379
G1 X134.708 Y289.182 E98.02561
G1 X133.211 Y289.246 E98.20502
G1 X103.211 Y289.246 E101.79711
G1 X102.027 Y289.206 E101.93896
G1 X100.848 Y289.086 E102.08086
G1 X99.68 Y288.887 E102.22273
G1 X98.529 Y288.61 E102.36448
G1 X97.398 Y288.255 E102.50641
G1 X96.294 Y287.825 E102.64828
G1 X95.222 Y287.322 E102.79006
G1 X94.186 Y286.747 E102.93193
G1 X93.191 Y286.104 E103.07378
G1 X92.241 Y285.395 E103.21572
G1 X91.342 Y284.624 E103.35753
G1 X90.497 Y283.794 E103.49935
G1 X89.71 Y282.908 E103.64124
G1 X88.984 Y281.972 E103.78308
G1 X88.323 Y280.989 E103.92491
G1 X87.73 Y279.963 E104.06681
G1 X87.208 Y278.9 E104.20861
G1 X86.758 Y277.804 E104.35047
G1 X86.383 Y276.68 E104.49234
G1 X86.086 Y275.533 E104.63421
G1 X85.866 Y274.369 E104.77605
G1 X85.725 Y273.193 E104.91787
G1 X85.661 Y271.696 E105.09728
G1 X85.661 Y241.696 E108.68937
G1 X85.701 Y240.512 E108.83122
G1 X85.821 Y239.333 E108.97312
G1 X86.02 Y238.165 E109.11499
G1 X86.297 Y237.014 E109.25674
G1 X86.652 Y235.883 E109.39868
G1 X87.082 Y234.779 E109.54054
G1 X87.585 Y233.707 E109.68232
G1 X88.16 Y232.671 E109.8242
G1 X88.803 Y231.676 E109.96605
G1 X89.512 Y230.726 E110.10798
G1 X90.283 Y229.827 E110.24979
G1 X91.113 Y228.982 E110.39161
G1 X91.999 Y228.195 E110.53351
G1 X92.935 Y227.469 E110.67534
G1 X93.918 Y226.808 E110.81718
G1 X94.944 Y226.215 E110.95907
G1 X96.007 Y225.693 E111.10087
G1 X97.103 Y225.243 E111.24273
G1 X98.227 Y224.868 E111.38461
G1 X99.374 Y224.571 E111.52647
G1 X100.538 Y224.351 E111.66832
G1 X101.714 Y224.21 E111.81013
G1 X103.211 Y224.146 E111.98954
G1 X110.511 Y224.146 E112.86362
G1 X110.511 Y204.901 E115.16795
G1 X108.271 Y204.901 E115.43616
G1 X107.087 Y204.861 E115.57801
G1 X105.908 Y204.741 E115.71991
G1 X104.74 Y204.542 E115.86177
G1 X103.589 Y204.265 E116.00352
G1 X102.458 Y203.91 E116.14546
G1 X101.354 Y203.48 E116.28732
G1 X100.282 Y202.977 E116.42911
G1 X99.246 Y202.402 E116.57098
G1 X98.251 Y201.759 E116.71283
G1 X97.301 Y201.05 E116.85477
G1 X96.402 Y200.279 E116.99657
G1 X95.557 Y199.449 E117.1384
G1 X94.77 Y198.563 E117.28029
G1 X94.044 Y197.627 E117.42213
G1 X93.383 Y196.644 E117.56396
G1 X92.79 Y195.618 E117.70585
G1 X92.268 Y194.555 E117.84765
G1 X91.818 Y193.459 E117.98951
G1 X91.443 Y192.335 E118.13139
G1 X91.146 Y191.188 E118.27326
G1 X91.026 Y190.553 E118.35064
G1 X77.123 Y190.553 E120.01533
G1 X77.123 Y197.93 E120.89863
G1 X77.083 Y199.114 E121.04048
G1 X76.963 Y200.293 E121.18238
G1 X76.764 Y201.461 E121.32424
G1 X76.487 Y202.612 E121.466
G1 X76.132 Y203.743 E121.60793
G1 X75.702 Y204.847 E121.74979
G1 X75.199 Y205.919 E121.89158
G1 X74.624 Y206.955 E122.03345
G1 X73.981 Y207.95 E122.1753
G1 X73.272 Y208.9 E122.31724
G1 X72.501 Y209.799 E122.45905
G1 X71.671 Y210.644 E122.60087
G1 X70.785 Y211.431 E122.74276
G1 X69.849 Y212.157 E122.8846
G1 X68.866 Y212.818 E123.02643
G1 X67.84 Y213.411 E123.16833
G1 X66.777 Y213.933 E123.31012
G1 X65.681 Y214.383 E123.45199
G1 X64.557 Y214.758 E123.59386
G1 X63.41 Y215.055 E123.73573
G1 X62.246 Y215.275 E123.87757
G1 X61.07 Y215.416 E124.01939
G1 X59.573 Y215.48 E124.1988
G1 X29.573 Y215.48 E127.79089
G1 X28.389 Y215.44 E127.93274
G1 X27.21 Y215.32 E128.07464
G1 X26.042 Y215.121 E128.21651
G1 X24.891 Y214.844 E128.35826
G1 X23.76 Y214.489 E128.5002
G1 X22.656 Y214.059 E128.64206
G1 X21.584 Y213.556 E128.78384
G1 X20.548 Y212.981 E128.92572
G1 X19.553 Y212.338 E129.06756
G1 X18.603 Y211.629 E129.2095
G1 X17.704 Y210.858 E129.35131
G1 X16.859 Y210.028 E129.49313
G1 X16.072 Y209.142 E129.63503
G1 X15.346 Y208.206 E129.77686
G1 X14.685 Y207.223 E129.9187
G1 X14.092 Y206.197 E130.06059
G1 X13.57 Y205.134 E130.20239
G1 X13.12 Y204.038 E130.34425
G1 X12.745 Y202.914 E130.48613
G1 X12.448 Y201.767 E130.62799
G1 X12.228 Y200.603 E130.76983
G1 X12.087 Y199.427 E130.91165
G1 X12.023 Y197.93 E131.09106
