;FLAVOR:Marlin
;TIME:3825
;Filament used: 6.05747m
;Layer height: 0.32
;MINX:121.025
;MINY:124.369
;MINZ:0.32
;MAXX:177.225
;MAXY:184.029
;MAXZ:25.92
;Generated with Cura_SteamEngine master
M140 S60
M105
M190 S60
M104 S240
M105
M109 S240
M82 ;absolute extrusion mode
G28 ;Home
G1 Z15.0 F2000 ;Move the platform
G92 E0
G92 E0
;LAYER_COUNT:81
;LAYER:0
M107 P2
G0 F7500 X125.009 Y131.538 Z0.32
;TYPE:SKIRT
G1 F1500 X125.284 Y131.278 E0.03021
G1 X125.586 Y131.007 E0.0626
G1 X125.858 Y130.78 E0.09088
G1 X126.081 Y130.602 E0.11366
G1 X126.565 Y130.245 E0.16166
G1 X126.887 Y130.025 E0.19279
G1 X127.232 Y129.801 E0.22563
G1 X127.49 Y129.648 E0.24957
G1 X127.771 Y129.186 E0.29274
G1 X128.256 Y128.543 E0.35703
G1 X128.801 Y127.952 E0.4212
G1 X129.403 Y127.418 E0.48544
G1 X130.055 Y126.946 E0.54969
G1 X130.751 Y126.541 E0.61397
G1 X131.483 Y126.207 E0.67819
G1 X132.245 Y125.948 E0.74244
G1 X133.028 Y125.765 E0.80662
G1 X133.826 Y125.661 E0.87086
G1 X134.473 Y125.635 E0.92255
G1 X163.461 Y125.636 E3.2365
G1 X164.265 Y125.676 E3.30076
G1 X165.061 Y125.796 E3.36501
G1 X165.841 Y125.993 E3.42923
G1 X166.597 Y126.268 E3.49345
G1 X167.323 Y126.616 E3.55771
G1 X168.01 Y127.034 E3.62191
G1 X168.653 Y127.519 E3.6862
G1 X169.244 Y128.065 E3.75043
G1 X169.778 Y128.666 E3.8146
G1 X170.25 Y129.318 E3.87885
G1 X170.288 Y129.383 E3.88486
G1 X170.45 Y129.472 E3.89962
G1 X170.725 Y129.628 E3.92486
G1 X171.037 Y129.814 E3.95385
G1 X171.323 Y129.998 E3.981
G1 X171.582 Y130.172 E4.0059
G1 X172.125 Y130.571 E4.05969
G1 X172.46 Y130.839 E4.09394
G1 X172.901 Y131.218 E4.14035
G1 X173.128 Y131.428 E4.16504
G1 X173.376 Y131.667 E4.19253
G1 X173.701 Y132.003 E4.22985
G1 X173.887 Y132.207 E4.25188
G1 X174.108 Y132.46 E4.2787
G1 X174.191 Y132.559 E4.28901
G1 X174.367 Y132.777 E4.31138
G1 X174.549 Y133.01 E4.33498
G1 X174.928 Y133.536 E4.38673
G1 X175.174 Y133.909 E4.4224
G1 X175.515 Y134.476 E4.47521
G1 X175.726 Y134.864 E4.51047
G1 X175.785 Y134.976 E4.52057
G1 X176.013 Y135.444 E4.56213
G1 X176.136 Y135.719 E4.58617
G1 X176.298 Y136.108 E4.61981
G1 X176.412 Y136.412 E4.64573
G1 X176.478 Y136.598 E4.66148
G1 X176.649 Y137.042 E4.69946
G1 X176.644 Y137.044 E4.69989
G1 X176.85 Y137.599 E4.74715
G1 X177.054 Y138.377 E4.81135
G1 X177.179 Y139.172 E4.87559
G1 X177.225 Y140.035 E4.94458
G1 X177.225 Y171.832 E7.48275
G1 X177.185 Y172.636 E7.54701
G1 X177.065 Y173.432 E7.61127
G1 X176.868 Y174.212 E7.67548
G1 X176.643 Y174.834 E7.72828
G1 X176.483 Y175.256 E7.76431
G1 X176.415 Y175.453 E7.78095
G1 X176.154 Y176.111 E7.83745
G1 X175.989 Y176.479 E7.86964
G1 X175.676 Y177.104 E7.92544
G1 X175.479 Y177.458 E7.95778
G1 X175.153 Y177.993 E8.00779
G1 X174.933 Y178.325 E8.03958
G1 X174.547 Y178.859 E8.09218
G1 X174.3 Y179.173 E8.12407
G1 X173.901 Y179.643 E8.17328
G1 X173.643 Y179.924 E8.20373
G1 X173.229 Y180.343 E8.25075
G1 X172.955 Y180.601 E8.28079
G1 X172.616 Y180.902 E8.31698
G1 X172.396 Y181.085 E8.33982
G1 X172.172 Y181.264 E8.36271
G1 X171.814 Y181.534 E8.39851
G1 X171.578 Y181.698 E8.42145
G1 X171.323 Y181.87 E8.446
G1 X171.015 Y182.069 E8.47527
G1 X170.718 Y182.246 E8.50287
G1 X170.45 Y182.398 E8.52746
G1 X170.114 Y182.578 E8.55789
G1 X169.791 Y182.736 E8.58659
G1 X169.507 Y182.868 E8.61159
G1 X169.207 Y183.001 E8.63779
G1 X168.84 Y183.148 E8.66935
G1 X168.547 Y183.257 E8.6943
G1 X168.147 Y183.394 E8.72805
G1 X167.848 Y183.485 E8.753
G1 X167.544 Y183.571 E8.77822
G1 X167.215 Y183.657 E8.80536
G1 X166.863 Y183.736 E8.83416
G1 X166.557 Y183.798 E8.85908
G1 X166.047 Y183.884 E8.90037
G1 X165.787 Y183.918 E8.9213
G1 X165.468 Y183.955 E8.94693
G1 X165.133 Y183.987 E8.9738
G1 X165.025 Y183.995 E8.98244
G1 X164.722 Y184.012 E9.00667
G1 X164.42 Y184.023 E9.03079
G1 X164.125 Y184.028 E9.05434
G1 X134.125 Y184.029 E11.44907
G1 X133.77 Y184.021 E11.47741
G1 X133.382 Y184.004 E11.50842
G1 X133.097 Y183.987 E11.53121
G1 X132.72 Y183.952 E11.56143
G1 X132.431 Y183.918 E11.58466
G1 X131.981 Y183.852 E11.62096
G1 X131.708 Y183.802 E11.64312
G1 X131.403 Y183.741 E11.66795
G1 X131.003 Y183.65 E11.70069
G1 X130.712 Y183.573 E11.72472
G1 X130.408 Y183.487 E11.74994
G1 X130.035 Y183.372 E11.7811
G1 X129.733 Y183.268 E11.80659
G1 X129.432 Y183.157 E11.8322
G1 X129.056 Y183.007 E11.86452
G1 X128.751 Y182.873 E11.89111
G1 X128.46 Y182.738 E11.91672
G1 X127.916 Y182.46 E11.96548
G1 X127.569 Y182.266 E11.99722
G1 X127.034 Y181.939 E12.04727
G1 X126.696 Y181.714 E12.07968
G1 X126.129 Y181.3 E12.13572
G1 X125.796 Y181.034 E12.16974
G1 X125.349 Y180.65 E12.21678
G1 X125.121 Y180.439 E12.24158
G1 X124.874 Y180.201 E12.26896
G1 X124.563 Y179.88 E12.30464
G1 X124.377 Y179.677 E12.32661
G1 X124.147 Y179.415 E12.35444
G1 X124.063 Y179.315 E12.36487
G1 X123.858 Y179.061 E12.39092
G1 X123.677 Y178.827 E12.41454
G1 X123.33 Y178.343 E12.46208
G1 X123.083 Y177.97 E12.49779
G1 X122.729 Y177.382 E12.55257
G1 X122.524 Y177.004 E12.5869
G1 X122.465 Y176.892 E12.597
G1 X122.237 Y176.424 E12.63856
G1 X122.114 Y176.149 E12.66261
G1 X121.952 Y175.76 E12.69624
G1 X121.838 Y175.456 E12.72216
G1 X121.771 Y175.269 E12.73802
G1 X121.603 Y174.832 E12.77539
G1 X121.39 Y174.236 E12.82591
G1 X121.189 Y173.457 E12.89013
G1 X121.067 Y172.661 E12.95441
G1 X121.025 Y171.833 E13.02059
G1 X121.025 Y140.036 E15.55877
G1 X121.065 Y139.232 E15.62302
G1 X121.185 Y138.436 E15.68728
G1 X121.382 Y137.656 E15.7515
G1 X121.603 Y137.046 E15.80329
G1 X121.754 Y136.646 E15.83742
G1 X121.855 Y136.36 E15.86163
G1 X122.093 Y135.766 E15.91271
G1 X122.257 Y135.399 E15.9448
G1 X122.574 Y134.765 E16.00138
G1 X122.771 Y134.411 E16.03372
G1 X123.097 Y133.876 E16.08373
G1 X123.317 Y133.544 E16.11552
G1 X123.695 Y133.02 E16.1671
G1 X123.942 Y132.705 E16.19905
G1 X124.369 Y132.204 E16.2516
G1 X124.627 Y131.925 E16.28193
G1 X125.009 Y131.538 E16.32534
G0 F7500 X125.421 Y131.974
G1 F1500 X125.696 Y131.714 E16.35555
G1 X125.976 Y131.463 E16.38556
G1 X126.232 Y131.249 E16.4122
G1 X126.455 Y131.071 E16.43497
G1 X126.903 Y130.74 E16.47944
G1 X127.225 Y130.52 E16.51057
G1 X127.545 Y130.313 E16.54099
G1 X127.828 Y130.145 E16.56726
G1 X127.951 Y130.031 E16.58065
G1 X128.368 Y129.379 E16.64243
G1 X128.85 Y128.773 E16.70424
G1 X129.391 Y128.219 E16.76605
G1 X129.987 Y127.725 E16.82784
G1 X130.631 Y127.294 E16.8897
G1 X131.315 Y126.932 E16.95147
G1 X132.033 Y126.643 E17.01325
G1 X132.778 Y126.429 E17.07513
G1 X133.54 Y126.293 E17.13692
G1 X134.473 Y126.235 E17.21154
G1 X163.461 Y126.236 E19.52548
G1 X164.235 Y126.276 E19.58735
G1 X165 Y126.396 E19.64916
G1 X165.748 Y126.593 E19.71091
G1 X166.473 Y126.867 E19.77277
G1 X167.165 Y127.214 E19.83457
G1 X167.817 Y127.631 E19.89635
G1 X168.424 Y128.113 E19.95822
G1 X168.977 Y128.654 E20.01997
G1 X169.472 Y129.25 E20.08182
G1 X169.865 Y129.839 E20.13834
G1 X170.154 Y129.994 E20.16452
G1 X170.429 Y130.15 E20.18976
G1 X170.718 Y130.322 E20.2166
G1 X170.988 Y130.496 E20.24224
G1 X171.247 Y130.67 E20.26715
G1 X171.75 Y131.039 E20.31695
G1 X172.085 Y131.307 E20.35119
G1 X172.493 Y131.659 E20.3942
G1 X172.869 Y132.01 E20.43526
G1 X172.957 Y132.096 E20.44509
G1 X173.257 Y132.407 E20.47958
G1 X173.443 Y132.611 E20.50162
G1 X173.648 Y132.846 E20.52651
G1 X173.895 Y133.146 E20.55753
G1 X174.077 Y133.379 E20.58113
G1 X174.427 Y133.867 E20.62907
G1 X174.673 Y134.24 E20.66473
G1 X174.989 Y134.764 E20.71358
G1 X175.196 Y135.143 E20.74805
G1 X175.255 Y135.255 E20.75816
G1 X175.465 Y135.689 E20.79664
G1 X175.588 Y135.964 E20.82069
G1 X175.739 Y136.324 E20.85185
G1 X175.847 Y136.613 E20.87648
G1 X175.923 Y136.826 E20.89453
G1 X176.089 Y137.258 E20.93147
G1 X176.286 Y137.807 E20.97803
G1 X176.478 Y138.557 E21.03983
G1 X176.591 Y139.323 E21.10164
G1 X176.625 Y140.035 E21.15854
G1 X176.625 Y171.832 E23.69671
G1 X176.585 Y172.605 E23.7585
G1 X176.466 Y173.37 E23.8203
G1 X176.268 Y174.119 E23.88214
G1 X176.084 Y174.618 E23.9246
G1 X175.919 Y175.05 E23.96151
G1 X175.848 Y175.256 E23.9789
G1 X175.607 Y175.865 E24.03118
G1 X175.442 Y176.233 E24.06338
G1 X175.152 Y176.812 E24.11507
G1 X174.955 Y177.166 E24.14741
G1 X174.653 Y177.662 E24.19376
G1 X174.433 Y177.994 E24.22555
G1 X174.076 Y178.488 E24.27421
G1 X173.829 Y178.802 E24.3061
G1 X173.459 Y179.237 E24.35168
G1 X173.201 Y179.518 E24.38213
G1 X172.817 Y179.906 E24.42571
G1 X172.543 Y180.164 E24.45575
G1 X172.23 Y180.443 E24.48922
G1 X172.021 Y180.616 E24.51088
G1 X171.797 Y180.795 E24.53377
G1 X171.466 Y181.045 E24.56688
G1 X171.243 Y181.201 E24.5886
G1 X170.988 Y181.373 E24.61315
G1 X170.697 Y181.56 E24.64077
G1 X170.422 Y181.724 E24.66633
G1 X170.154 Y181.876 E24.69092
G1 X169.843 Y182.043 E24.7191
G1 X169.538 Y182.192 E24.74619
G1 X169.254 Y182.324 E24.77119
G1 X168.97 Y182.45 E24.79599
G1 X168.631 Y182.585 E24.82512
G1 X168.338 Y182.694 E24.85008
G1 X168.041 Y182.798 E24.8752
G1 X167.685 Y182.908 E24.90494
G1 X167.381 Y182.994 E24.93016
G1 X166.992 Y183.093 E24.9622
G1 X166.744 Y183.148 E24.98248
G1 X166.438 Y183.21 E25.0074
G1 X165.966 Y183.29 E25.04561
G1 X165.718 Y183.322 E25.06557
G1 X165.399 Y183.359 E25.09121
G1 X165.089 Y183.389 E25.11607
G1 X164.981 Y183.397 E25.12471
G1 X164.7 Y183.412 E25.14718
G1 X164.398 Y183.423 E25.1713
G1 X164.125 Y183.428 E25.1931
G1 X134.125 Y183.429 E27.58783
G1 X133.797 Y183.422 E27.61401
G1 X133.409 Y183.405 E27.64501
G1 X133.139 Y183.388 E27.66661
G1 X132.79 Y183.356 E27.69459
G1 X132.501 Y183.322 E27.71781
G1 X132.084 Y183.261 E27.75146
G1 X131.826 Y183.213 E27.7724
G1 X131.521 Y183.152 E27.79723
G1 X131.15 Y183.068 E27.8276
G1 X130.875 Y182.996 E27.85029
G1 X130.571 Y182.91 E27.87551
G1 X130.22 Y182.801 E27.90484
G1 X129.941 Y182.705 E27.9284
G1 X129.64 Y182.594 E27.95401
G1 X129.292 Y182.455 E27.98392
G1 X129.004 Y182.329 E28.00901
G1 X128.713 Y182.194 E28.03462
G1 X128.209 Y181.936 E28.07982
G1 X127.862 Y181.742 E28.11155
G1 X127.366 Y181.439 E28.15795
G1 X127.028 Y181.214 E28.19036
G1 X126.503 Y180.831 E28.24223
G1 X126.17 Y180.565 E28.27625
G1 X125.757 Y180.21 E28.31973
G1 X125.529 Y179.999 E28.34452
G1 X125.293 Y179.772 E28.37066
G1 X125.005 Y179.475 E28.40369
G1 X124.819 Y179.272 E28.42566
G1 X124.606 Y179.029 E28.45146
G1 X124.522 Y178.929 E28.46188
G1 X124.333 Y178.694 E28.48596
G1 X124.152 Y178.46 E28.50957
G1 X123.831 Y178.012 E28.55356
G1 X123.584 Y177.639 E28.58927
G1 X123.256 Y177.095 E28.63998
G1 X123.054 Y176.725 E28.67363
G1 X122.995 Y176.613 E28.68374
G1 X122.785 Y176.179 E28.72222
G1 X122.662 Y175.904 E28.74627
G1 X122.511 Y175.544 E28.77743
G1 X122.403 Y175.255 E28.80206
G1 X122.327 Y175.042 E28.82011
G1 X122.163 Y174.616 E28.85655
G1 X121.954 Y174.03 E28.90621
G1 X121.766 Y173.279 E28.96801
G1 X121.656 Y172.513 E29.02978
G1 X121.625 Y171.833 E29.08412
G1 X121.625 Y140.036 E31.6223
G1 X121.665 Y139.263 E31.68408
G1 X121.784 Y138.498 E31.74588
G1 X121.982 Y137.749 E31.80772
G1 X122.16 Y137.261 E31.84919
G1 X122.322 Y136.839 E31.88527
G1 X122.421 Y136.561 E31.90883
G1 X122.641 Y136.011 E31.95611
G1 X122.805 Y135.644 E31.9882
G1 X123.098 Y135.057 E32.04057
G1 X123.295 Y134.703 E32.07291
G1 X123.597 Y134.207 E32.11926
G1 X123.817 Y133.875 E32.15106
G1 X124.167 Y133.39 E32.1988
G1 X124.414 Y133.075 E32.23075
G1 X124.81 Y132.611 E32.27945
G1 X125.068 Y132.332 E32.30978
G1 X125.421 Y131.974 E32.34991
G0 F7500 X125.834 Y132.41
G1 F1500 X126.109 Y132.15 E32.38012
G1 X126.366 Y131.919 E32.40771
G1 X126.607 Y131.718 E32.43276
G1 X126.83 Y131.54 E32.45553
G1 X127.241 Y131.236 E32.49634
G1 X127.563 Y131.016 E32.52747
G1 X127.858 Y130.825 E32.55552
G1 X128.124 Y130.667 E32.58022
G1 X128.377 Y130.523 E32.60346
G1 X128.549 Y130.197 E32.63288
G1 X128.964 Y129.58 E32.69223
G1 X129.442 Y129.012 E32.75149
G1 X129.979 Y128.499 E32.81078
G1 X130.568 Y128.046 E32.87009
G1 X131.202 Y127.66 E32.92934
G1 X131.874 Y127.343 E32.98865
G1 X132.576 Y127.101 E33.04792
G1 X133.3 Y126.935 E33.10722
G1 X134.038 Y126.849 E33.16653
G1 X134.473 Y126.835 E33.20127
G1 X163.461 Y126.836 E35.51521
G1 X164.203 Y126.876 E35.57453
G1 X164.936 Y126.995 E35.63381
G1 X165.652 Y127.193 E35.69311
G1 X166.342 Y127.466 E35.75234
G1 X167 Y127.812 E35.81168
G1 X167.616 Y128.227 E35.87097
G1 X168.184 Y128.706 E35.93028
G1 X168.697 Y129.242 E35.98951
G1 X169.15 Y129.831 E36.04882
G1 X169.431 Y130.293 E36.09199
G1 X169.704 Y130.431 E36.1164
G1 X169.858 Y130.515 E36.13041
G1 X170.133 Y130.671 E36.15564
G1 X170.398 Y130.83 E36.18031
G1 X170.654 Y130.994 E36.20458
G1 X170.913 Y131.168 E36.22949
G1 X171.375 Y131.508 E36.27528
G1 X171.71 Y131.776 E36.30952
G1 X172.086 Y132.099 E36.34909
G1 X172.313 Y132.309 E36.37378
G1 X172.538 Y132.525 E36.39867
G1 X172.814 Y132.811 E36.4304
G1 X173 Y133.015 E36.45244
G1 X173.189 Y133.231 E36.47535
G1 X173.422 Y133.516 E36.50473
G1 X173.604 Y133.749 E36.52833
G1 X173.926 Y134.197 E36.57237
G1 X174.172 Y134.57 E36.60804
G1 X174.463 Y135.052 E36.65298
G1 X174.665 Y135.423 E36.6867
G1 X174.724 Y135.535 E36.69681
G1 X174.918 Y135.934 E36.73222
G1 X175.041 Y136.209 E36.75627
G1 X175.179 Y136.541 E36.78497
G1 X175.282 Y136.814 E36.80826
G1 X175.362 Y137.04 E36.8274
G1 X175.529 Y137.473 E36.86445
G1 X175.723 Y138.014 E36.91032
G1 X175.901 Y138.735 E36.9696
G1 X176.002 Y139.471 E37.02891
G1 X176.025 Y140.035 E37.07396
G1 X176.025 Y171.832 E39.61214
G1 X175.985 Y172.574 E39.67145
G1 X175.866 Y173.307 E39.73073
G1 X175.668 Y174.023 E39.79003
G1 X175.526 Y174.403 E39.82241
G1 X175.365 Y174.819 E39.85802
G1 X175.282 Y175.059 E39.87829
G1 X175.059 Y175.62 E39.92648
G1 X174.894 Y175.988 E39.95867
G1 X174.627 Y176.52 E40.00619
G1 X174.43 Y176.874 E40.03853
G1 X174.153 Y177.33 E40.08112
G1 X173.933 Y177.662 E40.11291
G1 X173.604 Y178.117 E40.15773
G1 X173.357 Y178.431 E40.18962
G1 X173.017 Y178.832 E40.23159
G1 X172.759 Y179.113 E40.26204
G1 X172.406 Y179.47 E40.30211
G1 X172.132 Y179.728 E40.33215
G1 X171.844 Y179.984 E40.36291
G1 X171.646 Y180.147 E40.38339
G1 X171.422 Y180.326 E40.40627
G1 X171.117 Y180.557 E40.43681
G1 X170.907 Y180.703 E40.45723
G1 X170.652 Y180.875 E40.48178
G1 X170.379 Y181.051 E40.50771
G1 X170.126 Y181.202 E40.53123
G1 X169.858 Y181.354 E40.55583
G1 X169.572 Y181.507 E40.58172
G1 X169.285 Y181.648 E40.60724
G1 X169.001 Y181.78 E40.63224
G1 X168.734 Y181.898 E40.65554
G1 X168.422 Y182.023 E40.68237
G1 X168.129 Y182.132 E40.70733
G1 X167.776 Y182.253 E40.73711
G1 X167.521 Y182.33 E40.75838
G1 X167.217 Y182.416 E40.7836
G1 X166.937 Y182.489 E40.80669
G1 X166.625 Y182.56 E40.83224
G1 X166.319 Y182.622 E40.85716
G1 X165.884 Y182.695 E40.89237
G1 X165.649 Y182.726 E40.91129
G1 X165.33 Y182.763 E40.93692
G1 X165.045 Y182.79 E40.95978
G1 X164.937 Y182.798 E40.96842
G1 X164.678 Y182.812 E40.98912
G1 X164.376 Y182.823 E41.01325
G1 X164.125 Y182.828 E41.03329
G1 X134.125 Y182.829 E43.42802
G1 X133.823 Y182.822 E43.45213
G1 X133.252 Y182.795 E43.49776
G1 X132.86 Y182.76 E43.52918
G1 X132.571 Y182.726 E43.55241
G1 X132.188 Y182.67 E43.5833
G1 X131.944 Y182.625 E43.60311
G1 X131.639 Y182.564 E43.62794
G1 X131.298 Y182.487 E43.65584
G1 X131.039 Y182.418 E43.67724
G1 X130.735 Y182.332 E43.70246
G1 X130.405 Y182.231 E43.73001
G1 X130.149 Y182.142 E43.75164
G1 X129.848 Y182.031 E43.77725
G1 X129.527 Y181.903 E43.80483
G1 X129.256 Y181.784 E43.82846
G1 X128.965 Y181.649 E43.85407
G1 X128.502 Y181.413 E43.89555
G1 X128.155 Y181.219 E43.92728
G1 X127.698 Y180.94 E43.97002
G1 X127.36 Y180.715 E44.00244
G1 X126.878 Y180.362 E44.05013
G1 X126.545 Y180.096 E44.08415
G1 X126.164 Y179.769 E44.12423
G1 X125.936 Y179.558 E44.14902
G1 X125.712 Y179.343 E44.17381
G1 X125.448 Y179.069 E44.20418
G1 X125.262 Y178.866 E44.22616
G1 X125.066 Y178.643 E44.24986
G1 X124.982 Y178.543 E44.26028
G1 X124.807 Y178.327 E44.28247
G1 X124.626 Y178.093 E44.30609
G1 X124.331 Y177.681 E44.34654
G1 X124.084 Y177.308 E44.38225
G1 X123.782 Y176.807 E44.42894
G1 X123.585 Y176.445 E44.46184
G1 X123.526 Y176.333 E44.47195
G1 X123.332 Y175.934 E44.50736
G1 X123.209 Y175.659 E44.53141
G1 X123.071 Y175.327 E44.56011
G1 X122.968 Y175.054 E44.5834
G1 X122.883 Y174.814 E44.60372
G1 X122.723 Y174.4 E44.63915
G1 X122.519 Y173.825 E44.68786
G1 X122.343 Y173.104 E44.7471
G1 X122.246 Y172.368 E44.80636
G1 X122.225 Y171.833 E44.8491
G1 X122.225 Y140.036 E47.38727
