;FLAVOR:Marlin
;TIME:3356
;Filament used: 7.3005m
;Layer height: 0.32
;MINX:88.799
;MINY:127.149
;MINZ:0.15
;MAXX:211.2
;MAXY:172.85
;MAXZ:16.805
;Generated with Cura_SteamEngine master
M140 S60
M105
M190 S60
M104 S250
M105
M109 S250
M82 ;absolute extrusion mode
G28 ;Home
G1 Z15.0 F2000 ;Move the platform
G92 E0
G92 E0
G1 F1200 E-4
;LAYER_COUNT:48
;LAYER:-6
M107 P2
G0 F6000 X96.355 Y130.97 Z0.15
;TYPE:SUPPORT-INTERFACE
G1 F1200 E0
G1 F1800 X97.074 Y130.451 E0.04424
G1 X97.212 Y130.358 E0.05254
G1 X97.645 Y130.084 E0.07811
G1 X98.08 Y129.821 E0.10347
G1 X98.19 Y129.757 E0.10982
G1 X98.988 Y129.315 E0.15533
G1 X99.136 Y129.24 E0.16361
G1 X99.649 Y128.997 E0.19193
G1 X100.117 Y128.787 E0.21752
G1 X100.228 Y128.74 E0.22353
G1 X101.049 Y128.408 E0.26771
G1 X101.2 Y128.352 E0.27575
G1 X101.697 Y128.186 E0.30189
G1 X102.222 Y128.023 E0.32932
G1 X102.325 Y127.993 E0.33467
G1 X103.19 Y127.76 E0.37936
G1 X103.347 Y127.722 E0.38742
G1 X103.914 Y127.607 E0.41628
G1 X104.374 Y127.523 E0.43961
G1 X104.554 Y127.494 E0.44871
G1 X105.424 Y127.369 E0.49256
G1 X105.548 Y127.355 E0.49878
G1 X106.142 Y127.307 E0.52852
G1 X106.625 Y127.278 E0.55266
G1 X107.455 Y127.252 E0.59409
G1 X107.574 Y127.25 E0.60002
G1 X127.433 Y127.25 E1.59079
G1 X128.324 Y127.275 E1.63526
G1 X128.91 Y127.31 E1.66455
G1 X129.889 Y127.407 E1.71363
G1 X130.043 Y127.427 E1.72138
G1 X130.635 Y127.524 E1.75131
G1 X131.089 Y127.608 E1.77434
G1 X131.25 Y127.641 E1.78254
G1 X132.097 Y127.831 E1.82585
G1 X132.265 Y127.874 E1.8345
G1 X132.78 Y128.023 E1.86125
G1 X133.396 Y128.218 E1.89348
G1 X134.263 Y128.527 E1.9394
G1 X134.395 Y128.578 E1.94646
G1 X134.907 Y128.797 E1.97425
G1 X135.337 Y128.99 E1.99776
G1 X135.483 Y129.06 E2.00584
G1 X136.29 Y129.462 E2.05082
G1 X136.387 Y129.514 E2.05631
G1 X136.927 Y129.825 E2.0874
G1 X137.418 Y130.124 E2.11608
G1 X138.205 Y130.644 E2.16314
G1 X138.311 Y130.718 E2.16959
G1 X138.731 Y131.032 E2.19575
G1 X139.22 Y131.416 E2.22677
G1 X139.942 Y132.027 E2.27396
G1 X140.038 Y132.114 E2.28042
G1 X140.496 Y132.553 E2.31207
G1 X140.833 Y132.892 E2.33592
G1 X140.897 Y132.958 E2.34051
G1 X141.52 Y133.632 E2.3863
G1 X141.599 Y133.723 E2.39231
G1 X142.07 Y134.2 E2.42575
G1 X142.607 Y134.622 E2.45983
G1 X143.192 Y134.973 E2.49386
G1 X143.817 Y135.247 E2.52791
G1 X144.472 Y135.441 E2.56199
G1 X145.143 Y135.549 E2.5959
G1 X145.661 Y135.575 E2.62177
G1 X154.351 Y135.575 E3.05532
G1 X155.019 Y135.533 E3.08871
G1 X155.69 Y135.404 E3.1228
G1 X156.339 Y135.191 E3.15688
G1 X156.956 Y134.899 E3.19094
G1 X157.531 Y134.531 E3.22499
G1 X158.054 Y134.094 E3.259
G1 X158.452 Y133.673 E3.2879
G1 X158.669 Y133.417 E3.30464
G1 X158.764 Y133.312 E3.31171
G1 X159.203 Y132.854 E3.34336
G1 X159.607 Y132.453 E3.37176
G1 X160.28 Y131.832 E3.41744
G1 X160.41 Y131.718 E3.42607
G1 X160.829 Y131.377 E3.45302
G1 X161.271 Y131.033 E3.48097
G1 X161.355 Y130.97 E3.4862
G1 X162.074 Y130.451 E3.53044
G1 X162.212 Y130.358 E3.53875
G1 X162.645 Y130.084 E3.56431
G1 X163.08 Y129.821 E3.58967
G1 X163.19 Y129.757 E3.59602
G1 X163.988 Y129.315 E3.64153
G1 X164.136 Y129.24 E3.64981
G1 X164.649 Y128.997 E3.67813
G1 X165.117 Y128.787 E3.70372
G1 X165.228 Y128.74 E3.70973
G1 X166.049 Y128.408 E3.75392
G1 X166.2 Y128.352 E3.76195
G1 X166.697 Y128.186 E3.78809
G1 X167.222 Y128.023 E3.81552
G1 X167.325 Y127.993 E3.82087
G1 X168.19 Y127.76 E3.86556
G1 X168.347 Y127.722 E3.87362
G1 X168.914 Y127.607 E3.90249
G1 X169.374 Y127.523 E3.92582
G1 X169.554 Y127.494 E3.93491
G1 X170.424 Y127.369 E3.97876
G1 X170.548 Y127.355 E3.98499
G1 X171.142 Y127.307 E4.01472
G1 X171.625 Y127.278 E4.03886
G1 X172.455 Y127.252 E4.08029
G1 X172.574 Y127.25 E4.08623
G1 X192.433 Y127.25 E5.077
G1 X193.324 Y127.275 E5.12147
G1 X193.91 Y127.31 E5.15075
G1 X194.889 Y127.407 E5.19984
G1 X195.043 Y127.427 E5.20758
G1 X195.635 Y127.524 E5.23751
G1 X196.089 Y127.608 E5.26055
G1 X196.25 Y127.641 E5.26875
G1 X197.097 Y127.831 E5.31205
G1 X197.265 Y127.874 E5.3207
G1 X197.78 Y128.023 E5.34745
G1 X198.396 Y128.218 E5.37969
G1 X199.263 Y128.527 E5.42561
G1 X199.395 Y128.578 E5.43267
G1 X199.907 Y128.797 E5.46045
G1 X200.337 Y128.99 E5.48396
G1 X200.483 Y129.06 E5.49204
G1 X201.29 Y129.462 E5.53702
G1 X201.387 Y129.514 E5.54251
G1 X201.927 Y129.825 E5.5736
G1 X202.418 Y130.124 E5.60228
G1 X203.205 Y130.644 E5.64934
G1 X203.311 Y130.718 E5.65579
G1 X203.731 Y131.032 E5.68195
G1 X204.22 Y131.416 E5.71297
G1 X204.942 Y132.027 E5.76016
G1 X205.038 Y132.114 E5.76663
G1 X205.496 Y132.553 E5.79828
G1 X205.833 Y132.892 E5.82212
G1 X205.904 Y132.965 E5.82721
G1 X206.518 Y133.63 E5.87236
G1 X206.632 Y133.76 E5.88099
G1 X206.979 Y134.186 E5.9084
G1 X207.311 Y134.612 E5.93534
G1 X207.384 Y134.71 E5.94144
G1 X207.882 Y135.399 E5.98385
G1 X207.992 Y135.562 E5.99367
G1 X208.262 Y135.988 E6.01883
G1 X208.529 Y136.43 E6.04459
G1 X208.593 Y136.54 E6.05094
G1 X209.035 Y137.338 E6.09645
G1 X209.11 Y137.486 E6.10473
G1 X209.351 Y137.994 E6.13278
G1 X209.563 Y138.467 E6.15864
G1 X209.61 Y138.578 E6.16465
G1 X209.942 Y139.399 E6.20884
G1 X209.998 Y139.55 E6.21687
G1 X210.164 Y140.047 E6.24301
G1 X210.323 Y140.557 E6.26966
G1 X210.362 Y140.692 E6.27668
G1 X210.59 Y141.54 E6.32048
G1 X210.626 Y141.687 E6.32804
G1 X210.743 Y142.262 E6.35731
G1 X210.826 Y142.719 E6.38048
G1 X210.855 Y142.897 E6.38948
G1 X210.981 Y143.774 E6.43368
G1 X210.995 Y143.898 E6.43991
G1 X211.043 Y144.486 E6.46934
G1 X211.071 Y144.952 E6.49263
G1 X211.098 Y145.775 E6.53371
G1 X211.1 Y145.918 E6.54085
G1 X211.1 Y154.083 E6.9482
G1 X211.074 Y154.998 E6.99387
G1 X211.041 Y155.553 E7.02161
G1 X210.943 Y156.539 E7.07104
G1 X210.925 Y156.681 E7.07818
G1 X210.829 Y157.272 E7.10806
G1 X210.744 Y157.732 E7.13139
G1 X210.716 Y157.872 E7.13852
G1 X210.519 Y158.747 E7.18326
G1 X210.477 Y158.915 E7.1919
G1 X210.325 Y159.436 E7.21898
G1 X210.133 Y160.046 E7.25088
G1 X209.827 Y160.903 E7.29628
G1 X209.777 Y161.033 E7.30323
G1 X209.597 Y161.458 E7.32626
G1 X209.366 Y161.974 E7.35446
G1 X209.293 Y162.128 E7.36297
G1 X208.883 Y162.951 E7.40884
G1 X208.841 Y163.03 E7.4133
G1 X208.552 Y163.533 E7.44225
G1 X208.242 Y164.043 E7.47202
G1 X207.706 Y164.855 E7.52056
G1 X207.632 Y164.961 E7.52701
G1 X207.318 Y165.381 E7.55317
G1 X206.995 Y165.794 E7.57933
G1 X206.933 Y165.87 E7.58423
G1 X206.325 Y166.59 E7.63124
G1 X206.236 Y166.688 E7.63784
G1 X205.814 Y167.129 E7.6683
G1 X205.458 Y167.483 E7.69334
G1 X205.385 Y167.554 E7.69842
G1 X204.72 Y168.168 E7.74358
G1 X204.591 Y168.281 E7.75214
G1 X204.171 Y168.623 E7.77916
G1 X203.729 Y168.968 E7.80713
G1 X202.936 Y169.542 E7.85597
G1 X202.788 Y169.642 E7.86488
G1 X202.355 Y169.916 E7.89045
G1 X201.92 Y170.179 E7.91581
G1 X201.81 Y170.243 E7.92216
G1 X201.012 Y170.685 E7.96767
G1 X200.864 Y170.76 E7.97595
G1 X200.351 Y171.003 E8.00427
G1 X199.883 Y171.213 E8.02986
G1 X199.772 Y171.26 E8.03587
G1 X198.951 Y171.592 E8.08005
G1 X198.8 Y171.648 E8.08809
G1 X198.303 Y171.814 E8.11423
G1 X197.785 Y171.975 E8.14129
G1 X197.675 Y172.007 E8.14701
G1 X196.81 Y172.24 E8.1917
G1 X196.653 Y172.278 E8.19976
G1 X196.086 Y172.393 E8.22862
G1 X195.632 Y172.476 E8.25165
G1 X195.451 Y172.505 E8.26079
G1 X194.576 Y172.631 E8.3049
G1 X194.452 Y172.645 E8.31112
G1 X193.858 Y172.693 E8.34086
G1 X193.375 Y172.722 E8.365
G1 X192.545 Y172.748 E8.40643
G1 X192.426 Y172.75 E8.41236
G1 X107.567 Y172.75 E12.646
G1 X106.676 Y172.725 E12.69047
G1 X106.09 Y172.69 E12.71975
G1 X105.111 Y172.593 E12.76884
G1 X104.957 Y172.573 E12.77658
G1 X104.478 Y172.496 E12.80079
G1 X103.911 Y172.392 E12.82955
G1 X103.75 Y172.359 E12.83775
G1 X102.903 Y172.169 E12.88105
G1 X102.735 Y172.126 E12.8897
G1 X102.22 Y171.977 E12.91645
G1 X101.604 Y171.782 E12.94869
G1 X100.737 Y171.473 E12.99461
G1 X100.605 Y171.422 E13.00167
G1 X100.091 Y171.202 E13.02956
G1 X99.663 Y171.01 E13.05296
G1 X99.517 Y170.94 E13.06104
G1 X98.699 Y170.533 E13.10662
G1 X98.62 Y170.491 E13.11109
G1 X98.073 Y170.175 E13.1426
G1 X97.591 Y169.882 E13.17075
G1 X96.795 Y169.356 E13.21835
G1 X96.689 Y169.282 E13.2248
G1 X96.241 Y168.946 E13.25273
G1 X95.773 Y168.578 E13.28244
G1 X95.058 Y167.973 E13.32916
G1 X94.962 Y167.886 E13.33563
G1 X94.5 Y167.443 E13.36756
G1 X94.161 Y167.102 E13.39155
G1 X94.096 Y167.035 E13.39621
G1 X93.482 Y166.37 E13.44136
G1 X93.368 Y166.24 E13.44999
G1 X93.01 Y165.8 E13.47829
G1 X92.683 Y165.379 E13.50489
G1 X92.62 Y165.295 E13.51012
G1 X92.101 Y164.576 E13.55436
G1 X92.008 Y164.438 E13.56267
G1 X91.718 Y163.979 E13.58975
G1 X91.45 Y163.534 E13.61567
G1 X91.395 Y163.438 E13.62119
G1 X90.958 Y162.649 E13.66619
G1 X90.89 Y162.514 E13.67373
G1 X90.636 Y161.978 E13.70332
G1 X90.431 Y161.52 E13.72835
G1 X90.058 Y160.601 E13.77784
G1 X89.998 Y160.439 E13.78646
G1 X89.836 Y159.953 E13.81201
G1 X89.674 Y159.431 E13.83928
G1 X89.636 Y159.301 E13.84604
G1 X89.41 Y158.46 E13.88948
G1 X89.371 Y158.299 E13.89775
G1 X89.257 Y157.736 E13.92641
G1 X89.173 Y157.276 E13.94974
G1 X89.144 Y157.096 E13.95883
G1 X89.021 Y156.239 E14.00203
G1 X89.002 Y156.068 E14.01061
G1 X88.957 Y155.508 E14.03864
G1 X88.928 Y155.023 E14.06288
G1 X88.923 Y154.919 E14.06807
G1 X88.9 Y154.082 E14.10985
G1 X88.9 Y145.916 E14.51725
G1 X88.902 Y145.782 E14.52394
G1 X88.926 Y145.002 E14.56287
G1 X88.959 Y144.447 E14.59061
G1 X89.057 Y143.461 E14.64004
G1 X89.075 Y143.319 E14.64718
G1 X89.173 Y142.718 E14.67756
G1 X89.256 Y142.269 E14.70034
G1 X89.292 Y142.091 E14.7094
G1 X89.484 Y141.238 E14.75302
G1 X89.52 Y141.097 E14.76028
G1 X89.673 Y140.57 E14.78766
G1 X89.845 Y140.023 E14.81627
G1 X90.178 Y139.086 E14.86588
G1 X90.223 Y138.967 E14.87223
G1 X90.403 Y138.542 E14.89525
G1 X90.637 Y138.018 E14.92389
G1 X90.714 Y137.858 E14.93274
G1 X91.116 Y137.05 E14.97777
G1 X91.159 Y136.97 E14.9823
G1 X91.448 Y136.467 E15.01124
G1 X91.768 Y135.941 E15.04196
G1 X92.301 Y135.134 E15.09021
G1 X92.367 Y135.041 E15.0959
G1 X92.687 Y134.613 E15.12256
G1 X93.066 Y134.13 E15.15319
G1 X93.677 Y133.408 E15.20038
G1 X93.764 Y133.312 E15.20684
G1 X94.203 Y132.854 E15.23849
G1 X94.607 Y132.453 E15.26689
G1 X95.28 Y131.832 E15.31258
G1 X95.41 Y131.718 E15.3212
G1 X95.829 Y131.377 E15.34816
G1 X96.271 Y131.033 E15.3761
G1 X96.355 Y130.97 E15.38134
G0 F6000 X96 Y131.243
G1 F1800 X96 Y168.756 E17.25287
G1 F1200 E13.25287
G0 F6000 X97.6 Y169.887
G1 F1200 E17.25287
G1 F1800 X97.6 Y130.112 E19.23725
G1 F1200 E15.23725
G0 F6000 X99.2 Y129.209
G1 F1200 E19.23725
G1 F1800 X99.2 Y170.782 E21.31134
G1 F1200 E17.31134
G0 F6000 X100.8 Y171.495
G1 F1200 E21.31134
G1 F1800 X100.8 Y128.508 E23.45597
G1 F1200 E19.45597
G0 F6000 X102.4 Y127.972
G1 F1200 E23.45597
G1 F1800 X102.4 Y172.029 E25.65398
G1 F1200 E21.65398
G0 F6000 X104 Y172.408
G1 F1200 E25.65398
G1 F1800 X104 Y127.591 E27.88991
G1 F1200 E23.88991
G0 F6000 X105.6 Y127.35
G1 F1200 E27.88991
G1 F1800 X105.6 Y172.641 E30.14949
G1 F1200 E26.14949
G0 F6000 X107.2 Y172.739
G1 F1200 E30.14949
G1 F1800 X107.2 Y127.259 E32.41849
G1 F1200 E28.41849
G0 F6000 X108.8 Y127.25
G1 F1200 E32.41849
G1 F1800 X108.8 Y172.75 E34.6885
G1 F1200 E30.6885
G0 F6000 X110.4 Y172.75
G1 F1200 E34.6885
G1 F1800 X110.4 Y127.25 E36.9585
G1 F1200 E32.9585
G0 F6000 X112 Y127.25
G1 F1200 E36.9585
G1 F1800 X112 Y172.75 E39.2285
G1 F1200 E35.2285
G0 F6000 X113.6 Y172.75
G1 F1200 E39.2285
G1 F1800 X113.6 Y127.25 E41.49851
G1 F1200 E37.49851
G0 F6000 X115.2 Y127.25
G1 F1200 E41.49851
G1 F1800 X115.2 Y172.75 E43.76851
G1 F1200 E39.76851
G0 F6000 X116.8 Y172.75
G1 F1200 E43.76851
G1 F1800 X116.8 Y127.25 E46.03852
G1 F1200 E42.03852
G0 F6000 X118.4 Y127.25
G1 F1200 E46.03852
G1 F1800 X118.4 Y172.75 E48.30852
G1 F1200 E44.30852
G0 F6000 X120 Y172.75
G1 F1200 E48.30852
G1 F1800 X120 Y127.25 E50.57853
G1 F1200 E46.57853
G0 F6000 X121.6 Y127.25
G1 F1200 E50.57853
G1 F1800 X121.6 Y172.75 E52.84853
G1 F1200 E48.84853
G0 F6000 X123.2 Y172.75
G1 F1200 E52.84853
G1 F1800 X123.2 Y127.25 E55.11853
G1 F1200 E51.11853
G0 F6000 X124.8 Y127.25
G1 F1200 E55.11853
G1 F1800 X124.8 Y172.75 E57.38854
G1 F1200 E53.38854
G0 F6000 X126.4 Y172.75
G1 F1200 E57.38854
G1 F1800 X126.4 Y127.25 E59.65854
G1 F1200 E55.65854
G0 F6000 X128 Y127.266
G1 F1200 E59.65854
G1 F1800 X128 Y172.75 E61.92775
G1 F1200 E57.92775
G0 F6000 X129.6 Y172.75
G1 F1200 E61.92775
G1 F1800 X129.6 Y127.379 E64.19132
G1 F1200 E60.19132
G0 F6000 X131.2 Y127.631
G1 F1200 E64.19132
G1 F1800 X131.2 Y172.75 E66.44231
G1 F1200 E62.44231
G0 F6000 X132.8 Y172.75
G1 F1200 E66.44231
G1 F1800 X132.8 Y128.03 E68.6734
G1 F1200 E64.6734
G0 F6000 X134.4 Y128.581
G1 F1200 E68.6734
G1 F1800 X134.4 Y172.75 E70.877
G1 F1200 E66.877
G0 F6000 X136 Y172.75
G1 F1200 E70.877
G1 F1800 X136 Y129.318 E73.04383
G1 F1200 E69.04383
G0 F6000 X137.6 Y130.245
G1 F1200 E73.04383
G1 F1800 X137.6 Y172.75 E75.16442
G1 F1200 E71.16442
G0 F6000 X139.2 Y172.75
G1 F1200 E75.16442
G1 F1800 X139.2 Y131.401 E77.22733
G1 F1200 E73.22733
G0 F6000 X140.8 Y132.859
G1 F1200 E77.22733
G1 F1800 X140.8 Y172.75 E79.2175
G1 F1200 E75.2175
G0 F6000 X142.4 Y172.75
G1 F1200 E79.2175
G1 F1800 X142.4 Y134.46 E81.12779
G1 F1200 E77.12779
G0 F6000 X144 Y135.302
G1 F1200 E81.12779
G1 F1800 X144 Y172.75 E82.99608
G1 F1200 E78.99608
G0 F6000 X145.6 Y172.75
G1 F1200 E82.99608
G1 F1800 X145.6 Y135.572 E84.8509
G1 F1200 E80.8509
G0 F6000 X147.2 Y135.575
G1 F1200 E84.8509
G1 F1800 X147.2 Y172.75 E86.70557
G1 F1200 E82.70557
G0 F6000 X148.8 Y172.75
G1 F1200 E86.70557
G1 F1800 X148.8 Y135.575 E88.56024
G1 F1200 E84.56024
G0 F6000 X150.4 Y135.575
G1 F1200 E88.56024
G1 F1800 X150.4 Y172.75 E90.4149
G1 F1200 E86.4149
G0 F6000 X152 Y172.75
G1 F1200 E90.4149
G1 F1800 X152 Y135.575 E92.26957
G1 F1200 E88.26957
G0 F6000 X153.6 Y135.575
G1 F1200 E92.26957
G1 F1800 X153.6 Y172.75 E94.12424
G1 F1200 E90.12424
G0 F6000 X155.2 Y172.75
G1 F1200 E94.12424
G1 F1800 X155.2 Y135.498 E95.98275
G1 F1200 E91.98275
G0 F6000 X156.8 Y134.972
G1 F1200 E95.98275
G1 F1800 X156.8 Y172.75 E97.8675
G1 F1200 E93.8675
G0 F6000 X158.4 Y172.75
G1 F1200 E97.8675
G1 F1800 X158.4 Y133.728 E99.81432
G1 F1200 E95.81432
G0 F6000 X160 Y132.09
G1 F1200 E99.81432
G1 F1800 X160 Y172.75 E101.84285
G1 F1200 E97.84285
G0 F6000 X161.6 Y172.75
G1 F1200 E101.84285
G1 F1800 X161.6 Y130.793 E103.9361
G1 F1200 E99.9361
G0 F6000 X163.2 Y129.751
G1 F1200 E103.9361
G1 F1800 X163.2 Y172.75 E106.08133
G1 F1200 E102.08133
G0 F6000 X164.8 Y172.75
G1 F1200 E106.08133
G1 F1800 X164.8 Y128.929 E108.26757
G1 F1200 E104.26757
G0 F6000 X166.4 Y128.285
G1 F1200 E108.26757
G1 F1800 X166.4 Y172.75 E110.48593
G1 F1200 E106.48593
G0 F6000 X168 Y172.75
G1 F1200 E110.48593
G1 F1800 X168 Y127.811 E112.72795
G1 F1200 E108.72795
G0 F6000 X169.6 Y127.487
G1 F1200 E112.72795
G1 F1800 X169.6 Y172.75 E114.98613
G1 F1200 E110.98613
G0 F6000 X171.2 Y172.75
G1 F1200 E114.98613
G1 F1800 X171.2 Y127.303 E117.25349
G1 F1200 E113.25349
G0 F6000 X172.8 Y127.25
G1 F1200 E117.25349
G1 F1800 X172.8 Y172.75 E119.52349
G1 F1200 E115.52349
G0 F6000 X174.4 Y172.75
G1 F1200 E119.52349
G1 F1800 X174.4 Y127.25 E121.7935
G1 F1200 E117.7935
G0 F6000 X176 Y127.25
G1 F1200 E121.7935
G1 F1800 X176 Y172.75 E124.0635
G1 F1200 E120.0635
G0 F6000 X177.6 Y172.75
G1 F1200 E124.0635
G1 F1800 X177.6 Y127.25 E126.33351
G1 F1200 E122.33351
G0 F6000 X179.2 Y127.25
G1 F1200 E126.33351
G1 F1800 X179.2 Y172.75 E128.60351
G1 F1200 E124.60351
G0 F6000 X180.8 Y172.75
G1 F1200 E128.60351
G1 F1800 X180.8 Y127.25 E130.87351
G1 F1200 E126.87351
G0 F6000 X182.4 Y127.25
G1 F1200 E130.87351
G1 F1800 X182.4 Y172.75 E133.14352
G1 F1200 E129.14352
G0 F6000 X184 Y172.75
G1 F1200 E133.14352
G1 F1800 X184 Y127.25 E135.41352
G1 F1200 E131.41352
G0 F6000 X185.6 Y127.25
G1 F1200 E135.41352
G1 F1800 X185.6 Y172.75 E137.68353
G1 F1200 E133.68353
G0 F6000 X187.2 Y172.75
G1 F1200 E137.68353
G1 F1800 X187.2 Y127.25 E139.95353
G1 F1200 E135.95353
G0 F6000 X188.8 Y127.25
G1 F1200 E139.95353
G1 F1800 X188.8 Y172.75 E142.22354
G1 F1200 E138.22354
G0 F6000 X190.4 Y172.75
G1 F1200 E142.22354
G1 F1800 X190.4 Y127.25 E144.49354
G1 F1200 E140.49354
G0 F6000 X192 Y127.25
G1 F1200 E144.49354
G1 F1800 X192 Y172.75 E146.76354
G1 F1200 E142.76354
G0 F6000 X193.6 Y172.709
G1 F1200 E146.76354
G1 F1800 X193.6 Y127.292 E149.02941
