;FLAVOR:Marlin
;TIME:4414
;Filament used: 8.18514m
;Layer height: 0.32
;MINX:42.048
;MINY:78.07
;MINZ:0.32
;MAXX:257.952
;MAXY:221.93
;MAXZ:2.24
;Generated with Cura_SteamEngine master
M140 S60
M105
M190 S60
M104 S240
M105
M109 S240
M82 ;absolute extrusion mode
G28 ;Home
G1 Z15.0 F2000 ;Move the platform
G92 E0
G92 E0
;LAYER_COUNT:7
;LAYER:0
M107 P2
G0 F7500 X47.351 Y79.973 Z0.32
;TYPE:SKIRT
G1 F1500 X48.182 Y79.479 E0.07717
G1 X49.051 Y79.054 E0.15439
G1 X49.953 Y78.703 E0.23165
G1 X50.88 Y78.427 E0.30886
G1 X51.827 Y78.229 E0.38609
G1 X52.786 Y78.11 E0.46322
G1 X53.748 Y78.07 E0.54008
G1 X83.748 Y78.07 E2.93481
G1 X84.714 Y78.11 E3.01199
G1 X85.674 Y78.23 E3.08921
G1 X86.621 Y78.428 E3.16644
G1 X87.548 Y78.704 E3.24365
G1 X88.449 Y79.056 E3.32087
G1 X89.318 Y79.481 E3.39808
G1 X90.149 Y79.976 E3.4753
G1 X90.936 Y80.538 E3.55249
G1 X91.674 Y81.164 E3.62974
G1 X92.358 Y81.848 E3.70696
G1 X92.983 Y82.586 E3.78415
G1 X93.545 Y83.373 E3.86135
G1 X94.039 Y84.204 E3.93852
G1 X94.464 Y85.073 E4.01574
G1 X94.815 Y85.975 E4.093
G1 X95.091 Y86.902 E4.17021
G1 X95.289 Y87.849 E4.24743
G1 X95.408 Y88.808 E4.32457
G1 X95.448 Y89.77 E4.40143
G1 X95.448 Y104.254 E5.55761
G1 X204.552 Y104.254 E14.26676
G1 X204.552 Y90.302 E15.38047
G1 X204.592 Y89.336 E15.45764
G1 X204.712 Y88.376 E15.53487
G1 X204.91 Y87.429 E15.6121
G1 X205.186 Y86.502 E15.68931
G1 X205.538 Y85.601 E15.76652
G1 X205.963 Y84.732 E15.84374
G1 X206.458 Y83.901 E15.92095
G1 X207.02 Y83.114 E15.99815
G1 X207.646 Y82.376 E16.0754
G1 X208.33 Y81.692 E16.15261
G1 X209.068 Y81.067 E16.22981
G1 X209.855 Y80.505 E16.307
G1 X210.686 Y80.011 E16.38417
G1 X211.555 Y79.586 E16.46139
G1 X212.457 Y79.235 E16.53865
G1 X213.384 Y78.959 E16.61586
G1 X214.331 Y78.761 E16.69309
G1 X215.29 Y78.642 E16.77023
G1 X216.252 Y78.602 E16.84709
G1 X246.252 Y78.602 E19.24182
G1 X247.218 Y78.642 E19.31899
G1 X248.178 Y78.762 E19.39622
G1 X249.125 Y78.96 E19.47345
G1 X250.052 Y79.236 E19.55066
G1 X250.953 Y79.588 E19.62787
G1 X251.822 Y80.013 E19.70509
G1 X252.653 Y80.508 E19.7823
G1 X253.44 Y81.07 E19.8595
G1 X254.178 Y81.696 E19.93674
G1 X254.862 Y82.38 E20.01396
G1 X255.487 Y83.118 E20.09116
G1 X256.049 Y83.905 E20.16835
G1 X256.543 Y84.736 E20.24552
G1 X256.968 Y85.605 E20.32274
G1 X257.319 Y86.507 E20.4
G1 X257.595 Y87.434 E20.47721
G1 X257.793 Y88.381 E20.55444
G1 X257.912 Y89.34 E20.63158
G1 X257.952 Y90.302 E20.70843
G1 X257.952 Y120.302 E23.10316
G1 X257.912 Y121.268 E23.18034
G1 X257.792 Y122.228 E23.25757
G1 X257.594 Y123.175 E23.3348
G1 X257.318 Y124.102 E23.412
G1 X256.966 Y125.003 E23.48922
G1 X256.541 Y125.872 E23.56644
G1 X256.046 Y126.703 E23.64365
G1 X255.484 Y127.49 E23.72084
G1 X254.858 Y128.228 E23.79809
G1 X254.174 Y128.912 E23.87531
G1 X253.436 Y129.537 E23.95251
G1 X252.649 Y130.099 E24.0297
G1 X251.818 Y130.593 E24.10687
G1 X250.949 Y131.018 E24.18409
G1 X250.047 Y131.369 E24.26135
G1 X249.12 Y131.645 E24.33856
G1 X248.173 Y131.843 E24.41579
G1 X247.214 Y131.962 E24.49293
G1 X246.252 Y132.002 E24.56978
G1 X230.539 Y132.002 E25.82406
G1 X230.539 Y168.53 E28.73989
G1 X246.252 Y168.53 E29.99417
G1 X247.218 Y168.57 E30.07134
G1 X248.178 Y168.69 E30.14857
G1 X249.125 Y168.888 E30.2258
G1 X250.052 Y169.164 E30.303
G1 X250.953 Y169.516 E30.38022
G1 X251.822 Y169.941 E30.45744
G1 X252.653 Y170.436 E30.53465
G1 X253.44 Y170.998 E30.61185
G1 X254.178 Y171.624 E30.68909
G1 X254.862 Y172.308 E30.76631
G1 X255.487 Y173.046 E30.84351
G1 X256.049 Y173.833 E30.9207
G1 X256.543 Y174.664 E30.99787
G1 X256.968 Y175.533 E31.07509
G1 X257.319 Y176.435 E31.15235
G1 X257.595 Y177.362 E31.22956
G1 X257.793 Y178.309 E31.30679
G1 X257.912 Y179.268 E31.38393
G1 X257.952 Y180.23 E31.46078
G1 X257.952 Y210.23 E33.85551
G1 X257.912 Y211.196 E33.93269
G1 X257.792 Y212.156 E34.00992
G1 X257.594 Y213.103 E34.08715
G1 X257.318 Y214.03 E34.16435
G1 X256.966 Y214.931 E34.24157
G1 X256.541 Y215.8 E34.31879
G1 X256.046 Y216.631 E34.396
G1 X255.484 Y217.418 E34.47319
G1 X254.858 Y218.156 E34.55044
G1 X254.174 Y218.84 E34.62766
G1 X253.436 Y219.465 E34.70486
G1 X252.649 Y220.027 E34.78205
G1 X251.818 Y220.521 E34.85922
G1 X250.949 Y220.946 E34.93644
G1 X250.047 Y221.297 E35.0137
G1 X249.12 Y221.573 E35.09091
G1 X248.173 Y221.771 E35.16814
G1 X247.214 Y221.89 E35.24528
G1 X246.252 Y221.93 E35.32213
G1 X216.252 Y221.93 E37.71686
G1 X215.286 Y221.89 E37.79404
G1 X214.326 Y221.77 E37.87127
G1 X213.379 Y221.572 E37.94849
G1 X212.452 Y221.296 E38.0257
G1 X211.551 Y220.944 E38.10292
G1 X210.682 Y220.519 E38.18014
G1 X209.851 Y220.024 E38.25735
G1 X209.064 Y219.462 E38.33454
G1 X208.326 Y218.836 E38.41179
G1 X207.642 Y218.152 E38.48901
G1 X207.017 Y217.414 E38.5662
G1 X206.455 Y216.627 E38.6434
G1 X205.961 Y215.796 E38.72057
G1 X205.536 Y214.927 E38.79779
G1 X205.185 Y214.025 E38.87505
G1 X204.909 Y213.098 E38.95226
G1 X204.711 Y212.151 E39.02949
G1 X204.592 Y211.192 E39.10662
G1 X204.552 Y210.23 E39.18348
G1 X204.552 Y195.132 E40.38867
G1 X95.448 Y195.132 E49.09782
G1 X95.448 Y210.23 E50.30301
G1 X95.408 Y211.196 E50.38019
G1 X95.288 Y212.156 E50.45741
G1 X95.09 Y213.103 E50.53464
G1 X94.814 Y214.03 E50.61185
G1 X94.462 Y214.931 E50.68906
G1 X94.037 Y215.8 E50.76628
G1 X93.542 Y216.631 E50.84349
G1 X92.98 Y217.418 E50.92069
G1 X92.354 Y218.156 E50.99794
G1 X91.67 Y218.84 E51.07515
G1 X90.932 Y219.465 E51.15235
G1 X90.145 Y220.027 E51.22955
G1 X89.314 Y220.521 E51.30672
G1 X88.445 Y220.946 E51.38394
G1 X87.543 Y221.297 E51.4612
G1 X86.616 Y221.573 E51.5384
G1 X85.669 Y221.771 E51.61563
G1 X84.71 Y221.89 E51.69277
G1 X83.748 Y221.93 E51.76963
G1 X53.748 Y221.93 E54.16436
G1 X52.782 Y221.89 E54.24153
G1 X51.822 Y221.77 E54.31876
G1 X50.875 Y221.572 E54.39599
G1 X49.948 Y221.296 E54.4732
G1 X49.047 Y220.944 E54.55041
G1 X48.178 Y220.519 E54.62763
G1 X47.347 Y220.024 E54.70484
G1 X46.56 Y219.462 E54.78204
G1 X45.822 Y218.836 E54.85929
G1 X45.138 Y218.152 E54.9365
G1 X44.513 Y217.414 E55.0137
G1 X43.951 Y216.627 E55.0909
G1 X43.457 Y215.796 E55.16807
G1 X43.032 Y214.927 E55.24528
G1 X42.681 Y214.025 E55.32255
G1 X42.405 Y213.098 E55.39975
G1 X42.207 Y212.151 E55.47698
G1 X42.088 Y211.192 E55.55412
G1 X42.048 Y210.23 E55.63098
G1 X42.048 Y180.23 E58.02571
G1 X42.088 Y179.264 E58.10288
G1 X42.208 Y178.304 E58.18011
G1 X42.406 Y177.357 E58.25734
G1 X42.682 Y176.43 E58.33455
G1 X43.034 Y175.529 E58.41176
G1 X43.459 Y174.66 E58.48898
G1 X43.954 Y173.829 E58.56619
G1 X44.516 Y173.042 E58.64339
G1 X45.142 Y172.304 E58.72064
G1 X45.826 Y171.62 E58.79785
G1 X46.564 Y170.995 E58.87505
G1 X47.351 Y170.433 E58.95224
G1 X48.182 Y169.939 E59.02941
G1 X49.051 Y169.514 E59.10663
G1 X49.953 Y169.163 E59.18389
G1 X50.88 Y168.887 E59.2611
G1 X51.827 Y168.689 E59.33833
G1 X52.786 Y168.57 E59.41547
G1 X53.748 Y168.53 E59.49233
G1 X68.484 Y168.53 E60.66862
G1 X68.484 Y131.47 E63.62691
G1 X53.748 Y131.47 E64.8032
G1 X52.782 Y131.43 E64.88037
G1 X51.822 Y131.31 E64.9576
G1 X50.875 Y131.112 E65.03483
G1 X49.948 Y130.836 E65.11204
G1 X49.047 Y130.484 E65.18925
G1 X48.178 Y130.059 E65.26647
G1 X47.347 Y129.564 E65.34368
G1 X46.56 Y129.002 E65.42088
G1 X45.822 Y128.376 E65.49813
G1 X45.138 Y127.692 E65.57534
G1 X44.513 Y126.954 E65.65254
G1 X43.951 Y126.167 E65.72974
G1 X43.457 Y125.336 E65.80691
G1 X43.032 Y124.467 E65.88412
G1 X42.681 Y123.565 E65.96138
G1 X42.405 Y122.638 E66.03859
G1 X42.207 Y121.691 E66.11582
G1 X42.088 Y120.732 E66.19296
G1 X42.048 Y119.77 E66.26982
G1 X42.048 Y89.77 E68.66455
G1 X42.088 Y88.804 E68.74172
G1 X42.208 Y87.844 E68.81895
G1 X42.406 Y86.897 E68.89618
G1 X42.682 Y85.97 E68.97339
G1 X43.034 Y85.069 E69.0506
G1 X43.459 Y84.2 E69.12782
G1 X43.954 Y83.369 E69.20503
G1 X44.516 Y82.582 E69.28223
G1 X45.142 Y81.844 E69.35948
G1 X45.826 Y81.16 E69.43669
G1 X46.564 Y80.535 E69.51389
G1 X47.351 Y79.973 E69.59108
G0 F7500 X47.927 Y80.318
G1 F1500 X48.75 Y79.859 E69.66631
G1 X49.608 Y79.471 E69.74147
G1 X50.497 Y79.157 E69.81673
G1 X51.408 Y78.919 E69.89189
G1 X52.337 Y78.76 E69.96713
G1 X53.276 Y78.68 E70.04236
G1 X53.748 Y78.67 E70.08004
G1 X83.748 Y78.67 E72.47477
G1 X84.689 Y78.71 E72.54995
G1 X85.624 Y78.83 E72.6252
G1 X86.545 Y79.028 E72.7004
G1 X87.446 Y79.304 E72.77562
G1 X88.32 Y79.655 E72.8508
G1 X89.161 Y80.079 E72.92598
G1 X89.963 Y80.573 E73.00117
G1 X90.721 Y81.133 E73.0764
G1 X91.428 Y81.756 E73.15162
G1 X92.08 Y82.436 E73.22682
G1 X92.672 Y83.169 E73.30203
G1 X93.2 Y83.949 E73.37722
G1 X93.659 Y84.772 E73.45244
G1 X94.047 Y85.63 E73.52761
G1 X94.361 Y86.519 E73.60287
G1 X94.599 Y87.43 E73.67803
G1 X94.758 Y88.359 E73.75326
G1 X94.838 Y89.298 E73.82849
G1 X94.848 Y89.77 E73.86618
G1 X94.848 Y104.854 E75.07025
G1 X205.152 Y104.854 E83.87519
G1 X205.152 Y90.302 E85.03679
G1 X205.192 Y89.361 E85.11197
G1 X205.312 Y88.426 E85.18722
G1 X205.51 Y87.505 E85.26242
G1 X205.786 Y86.604 E85.33764
G1 X206.137 Y85.73 E85.41282
G1 X206.561 Y84.889 E85.488
G1 X207.055 Y84.087 E85.56319
G1 X207.615 Y83.329 E85.63842
G1 X208.238 Y82.622 E85.71364
G1 X208.918 Y81.97 E85.78884
G1 X209.651 Y81.378 E85.86405
G1 X210.431 Y80.85 E85.93924
G1 X211.254 Y80.391 E86.01446
G1 X212.112 Y80.003 E86.08963
G1 X213.001 Y79.689 E86.16489
G1 X213.912 Y79.451 E86.24005
G1 X214.841 Y79.292 E86.31529
G1 X215.78 Y79.212 E86.39051
G1 X216.252 Y79.202 E86.4282
G1 X246.252 Y79.202 E88.82293
G1 X247.193 Y79.242 E88.89811
G1 X248.128 Y79.362 E88.97336
G1 X249.049 Y79.56 E89.04856
G1 X249.95 Y79.836 E89.12378
G1 X250.824 Y80.187 E89.19896
G1 X251.665 Y80.611 E89.27414
G1 X252.467 Y81.105 E89.34933
G1 X253.225 Y81.665 E89.42456
G1 X253.932 Y82.288 E89.49978
G1 X254.584 Y82.968 E89.57498
G1 X255.176 Y83.701 E89.65019
G1 X255.704 Y84.481 E89.72538
G1 X256.163 Y85.304 E89.8006
G1 X256.551 Y86.162 E89.87577
G1 X256.865 Y87.051 E89.95103
G1 X257.103 Y87.962 E90.02619
G1 X257.262 Y88.891 E90.10142
G1 X257.342 Y89.83 E90.17665
G1 X257.352 Y90.302 E90.21433
G1 X257.352 Y120.302 E92.60906
G1 X257.312 Y121.243 E92.68425
G1 X257.192 Y122.178 E92.75949
G1 X256.994 Y123.099 E92.83469
G1 X256.718 Y124 E92.90991
G1 X256.367 Y124.874 E92.98509
G1 X255.943 Y125.715 E93.06028
G1 X255.449 Y126.517 E93.13547
G1 X254.889 Y127.275 E93.21069
G1 X254.266 Y127.982 E93.28591
G1 X253.586 Y128.634 E93.36111
G1 X252.853 Y129.226 E93.43633
G1 X252.073 Y129.754 E93.51151
G1 X251.25 Y130.213 E93.58673
G1 X250.392 Y130.601 E93.6619
G1 X249.503 Y130.915 E93.73716
G1 X248.592 Y131.153 E93.81232
G1 X247.663 Y131.312 E93.88756
G1 X246.724 Y131.392 E93.96278
G1 X246.252 Y131.402 E94.00047
G1 X229.939 Y131.402 E95.30264
G1 X229.939 Y169.13 E98.31426
G1 X246.252 Y169.13 E99.61643
G1 X247.193 Y169.17 E99.69161
G1 X248.128 Y169.29 E99.76686
G1 X249.049 Y169.488 E99.84206
G1 X249.95 Y169.764 E99.91728
G1 X250.824 Y170.115 E99.99246
G1 X251.665 Y170.539 E100.06764
G1 X252.467 Y171.033 E100.14283
G1 X253.225 Y171.593 E100.21806
G1 X253.932 Y172.216 E100.29328
G1 X254.584 Y172.896 E100.36848
G1 X255.176 Y173.629 E100.44369
G1 X255.704 Y174.409 E100.51888
G1 X256.163 Y175.232 E100.5941
G1 X256.551 Y176.09 E100.66927
G1 X256.865 Y176.979 E100.74453
G1 X257.103 Y177.89 E100.81969
G1 X257.262 Y178.819 E100.89492
G1 X257.342 Y179.758 E100.97015
G1 X257.352 Y180.23 E101.00784
G1 X257.352 Y210.23 E103.40257
G1 X257.312 Y211.171 E103.47775
G1 X257.192 Y212.106 E103.553
G1 X256.994 Y213.027 E103.62819
G1 X256.718 Y213.928 E103.70341
G1 X256.367 Y214.802 E103.7786
G1 X255.943 Y215.643 E103.85378
G1 X255.449 Y216.445 E103.92897
G1 X254.889 Y217.203 E104.0042
G1 X254.266 Y217.91 E104.07942
G1 X253.586 Y218.562 E104.15462
G1 X252.853 Y219.154 E104.22983
G1 X252.073 Y219.682 E104.30502
G1 X251.25 Y220.141 E104.38024
G1 X250.392 Y220.529 E104.4554
G1 X249.503 Y220.843 E104.53066
G1 X248.592 Y221.081 E104.60582
G1 X247.663 Y221.24 E104.68106
G1 X246.724 Y221.32 E104.75629
G1 X246.252 Y221.33 E104.79397
G1 X216.252 Y221.33 E107.1887
G1 X215.311 Y221.29 E107.26388
G1 X214.376 Y221.17 E107.33913
G1 X213.455 Y220.972 E107.41433
G1 X212.554 Y220.696 E107.48955
G1 X211.68 Y220.345 E107.56473
G1 X210.839 Y219.921 E107.63991
G1 X210.037 Y219.427 E107.7151
G1 X209.279 Y218.867 E107.79033
G1 X208.572 Y218.244 E107.86555
G1 X207.92 Y217.564 E107.94075
G1 X207.328 Y216.831 E108.01596
G1 X206.8 Y216.051 E108.09115
G1 X206.341 Y215.228 E108.16637
G1 X205.953 Y214.37 E108.24154
G1 X205.639 Y213.481 E108.3168
G1 X205.401 Y212.57 E108.39196
G1 X205.242 Y211.641 E108.4672
G1 X205.162 Y210.702 E108.54242
G1 X205.152 Y210.23 E108.58011
G1 X205.152 Y194.532 E109.83319
G1 X94.848 Y194.532 E118.63813
G1 X94.848 Y210.23 E119.89121
G1 X94.808 Y211.171 E119.9664
G1 X94.688 Y212.106 E120.04164
G1 X94.49 Y213.027 E120.11684
G1 X94.214 Y213.928 E120.19206
G1 X93.863 Y214.802 E120.26725
G1 X93.439 Y215.643 E120.34243
G1 X92.945 Y216.445 E120.41762
G1 X92.385 Y217.203 E120.49284
G1 X91.762 Y217.91 E120.56807
G1 X91.082 Y218.562 E120.64327
G1 X90.349 Y219.154 E120.71848
G1 X89.569 Y219.682 E120.79366
G1 X88.746 Y220.141 E120.86889
G1 X87.888 Y220.529 E120.94405
G1 X86.999 Y220.843 E121.01931
G1 X86.088 Y221.081 E121.09447
G1 X85.159 Y221.24 E121.16971
G1 X84.22 Y221.32 E121.24493
G1 X83.748 Y221.33 E121.28262
G1 X53.748 Y221.33 E123.67735
G1 X52.807 Y221.29 E123.75253
G1 X51.872 Y221.17 E123.82778
G1 X50.951 Y220.972 E123.90298
G1 X50.05 Y220.696 E123.9782
G1 X49.176 Y220.345 E124.05338
G1 X48.335 Y219.921 E124.12856
G1 X47.533 Y219.427 E124.20375
G1 X46.775 Y218.867 E124.27898
G1 X46.068 Y218.244 E124.3542
G1 X45.416 Y217.564 E124.4294
G1 X44.824 Y216.831 E124.50461
G1 X44.296 Y216.051 E124.5798
G1 X43.837 Y215.228 E124.65502
G1 X43.449 Y214.37 E124.73019
G1 X43.135 Y213.481 E124.80545
G1 X42.897 Y212.57 E124.88061
G1 X42.738 Y211.641 E124.95584
G1 X42.658 Y210.702 E125.03107
G1 X42.648 Y210.23 E125.06876
G1 X42.648 Y180.23 E127.46349
G1 X42.688 Y179.289 E127.53867
G1 X42.808 Y178.354 E127.61392
G1 X43.006 Y177.433 E127.68911
G1 X43.282 Y176.532 E127.76433
G1 X43.633 Y175.658 E127.83952
G1 X44.057 Y174.817 E127.9147
G1 X44.551 Y174.015 E127.98989
G1 X45.111 Y173.257 E128.06512
G1 X45.734 Y172.55 E128.14034
G1 X46.414 Y171.898 E128.21554
G1 X47.147 Y171.306 E128.29075
G1 X47.927 Y170.778 E128.36593
G1 X48.75 Y170.319 E128.44116
G1 X49.608 Y169.931 E128.51632
G1 X50.497 Y169.617 E128.59158
G1 X51.408 Y169.379 E128.66674
G1 X52.337 Y169.22 E128.74198
G1 X53.276 Y169.14 E128.81721
G1 X53.748 Y169.13 E128.85489
G1 X69.084 Y169.13 E130.07908
G1 X69.084 Y130.87 E133.13316
G1 X53.748 Y130.87 E134.35734
G1 X52.807 Y130.83 E134.43252
G1 X51.872 Y130.71 E134.50777
G1 X50.951 Y130.512 E134.58297
G1 X50.05 Y130.236 E134.65819
G1 X49.176 Y129.885 E134.73337
G1 X48.335 Y129.461 E134.80855
G1 X47.533 Y128.967 E134.88374
G1 X46.775 Y128.407 E134.95897
G1 X46.068 Y127.784 E135.03419
G1 X45.416 Y127.104 E135.10939
G1 X44.824 Y126.371 E135.1846
G1 X44.296 Y125.591 E135.25979
G1 X43.837 Y124.768 E135.33501
G1 X43.449 Y123.91 E135.41018
G1 X43.135 Y123.021 E135.48544
G1 X42.897 Y122.11 E135.5606
G1 X42.738 Y121.181 E135.63584
G1 X42.658 Y120.242 E135.71106
G1 X42.648 Y119.77 E135.74875
G1 X42.648 Y89.77 E138.14348
G1 X42.688 Y88.829 E138.21866
G1 X42.808 Y87.894 E138.29391
G1 X43.006 Y86.973 E138.36911
G1 X43.282 Y86.072 E138.44433
G1 X43.633 Y85.198 E138.51951
G1 X44.057 Y84.357 E138.59469
G1 X44.551 Y83.555 E138.66988
G1 X45.111 Y82.797 E138.74511
G1 X45.734 Y82.09 E138.82033
G1 X46.414 Y81.438 E138.89553
G1 X47.147 Y80.846 E138.97074
G1 X47.927 Y80.318 E139.04593
G0 F7500 X47.728 Y81.167
G1 F1500 X48.501 Y80.675 E139.11907
G1 X49.314 Y80.252 E139.19223
G1 X50.161 Y79.902 E139.26538
G1 X51.035 Y79.627 E139.33852
G1 X51.929 Y79.429 E139.41161
G1 X52.838 Y79.31 E139.48479
G1 X53.748 Y79.27 E139.5575
G1 X83.748 Y79.27 E141.95223
G1 X84.663 Y79.31 E142.02534
G1 X85.572 Y79.43 E142.09853
G1 X86.466 Y79.628 E142.17162
G1 X87.34 Y79.904 E142.24479
G1 X88.187 Y80.254 E142.31794
G1 X89 Y80.678 E142.39113
G1 X89.772 Y81.17 E142.46421
G1 X90.499 Y81.728 E142.53736
G1 X91.174 Y82.347 E142.61047
G1 X91.793 Y83.023 E142.68364
G1 X92.351 Y83.75 E142.75679
G1 X92.843 Y84.523 E142.82994
G1 X93.266 Y85.336 E142.90309
G1 X93.616 Y86.183 E142.97625
