;FLAVOR:Marlin
;TIME:12293
;Filament used: 19.7315m
;Layer height: 0.32
;MINX:41.077
;MINY:76.692
;MINZ:0.32
;MAXX:262.521
;MAXY:223.308
;MAXZ:34.24
;Generated with Cura_SteamEngine master
M140 S60
M105
M190 S60
M104 S240
M105
M109 S240
M82 ;absolute extrusion mode
G28 ;Home
G1 Z15.0 F2000 ;Move the platform
G92 E0
G92 E0
;LAYER_COUNT:107
;LAYER:0
M107 P2
G0 F7500 X47.211 Y89.382 Z0.32
;TYPE:SKIRT
G1 F1500 X48.08 Y88.957 E0.07722
G1 X48.982 Y88.606 E0.15448
G1 X49.909 Y88.33 E0.23169
G1 X50.856 Y88.132 E0.30892
G1 X51.815 Y88.013 E0.38605
G1 X52.777 Y87.973 E0.46291
G1 X59.316 Y87.973 E0.98488
G1 X59.444 Y87.361 E1.03479
G1 X59.72 Y86.434 E1.112
G1 X60.072 Y85.533 E1.18921
G1 X60.497 Y84.664 E1.26643
G1 X60.992 Y83.833 E1.34364
G1 X61.554 Y83.046 E1.42084
G1 X62.18 Y82.308 E1.49809
G1 X62.864 Y81.624 E1.5753
G1 X63.602 Y80.999 E1.6525
G1 X64.389 Y80.437 E1.7297
G1 X65.22 Y79.943 E1.80687
G1 X66.089 Y79.518 E1.88409
G1 X66.991 Y79.167 E1.96135
G1 X67.918 Y78.891 E2.03855
G1 X68.865 Y78.693 E2.11578
G1 X69.824 Y78.574 E2.19292
G1 X70.786 Y78.534 E2.26978
G1 X96.67 Y78.534 E4.33595
G1 X97.636 Y78.574 E4.41313
G1 X98.596 Y78.694 E4.49036
G1 X99.543 Y78.892 E4.56758
G1 X100.47 Y79.168 E4.64479
G1 X101.371 Y79.52 E4.72201
G1 X102.24 Y79.945 E4.79923
G1 X103.071 Y80.44 E4.87644
G1 X103.858 Y81.002 E4.95363
G1 X104.596 Y81.628 E5.03088
G1 X105.28 Y82.312 E5.1081
G1 X105.905 Y83.05 E5.18529
G1 X106.467 Y83.837 E5.26249
G1 X106.961 Y84.668 E5.33966
G1 X107.386 Y85.537 E5.41688
G1 X107.737 Y86.439 E5.49414
G1 X108.013 Y87.366 E5.57135
G1 X108.14 Y87.973 E5.62085
G1 X109.398 Y87.973 E5.72127
G1 X110.364 Y88.013 E5.79844
G1 X111.324 Y88.133 E5.87567
G1 X112.271 Y88.331 E5.9529
G1 X113.198 Y88.607 E6.03011
G1 X114.099 Y88.959 E6.10732
G1 X114.968 Y89.384 E6.18454
G1 X115.799 Y89.879 E6.26175
G1 X116.586 Y90.441 E6.33895
G1 X117.324 Y91.067 E6.4162
G1 X118.008 Y91.751 E6.49341
G1 X118.633 Y92.489 E6.57061
G1 X119.195 Y93.276 E6.64781
G1 X119.689 Y94.107 E6.72498
G1 X120.114 Y94.976 E6.80219
G1 X120.465 Y95.878 E6.87945
G1 X120.741 Y96.805 E6.95666
G1 X120.939 Y97.752 E7.03389
G1 X121.058 Y98.711 E7.11103
G1 X121.098 Y99.673 E7.18789
G1 X121.098 Y108.533 E7.89513
G1 X182.5 Y108.533 E12.7965
G1 X182.5 Y97.832 E13.6507
G1 X182.54 Y96.866 E13.72788
G1 X182.66 Y95.906 E13.80511
G1 X182.858 Y94.959 E13.88234
G1 X183.134 Y94.032 E13.95954
G1 X183.486 Y93.131 E14.03676
G1 X183.911 Y92.262 E14.11398
G1 X184.406 Y91.431 E14.19119
G1 X184.968 Y90.644 E14.26838
G1 X185.594 Y89.906 E14.34563
G1 X186.278 Y89.222 E14.42285
G1 X187.016 Y88.597 E14.50005
G1 X187.803 Y88.035 E14.57724
G1 X188.634 Y87.541 E14.65441
G1 X189.503 Y87.116 E14.73163
G1 X190.405 Y86.765 E14.80889
G1 X191.332 Y86.489 E14.8861
G1 X192.279 Y86.291 E14.96333
G1 X193.238 Y86.172 E15.04046
G1 X194.2 Y86.132 E15.11732
G1 X200.739 Y86.132 E15.63929
G1 X200.867 Y85.519 E15.68928
G1 X201.143 Y84.592 E15.76649
G1 X201.495 Y83.691 E15.8437
G1 X201.92 Y82.822 E15.92092
G1 X202.415 Y81.991 E15.99813
G1 X202.977 Y81.204 E16.07533
G1 X203.603 Y80.466 E16.15258
G1 X204.287 Y79.782 E16.22979
G1 X205.025 Y79.157 E16.30699
G1 X205.812 Y78.595 E16.38419
G1 X206.643 Y78.101 E16.46136
G1 X207.512 Y77.676 E16.53858
G1 X208.414 Y77.325 E16.61584
G1 X209.341 Y77.049 E16.69304
G1 X210.288 Y76.851 E16.77027
G1 X211.247 Y76.732 E16.84741
G1 X212.209 Y76.692 E16.92427
G1 X238.093 Y76.692 E18.99044
G1 X239.059 Y76.732 E19.06762
G1 X240.019 Y76.852 E19.14484
G1 X240.966 Y77.05 E19.22207
G1 X241.893 Y77.326 E19.29928
G1 X242.794 Y77.678 E19.3765
G1 X243.663 Y78.103 E19.45371
G1 X244.494 Y78.598 E19.53092
G1 X245.281 Y79.16 E19.60812
G1 X246.019 Y79.786 E19.68537
G1 X246.703 Y80.47 E19.76259
G1 X247.328 Y81.208 E19.83978
G1 X247.89 Y81.995 E19.91698
G1 X248.384 Y82.826 E19.99415
G1 X248.809 Y83.695 E20.07137
G1 X249.16 Y84.597 E20.14863
G1 X249.436 Y85.524 E20.22583
G1 X249.563 Y86.132 E20.27542
G1 X250.821 Y86.132 E20.37583
G1 X251.787 Y86.172 E20.45301
G1 X252.747 Y86.292 E20.53024
G1 X253.694 Y86.49 E20.60747
G1 X254.621 Y86.766 E20.68467
G1 X255.522 Y87.118 E20.76189
G1 X256.391 Y87.543 E20.83911
G1 X257.222 Y88.038 E20.91632
G1 X258.009 Y88.6 E20.99351
G1 X258.747 Y89.226 E21.07076
G1 X259.431 Y89.91 E21.14798
G1 X260.056 Y90.648 E21.22518
G1 X260.618 Y91.435 E21.30237
G1 X261.112 Y92.266 E21.37954
G1 X261.537 Y93.135 E21.45676
G1 X261.888 Y94.037 E21.53402
G1 X262.164 Y94.964 E21.61123
G1 X262.362 Y95.911 E21.68846
G1 X262.481 Y96.87 E21.7656
G1 X262.521 Y97.832 E21.84245
G1 X262.521 Y123.716 E23.90863
G1 X262.481 Y124.682 E23.9858
G1 X262.361 Y125.642 E24.06303
G1 X262.163 Y126.589 E24.14026
G1 X261.887 Y127.516 E24.21747
G1 X261.535 Y128.417 E24.29468
G1 X261.11 Y129.286 E24.3719
G1 X260.615 Y130.117 E24.44911
G1 X260.053 Y130.904 E24.52631
G1 X259.427 Y131.642 E24.60356
G1 X258.743 Y132.326 E24.68077
G1 X258.005 Y132.951 E24.75797
G1 X257.218 Y133.513 E24.83516
G1 X256.387 Y134.007 E24.91233
G1 X255.518 Y134.432 E24.98955
G1 X254.616 Y134.783 E25.06681
G1 X253.689 Y135.059 E25.14402
G1 X252.742 Y135.257 E25.22125
G1 X251.783 Y135.376 E25.29839
G1 X250.821 Y135.416 E25.37525
G1 X249.793 Y135.416 E25.4573
G1 X249.793 Y145.013 E26.22338
G1 X249.753 Y145.979 E26.30055
G1 X249.633 Y146.939 E26.37778
G1 X249.435 Y147.886 E26.45501
G1 X249.159 Y148.813 E26.53222
G1 X248.807 Y149.714 E26.60943
G1 X248.667 Y150 E26.63485
G1 X248.809 Y150.29 E26.66063
G1 X249.16 Y151.192 E26.73789
G1 X249.436 Y152.119 E26.8151
G1 X249.563 Y152.727 E26.86468
G1 X250.821 Y152.727 E26.9651
G1 X251.787 Y152.767 E27.04227
G1 X252.747 Y152.887 E27.1195
G1 X253.694 Y153.085 E27.19673
G1 X254.621 Y153.361 E27.27393
G1 X255.522 Y153.713 E27.35115
G1 X256.391 Y154.138 E27.42837
G1 X257.222 Y154.633 E27.50558
G1 X258.009 Y155.195 E27.58277
G1 X258.747 Y155.821 E27.66002
G1 X259.431 Y156.505 E27.73724
G1 X260.056 Y157.243 E27.81444
G1 X260.618 Y158.03 E27.89163
G1 X261.112 Y158.861 E27.9688
G1 X261.537 Y159.73 E28.04602
G1 X261.888 Y160.632 E28.12328
G1 X262.164 Y161.559 E28.20049
G1 X262.362 Y162.506 E28.27772
G1 X262.481 Y163.465 E28.35486
G1 X262.521 Y164.427 E28.43171
G1 X262.521 Y190.311 E30.49789
G1 X262.481 Y191.277 E30.57506
G1 X262.361 Y192.237 E30.65229
G1 X262.163 Y193.184 E30.72952
G1 X261.887 Y194.111 E30.80673
G1 X261.535 Y195.012 E30.88394
G1 X261.11 Y195.881 E30.96116
G1 X260.615 Y196.712 E31.03837
G1 X260.053 Y197.499 E31.11557
G1 X259.427 Y198.237 E31.19282
G1 X258.743 Y198.921 E31.27003
G1 X258.005 Y199.546 E31.34723
G1 X257.218 Y200.108 E31.42442
G1 X256.387 Y200.602 E31.50159
G1 X255.518 Y201.027 E31.57881
G1 X254.616 Y201.378 E31.65607
G1 X253.689 Y201.654 E31.73328
G1 X252.742 Y201.852 E31.81051
G1 X251.783 Y201.971 E31.88765
G1 X250.821 Y202.011 E31.96451
G1 X249.793 Y202.011 E32.04656
G1 X249.793 Y211.608 E32.81264
G1 X249.753 Y212.574 E32.88982
G1 X249.633 Y213.534 E32.96704
G1 X249.435 Y214.481 E33.04427
G1 X249.159 Y215.408 E33.12148
G1 X248.807 Y216.309 E33.19869
G1 X248.382 Y217.178 E33.27591
G1 X247.887 Y218.009 E33.35312
G1 X247.325 Y218.796 E33.43032
G1 X246.699 Y219.534 E33.50757
G1 X246.015 Y220.218 E33.58478
G1 X245.277 Y220.843 E33.66198
G1 X244.49 Y221.405 E33.73918
G1 X243.659 Y221.899 E33.81635
G1 X242.79 Y222.324 E33.89357
G1 X241.888 Y222.675 E33.97083
G1 X240.961 Y222.951 E34.04803
G1 X240.014 Y223.149 E34.12526
G1 X239.055 Y223.268 E34.2024
G1 X238.093 Y223.308 E34.27926
G1 X212.209 Y223.308 E36.34543
G1 X211.243 Y223.268 E36.42261
G1 X210.283 Y223.148 E36.49983
G1 X209.336 Y222.95 E36.57706
G1 X208.409 Y222.674 E36.65427
G1 X207.508 Y222.322 E36.73149
G1 X206.639 Y221.897 E36.8087
G1 X205.808 Y221.402 E36.88592
G1 X205.021 Y220.84 E36.96311
G1 X204.283 Y220.214 E37.04036
G1 X203.599 Y219.53 E37.11758
G1 X202.974 Y218.792 E37.19477
G1 X202.412 Y218.005 E37.27197
G1 X201.918 Y217.174 E37.34914
G1 X201.493 Y216.305 E37.42636
G1 X201.142 Y215.403 E37.50362
G1 X200.866 Y214.476 E37.58083
G1 X200.668 Y213.529 E37.65805
G1 X200.549 Y212.57 E37.73519
G1 X200.509 Y211.608 E37.81205
G1 X200.509 Y202.011 E38.57812
G1 X194.2 Y202.011 E39.08174
G1 X193.234 Y201.971 E39.15891
G1 X192.274 Y201.851 E39.23614
G1 X191.327 Y201.653 E39.31337
G1 X190.4 Y201.377 E39.39057
G1 X189.499 Y201.025 E39.46779
G1 X188.63 Y200.6 E39.54501
G1 X187.799 Y200.105 E39.62222
G1 X187.012 Y199.543 E39.69942
G1 X186.274 Y198.917 E39.77666
G1 X185.59 Y198.233 E39.85388
G1 X184.965 Y197.495 E39.93108
G1 X184.403 Y196.708 E40.00827
G1 X183.909 Y195.877 E40.08544
G1 X183.484 Y195.008 E40.16266
G1 X183.133 Y194.106 E40.23992
G1 X182.857 Y193.179 E40.31713
G1 X182.659 Y192.232 E40.39436
G1 X182.54 Y191.273 E40.4715
G1 X182.5 Y190.311 E40.54835
G1 X182.5 Y188.554 E40.68861
G1 X121.098 Y188.554 E45.58998
G1 X121.098 Y190.311 E45.73023
G1 X121.058 Y191.277 E45.80741
G1 X120.938 Y192.237 E45.88463
G1 X120.74 Y193.184 E45.96186
G1 X120.464 Y194.111 E46.03907
G1 X120.112 Y195.012 E46.11629
G1 X119.687 Y195.881 E46.1935
G1 X119.192 Y196.712 E46.27071
G1 X118.63 Y197.499 E46.34791
G1 X118.004 Y198.237 E46.42516
G1 X117.32 Y198.921 E46.50237
G1 X116.582 Y199.546 E46.57957
G1 X115.795 Y200.108 E46.65677
G1 X114.964 Y200.602 E46.73394
G1 X114.095 Y201.027 E46.81116
G1 X113.193 Y201.378 E46.88842
G1 X112.266 Y201.654 E46.96562
G1 X111.319 Y201.852 E47.04285
G1 X110.36 Y201.971 E47.11999
G1 X109.398 Y202.011 E47.19685
G1 X108.37 Y202.011 E47.27891
G1 X108.37 Y211.608 E48.04498
G1 X108.33 Y212.574 E48.12216
G1 X108.21 Y213.534 E48.19939
G1 X108.012 Y214.481 E48.27661
G1 X107.736 Y215.408 E48.35382
G1 X107.384 Y216.309 E48.43104
G1 X106.959 Y217.178 E48.50826
G1 X106.464 Y218.009 E48.58547
G1 X105.902 Y218.796 E48.66266
G1 X105.276 Y219.534 E48.73991
G1 X104.592 Y220.218 E48.81713
G1 X103.854 Y220.843 E48.89432
G1 X103.067 Y221.405 E48.97152
G1 X102.236 Y221.899 E49.04869
G1 X101.367 Y222.324 E49.12591
G1 X100.465 Y222.675 E49.20317
G1 X99.538 Y222.951 E49.28038
G1 X98.591 Y223.149 E49.35761
G1 X97.632 Y223.268 E49.43474
G1 X96.67 Y223.308 E49.5116
G1 X70.786 Y223.308 E51.57777
G1 X69.82 Y223.268 E51.65495
G1 X68.86 Y223.148 E51.73218
G1 X67.913 Y222.95 E51.80941
G1 X66.986 Y222.674 E51.88661
G1 X66.085 Y222.322 E51.96383
G1 X65.216 Y221.897 E52.04105
G1 X64.385 Y221.402 E52.11826
G1 X63.598 Y220.84 E52.19545
G1 X62.86 Y220.214 E52.2727
G1 X62.176 Y219.53 E52.34992
G1 X61.551 Y218.792 E52.42712
G1 X60.989 Y218.005 E52.50431
G1 X60.495 Y217.174 E52.58148
G1 X60.07 Y216.305 E52.6587
G1 X59.719 Y215.403 E52.73596
G1 X59.443 Y214.476 E52.81317
G1 X59.245 Y213.529 E52.8904
G1 X59.126 Y212.57 E52.96754
G1 X59.086 Y211.608 E53.04439
G1 X59.086 Y202.011 E53.81047
G1 X52.777 Y202.011 E54.31408
G1 X51.811 Y201.971 E54.39125
G1 X50.851 Y201.851 E54.46848
G1 X49.904 Y201.653 E54.54571
G1 X48.977 Y201.377 E54.62292
G1 X48.076 Y201.025 E54.70013
G1 X47.207 Y200.6 E54.77735
G1 X46.376 Y200.105 E54.85456
G1 X45.589 Y199.543 E54.93176
G1 X44.851 Y198.917 E55.00901
G1 X44.167 Y198.233 E55.08622
G1 X43.542 Y197.495 E55.16342
G1 X42.98 Y196.708 E55.24062
G1 X42.486 Y195.877 E55.31779
G1 X42.061 Y195.008 E55.395
G1 X41.71 Y194.106 E55.47227
G1 X41.434 Y193.179 E55.54947
G1 X41.236 Y192.232 E55.6267
G1 X41.117 Y191.273 E55.70384
G1 X41.077 Y190.311 E55.7807
G1 X41.077 Y164.427 E57.84687
G1 X41.117 Y163.461 E57.92405
G1 X41.237 Y162.501 E58.00127
G1 X41.435 Y161.554 E58.0785
G1 X41.711 Y160.627 E58.15571
G1 X42.063 Y159.726 E58.23293
G1 X42.488 Y158.857 E58.31014
G1 X42.983 Y158.026 E58.38735
G1 X43.545 Y157.239 E58.46455
G1 X44.171 Y156.501 E58.5418
G1 X44.855 Y155.817 E58.61901
G1 X45.593 Y155.192 E58.69621
G1 X46.38 Y154.63 E58.77341
G1 X47.211 Y154.136 E58.85058
G1 X48.08 Y153.711 E58.9278
G1 X48.982 Y153.36 E59.00506
G1 X49.909 Y153.084 E59.08226
G1 X50.856 Y152.886 E59.15949
G1 X51.815 Y152.767 E59.23663
G1 X52.777 Y152.727 E59.31349
G1 X59.316 Y152.727 E59.83546
G1 X59.444 Y152.114 E59.88545
G1 X59.72 Y151.187 E59.96266
G1 X59.824 Y150.92 E59.98553
G1 X59.719 Y150.649 E60.00873
G1 X59.443 Y149.722 E60.08593
G1 X59.245 Y148.775 E60.16316
G1 X59.126 Y147.816 E60.2403
G1 X59.086 Y146.854 E60.31716
G1 X59.086 Y137.257 E61.08323
G1 X52.777 Y137.257 E61.58684
G1 X51.811 Y137.217 E61.66402
G1 X50.851 Y137.097 E61.74125
G1 X49.904 Y136.899 E61.81848
G1 X48.977 Y136.623 E61.89568
G1 X48.076 Y136.271 E61.9729
G1 X47.207 Y135.846 E62.05012
G1 X46.376 Y135.351 E62.12733
G1 X45.589 Y134.789 E62.20452
G1 X44.851 Y134.163 E62.28177
G1 X44.167 Y133.479 E62.35899
G1 X43.542 Y132.741 E62.43619
G1 X42.98 Y131.954 E62.51338
G1 X42.486 Y131.123 E62.59055
G1 X42.061 Y130.254 E62.66777
G1 X41.71 Y129.352 E62.74503
G1 X41.434 Y128.425 E62.82224
G1 X41.236 Y127.478 E62.89947
G1 X41.117 Y126.519 E62.97661
G1 X41.077 Y125.557 E63.05346
G1 X41.077 Y99.673 E65.11964
G1 X41.117 Y98.707 E65.19681
G1 X41.237 Y97.747 E65.27404
G1 X41.435 Y96.8 E65.35127
G1 X41.711 Y95.873 E65.42848
G1 X42.063 Y94.972 E65.50569
G1 X42.488 Y94.103 E65.58291
G1 X42.983 Y93.272 E65.66012
G1 X43.545 Y92.485 E65.73732
G1 X44.171 Y91.747 E65.81457
G1 X44.855 Y91.063 E65.89178
G1 X45.593 Y90.438 E65.96898
G1 X46.38 Y89.876 E66.04617
G1 X47.211 Y89.382 E66.12334
G0 F7500 X47.779 Y89.762
G1 F1500 X48.637 Y89.374 E66.19851
G1 X49.526 Y89.06 E66.27377
G1 X50.437 Y88.822 E66.34893
G1 X51.366 Y88.663 E66.42417
G1 X52.305 Y88.583 E66.49939
G1 X52.777 Y88.573 E66.53708
G1 X59.818 Y88.573 E67.09912
G1 X59.846 Y88.358 E67.11643
G1 X60.044 Y87.437 E67.19163
G1 X60.32 Y86.536 E67.26685
G1 X60.671 Y85.662 E67.34203
G1 X61.095 Y84.821 E67.41721
G1 X61.589 Y84.019 E67.4924
G1 X62.149 Y83.261 E67.56763
G1 X62.772 Y82.554 E67.64285
G1 X63.452 Y81.902 E67.71805
G1 X64.185 Y81.31 E67.79326
G1 X64.965 Y80.782 E67.86845
G1 X65.788 Y80.323 E67.94367
G1 X66.646 Y79.935 E68.01884
G1 X67.535 Y79.621 E68.0941
G1 X68.446 Y79.383 E68.16926
G1 X69.375 Y79.224 E68.24449
G1 X70.314 Y79.144 E68.31972
G1 X70.786 Y79.134 E68.3574
G1 X96.67 Y79.134 E70.42358
G1 X97.611 Y79.174 E70.49876
G1 X98.546 Y79.294 E70.57401
G1 X99.467 Y79.492 E70.64921
G1 X100.368 Y79.768 E70.72443
G1 X101.242 Y80.119 E70.79961
G1 X102.083 Y80.543 E70.87479
G1 X102.885 Y81.037 E70.94998
G1 X103.643 Y81.597 E71.02521
G1 X104.35 Y82.22 E71.10043
G1 X105.002 Y82.9 E71.17563
G1 X105.594 Y83.633 E71.25084
G1 X106.122 Y84.413 E71.32603
G1 X106.581 Y85.236 E71.40125
G1 X106.969 Y86.094 E71.47641
G1 X107.283 Y86.983 E71.55168
G1 X107.521 Y87.894 E71.62684
G1 X107.637 Y88.573 E71.68182
G1 X109.398 Y88.573 E71.82239
G1 X110.339 Y88.613 E71.89758
G1 X111.274 Y88.733 E71.97282
G1 X112.195 Y88.931 E72.04802
G1 X113.096 Y89.207 E72.12324
G1 X113.97 Y89.558 E72.19842
G1 X114.811 Y89.982 E72.27361
G1 X115.613 Y90.476 E72.34879
G1 X116.371 Y91.036 E72.42402
G1 X117.078 Y91.659 E72.49924
G1 X117.73 Y92.339 E72.57444
G1 X118.322 Y93.072 E72.64965
G1 X118.85 Y93.852 E72.72484
G1 X119.309 Y94.675 E72.80006
G1 X119.697 Y95.533 E72.87523
G1 X120.011 Y96.422 E72.95049
G1 X120.249 Y97.333 E73.02565
G1 X120.408 Y98.262 E73.10089
G1 X120.488 Y99.201 E73.17611
G1 X120.498 Y99.673 E73.2138
G1 X120.498 Y109.133 E73.96894
G1 X183.1 Y109.133 E78.9661
G1 X183.1 Y97.832 E79.86819
G1 X183.14 Y96.891 E79.94338
G1 X183.26 Y95.956 E80.01862
G1 X183.458 Y95.035 E80.09382
G1 X183.734 Y94.134 E80.16904
G1 X184.085 Y93.26 E80.24422
G1 X184.509 Y92.419 E80.31941
G1 X185.003 Y91.617 E80.3946
G1 X185.563 Y90.859 E80.46982
G1 X186.186 Y90.152 E80.54504
G1 X186.866 Y89.5 E80.62024
G1 X187.599 Y88.908 E80.69546
G1 X188.379 Y88.38 E80.77064
G1 X189.202 Y87.921 E80.84586
G1 X190.06 Y87.533 E80.92103
G1 X190.949 Y87.219 E80.99629
G1 X191.86 Y86.981 E81.07145
G1 X192.789 Y86.822 E81.14669
G1 X193.728 Y86.742 E81.22191
G1 X194.2 Y86.732 E81.2596
G1 X201.241 Y86.732 E81.82164
G1 X201.269 Y86.516 E81.83903
G1 X201.467 Y85.595 E81.91423
G1 X201.743 Y84.694 E81.98945
G1 X202.094 Y83.82 E82.06463
G1 X202.518 Y82.979 E82.13981
G1 X203.012 Y82.177 E82.215
G1 X203.572 Y81.419 E82.29023
G1 X204.195 Y80.712 E82.36545
G1 X204.875 Y80.06 E82.44065
G1 X205.608 Y79.468 E82.51586
G1 X206.388 Y78.94 E82.59105
G1 X207.211 Y78.481 E82.66627
G1 X208.069 Y78.093 E82.74144
G1 X208.958 Y77.779 E82.8167
