;FLAVOR:Marlin
;TIME:2714
;Filament used: 9.5592m
;Layer height: 0.6
;MINX:126.398
;MINY:134.142
;MINZ:0.6
;MAXX:173.601
;MAXY:196.358
;MAXZ:22.8
;Generated with Cura_SteamEngine master
M140 S60
M105
M190 S60
M104 S220
M105
M109 S220
M82 ;absolute extrusion mode
G28 ;Home
G1 Z15.0 F2000 ;Move the platform
G92 E0
G92 E0
;LAYER_COUNT:38
;LAYER:0
M107 P2
G0 F9000 X127.242 Y134.591 Z0.6
;TYPE:SKIRT
G1 F2400 X127.488 Y134.375 E0.0735
G1 X127.78 Y134.225 E0.1472
G1 X128.247 Y134.142 E0.25368
G1 X172.251 Y134.158 E10.13284
G1 X172.577 Y134.198 E10.20658
G1 X172.883 Y134.315 E10.28013
G1 X173.152 Y134.503 E10.35381
G1 X173.368 Y134.75 E10.42747
G1 X173.518 Y135.042 E10.50117
G1 X173.601 Y135.508 E10.60744
G1 X173.599 Y164.508 E17.11811
G1 X173.559 Y164.834 E17.19185
G1 X173.442 Y165.14 E17.2654
G1 X173.367 Y165.25 E17.29529
G1 X173.517 Y165.542 E17.36899
G1 X173.6 Y166.008 E17.47525
G1 X173.598 Y195.008 E23.98593
G1 X173.558 Y195.334 E24.05966
G1 X173.441 Y195.64 E24.13321
G1 X173.253 Y195.909 E24.20689
G1 X173.006 Y196.125 E24.28056
G1 X172.714 Y196.275 E24.35426
G1 X172.248 Y196.358 E24.46052
G1 X128.25 Y196.342 E34.33834
G1 X127.924 Y196.302 E34.41207
G1 X127.618 Y196.185 E34.48562
G1 X127.349 Y195.997 E34.5593
G1 X127.133 Y195.75 E34.63297
G1 X126.983 Y195.458 E34.70667
G1 X126.9 Y194.992 E34.81293
G1 X126.898 Y185.057 E37.0434
G1 X126.847 Y185.021 E37.05741
G1 X126.631 Y184.774 E37.13108
G1 X126.481 Y184.483 E37.20458
G1 X126.398 Y184.016 E37.31107
G1 X126.398 Y176.97 E38.89294
G1 X126.438 Y176.644 E38.96667
G1 X126.555 Y176.338 E39.04022
G1 X126.743 Y176.069 E39.1139
G1 X126.898 Y175.934 E39.16005
G1 X126.896 Y165.992 E41.39209
G1 X126.936 Y165.667 E41.4656
G1 X127.053 Y165.36 E41.53936
G1 X127.132 Y165.247 E41.57031
G1 X126.984 Y164.958 E41.64321
G1 X126.901 Y164.492 E41.74948
G1 X126.899 Y154.557 E43.97994
G1 X126.848 Y154.521 E43.99396
G1 X126.632 Y154.274 E44.06762
G1 X126.482 Y153.983 E44.14112
G1 X126.399 Y153.516 E44.24761
G1 X126.399 Y146.47 E45.82948
G1 X126.439 Y146.144 E45.90322
G1 X126.556 Y145.838 E45.97677
G1 X126.744 Y145.569 E46.05045
G1 X126.899 Y145.434 E46.09659
G1 X126.897 Y135.492 E48.32863
G1 X126.937 Y135.167 E48.40215
G1 X127.054 Y134.86 E48.4759
G1 X127.242 Y134.591 E48.54958
G0 F9000 X127.948 Y135.156
G1 F2400 X128.112 Y135.063 E48.59191
G1 X128.247 Y135.042 E48.62258
G1 X172.251 Y135.058 E58.50174
G1 X172.436 Y135.098 E58.54424
G1 X172.588 Y135.209 E58.58649
G1 X172.68 Y135.374 E58.6289
G1 X172.701 Y135.508 E58.65935
G1 X172.699 Y164.508 E65.17003
G1 X172.659 Y164.693 E65.21252
G1 X172.548 Y164.845 E65.25477
G1 X172.383 Y164.937 E65.29719
G1 X172.249 Y164.958 E65.32764
G1 X128.251 Y164.942 E75.20545
G1 X128.066 Y164.902 E75.24794
G1 X127.914 Y164.791 E75.2902
G1 X127.822 Y164.626 E75.33261
G1 X127.801 Y164.492 E75.36306
G1 X127.799 Y153.966 E77.72621
G1 X127.565 Y153.926 E77.77951
G1 X127.412 Y153.815 E77.82194
G1 X127.32 Y153.651 E77.86416
G1 X127.299 Y153.516 E77.89483
G1 X127.299 Y146.47 E79.4767
G1 X127.339 Y146.286 E79.51898
G1 X127.45 Y146.133 E79.56141
G1 X127.614 Y146.041 E79.60363
G1 X127.799 Y146.02 E79.64543
G1 X127.797 Y135.492 E82.00903
G1 X127.837 Y135.308 E82.0513
G1 X127.948 Y135.156 E82.09356
G0 F9000 X127.583 Y135.157
G0 X127.096 Y145.817
G0 X127.096 Y154.169
G0 X127.598 Y165.145
G0 X128.247 Y165.158
G0 X128.246 Y165.542
G1 F2400 X172.25 Y165.558 E91.97272
G1 X172.435 Y165.598 E92.01521
G1 X172.587 Y165.709 E92.05747
G1 X172.679 Y165.874 E92.09988
G1 X172.7 Y166.008 E92.13033
G1 X172.698 Y195.008 E98.641
G1 X172.658 Y195.193 E98.68349
G1 X172.547 Y195.345 E98.72575
G1 X172.382 Y195.437 E98.76816
G1 X172.248 Y195.458 E98.79861
G1 X128.25 Y195.442 E108.67643
G1 X128.065 Y195.402 E108.71892
G1 X127.913 Y195.291 E108.76117
G1 X127.821 Y195.126 E108.80359
G1 X127.8 Y194.992 E108.83404
G1 X127.798 Y184.466 E111.19719
G1 X127.564 Y184.426 E111.25048
G1 X127.411 Y184.315 E111.29292
G1 X127.319 Y184.151 E111.33514
G1 X127.298 Y184.016 E111.36581
G1 X127.298 Y176.97 E112.94768
G1 X127.338 Y176.786 E112.98995
G1 X127.449 Y176.633 E113.03239
G1 X127.613 Y176.541 E113.07461
G1 X127.798 Y176.52 E113.11641
G1 X127.796 Y165.992 E115.48
G1 X127.836 Y165.808 E115.52228
G1 X127.947 Y165.656 E115.56453
G1 X128.111 Y165.563 E115.60686
G1 X128.246 Y165.542 E115.63753
;MESH:y-brace-imprimir-4vezes.stl
G0 F9000 X129.615 Y163.128
G0 X128.701 Y164.042
;TYPE:WALL-OUTER
G1 F2400 X128.699 Y153.066 E118.10171
G1 X128.199 Y153.066 E118.21396
G1 X128.199 Y146.92 E119.59378
G1 X128.699 Y146.92 E119.70603
G1 X128.697 Y135.942 E122.17066
G1 X171.801 Y135.958 E131.84776
G1 X171.799 Y164.058 E138.15638
G1 X128.701 Y164.042 E147.83213
G0 F9000 X128.701 Y163.842
G0 X129.691 Y163.053
G0 X129.691 Y163.043
G0 X153.596 Y161.951
G0 X153.597 Y160.952
G1 F2400 X153.597 Y152.052 E149.83023
G1 X148.199 Y152.05 E151.04212
G1 X148.199 Y147.95 E151.96259
G1 X153.597 Y147.952 E153.17447
G1 X153.598 Y139.05 E155.17303
G1 X144.549 Y139.048 E157.20458
G1 X144.549 Y141.048 E157.65359
G1 X140.449 Y141.046 E158.57407
G1 X140.449 Y139.046 E159.02308
G1 X131.412 Y139.044 E161.05194
G1 X131.404 Y156.293 E164.92444
G1 X131.402 Y156.323 E164.93119
G1 X131.401 Y160.944 E165.96863
G1 X140.447 Y160.948 E167.99951
G1 X140.447 Y158.948 E168.44853
G1 X144.549 Y158.95 E169.36945
G1 X144.549 Y160.95 E169.81846
G1 X153.597 Y160.952 E171.84979
G0 F9000 X153.597 Y160.752
G0 X154.597 Y160.752
G0 X154.567 Y161.922
G0 X154.497 Y161.852
;TYPE:WALL-INNER
G1 F2400 X154.497 Y151.152 E174.252
G1 X149.099 Y151.15 E175.46389
G1 X149.099 Y148.85 E175.98025
G1 X154.497 Y148.852 E177.19213
G1 X154.498 Y138.15 E179.5948
G1 X143.649 Y138.148 E182.03046
G1 X143.649 Y140.148 E182.47947
G1 X141.349 Y140.146 E182.99584
G1 X141.349 Y138.146 E183.44485
G1 X130.512 Y138.144 E185.87782
G1 X130.504 Y156.263 E189.94564
G1 X130.502 Y156.293 E189.95239
G1 X130.501 Y161.844 E191.19862
G1 X141.347 Y161.848 E193.63362
G1 X141.347 Y159.848 E194.08263
G1 X143.649 Y159.85 E194.59944
G1 X143.649 Y161.85 E195.04845
G1 X154.497 Y161.852 E197.48389
G0 F9000 X154.567 Y161.922
G0 X161.678 Y154.513
G0 X161.806 Y153.522
;TYPE:WALL-OUTER
G1 F2400 X162.74 Y153.643 E197.69533
G1 X162.849 Y153.632 E197.71993
G1 X163.689 Y153.521 E197.91015
G1 X164.567 Y153.157 E198.12354
G1 X165.319 Y152.579 E198.33647
G1 X165.901 Y151.828 E198.54978
G1 X166.266 Y150.948 E198.76367
G1 X166.388 Y150.006 E198.97692
G1 X166.264 Y149.065 E199.19
G1 X165.9 Y148.186 E199.40359
G1 X165.322 Y147.434 E199.61653
G1 X164.571 Y146.852 E199.82984
G1 X163.691 Y146.487 E200.04372
G1 X162.748 Y146.365 E200.2572
G1 X161.929 Y146.473 E200.44266
G1 X161.814 Y146.485 E200.46862
G1 X160.928 Y146.852 E200.68392
G1 X160.173 Y147.43 E200.89739
G1 X159.595 Y148.183 E201.1105
G1 X159.231 Y149.061 E201.32389
G1 X159.106 Y150.005 E201.53767
G1 X159.216 Y150.82 E201.7223
G1 X159.228 Y150.94 E201.74938
G1 X159.596 Y151.824 E201.96435
G1 X160.17 Y152.571 E202.17585
G1 X160.254 Y152.641 E202.2004
G1 X160.927 Y153.157 E202.39079
G1 X161.806 Y153.522 E202.60447
G0 F9000 X162.004 Y153.547
G0 X161.572 Y154.399
;TYPE:WALL-INNER
G1 F2400 X162.727 Y154.549 E202.86595
G1 X162.953 Y154.526 E202.91695
G1 X163.924 Y154.398 E203.13683
G1 X165.021 Y153.943 E203.40346
G1 X165.959 Y153.222 E203.66907
G1 X166.686 Y152.284 E203.9355
G1 X167.143 Y151.182 E204.20334
G1 X167.296 Y150.005 E204.4698
G1 X167.141 Y148.83 E204.73588
G1 X166.686 Y147.732 E205.00272
G1 X165.965 Y146.794 E205.26833
G1 X165.027 Y146.067 E205.53476
G1 X163.925 Y145.61 E205.80259
G1 X162.747 Y145.457 E206.06928
G1 X161.826 Y145.579 E206.27786
G1 X161.59 Y145.603 E206.33112
G1 X160.475 Y146.066 E206.60216
G1 X159.531 Y146.788 E206.86898
G1 X158.809 Y147.729 E207.13526
G1 X158.354 Y148.826 E207.40189
G1 X158.198 Y150.006 E207.66911
G1 X158.32 Y150.91 E207.8739
G1 X158.346 Y151.163 E207.931
G1 X158.81 Y152.279 E208.20234
G1 X159.517 Y153.199 E208.46283
G1 X159.692 Y153.344 E208.51385
G1 X160.473 Y153.943 E208.73483
G1 X161.572 Y154.399 E209.00195
G0 F9000 X161.547 Y154.495
G0 X154.525 Y161.88
G0 X129.671 Y163.072
G0 X129.601 Y163.142
G1 F2400 X129.599 Y152.166 E211.46613
G1 X129.099 Y152.166 E211.57838
G1 X129.099 Y147.82 E212.55409
G1 X129.599 Y147.82 E212.66634
G1 X129.597 Y136.842 E215.13097
G1 X170.901 Y136.858 E224.40396
G1 X170.899 Y163.158 E230.30846
G1 X129.601 Y163.142 E239.58011
G0 F9000 X129.671 Y163.072
G0 X142.237 Y162.257
;TYPE:SKIN
G1 F2400 X142.237 Y160.739 E239.92091
G1 X142.759 Y160.739 E240.0381
G1 X142.759 Y162.257 E240.3789
G1 X142.237 Y162.257 E240.49609
G0 F9000 X154.525 Y161.88
G0 X154.525 Y151.124
G0 X149.989 Y150.26
G1 F2400 X149.989 Y149.74 E240.61284
G1 X155.387 Y149.742 E241.82472
G1 X155.388 Y137.742 E244.51879
G1 X170.011 Y137.748 E247.80174
G1 X170.009 Y162.268 E253.30663
G1 X155.387 Y162.262 E256.58935
G1 X155.387 Y150.262 E259.28342
G1 X149.989 Y150.26 E260.49531
G0 F9000 X157.474 Y151.384
G1 F2400 X158.033 Y152.728 E260.8221
G1 X158.872 Y153.82 E261.13127
G1 X159.136 Y154.04 E261.20842
G1 X160.024 Y154.72 E261.45952
G1 X161.34 Y155.267 E261.77947
G1 X162.715 Y155.445 E262.09074
G1 X163.056 Y155.41 E262.1677
G1 X164.157 Y155.265 E262.41702
G1 X165.47 Y154.72 E262.73618
G1 X166.592 Y153.857 E263.05397
G1 X167.463 Y152.735 E263.37286
G1 X168.011 Y151.414 E263.69393
G1 X168.194 Y150.004 E264.01314
G1 X168.008 Y148.597 E264.33177
G1 X167.463 Y147.283 E264.65114
G1 X166.6 Y146.161 E264.96893
G1 X165.478 Y145.29 E265.28782
G1 X164.157 Y144.742 E265.60889
G1 X162.745 Y144.559 E265.92855
G1 X161.735 Y144.693 E266.15729
G1 X161.37 Y144.731 E266.23967
G1 X160.026 Y145.289 E266.56638
G1 X158.896 Y146.153 E266.88573
G1 X158.032 Y147.28 E267.20455
G1 X157.487 Y148.593 E267.52371
G1 X157.3 Y150.008 E267.84415
G1 X157.434 Y151.001 E268.0691
G1 X157.474 Y151.384 E268.15556
G0 F9000 X154.526 Y138.122
G0 X143.621 Y138.12
G0 X142.239 Y139.257
G1 F2400 X142.239 Y137.737 E268.49681
G1 X142.759 Y137.737 E268.61355
G1 X142.759 Y139.257 E268.9548
G1 X142.239 Y139.257 E269.07154
G0 F9000 X143.621 Y138.12
G0 X154.526 Y138.122
G0 X156.779 Y161.87
G1 F2400 X155.776 Y160.867 E269.38999
G0 F9000 X155.776 Y159.594
G1 F2400 X158.053 Y161.871 E270.11294
G0 F9000 X159.326 Y161.872
G1 F2400 X155.776 Y158.321 E271.24022
G0 F9000 X155.776 Y157.049
G1 F2400 X160.6 Y161.873 E272.77184
G0 F9000 X161.873 Y161.873
G1 F2400 X155.776 Y155.776 E274.70763
G0 F9000 X155.776 Y154.503
G1 F2400 X163.147 Y161.874 E277.04792
G0 F9000 X164.42 Y161.875
G1 F2400 X155.776 Y153.23 E279.79254
G0 F9000 X155.776 Y151.957
G1 F2400 X165.694 Y161.875 E282.9415
G0 F9000 X166.967 Y161.876
G1 F2400 X160.384 Y155.293 E285.0316
G0 F9000 X162.126 Y155.762
G1 F2400 X168.241 Y161.877 E286.9731
G0 F9000 X169.514 Y161.877
G1 F2400 X163.396 Y155.759 E288.91556
G0 F9000 X164.468 Y155.558
G1 F2400 X169.618 Y160.709 E290.55084
G0 F9000 X169.618 Y159.436
G1 F2400 X165.366 Y155.184 E291.90085
G0 F9000 X166.146 Y154.69
G1 F2400 X169.618 Y158.163 E293.00337
G0 F9000 X169.618 Y156.89
G1 F2400 X166.865 Y154.137 E293.87744
G0 F9000 X167.422 Y153.421
G1 F2400 X169.618 Y155.617 E294.57467
G0 F9000 X169.618 Y154.345
G1 F2400 X167.92 Y152.647 E295.11379
G0 F9000 X168.294 Y151.747
G1 F2400 X169.619 Y153.073 E295.53463
G0 F9000 X169.619 Y151.8
G1 F2400 X168.498 Y150.679 E295.89055
G0 F9000 X169.619 Y150.527
G1 F2400 X168.509 Y149.417 E296.24297
G0 F9000 X169.619 Y149.254
G1 F2400 X168.051 Y147.687 E296.74065
G0 F9000 X169.619 Y147.981
G1 F2400 X159.771 Y138.134 E299.86723
G0 F9000 X161.044 Y138.134
G1 F2400 X169.619 Y146.709 E302.58978
G0 F9000 X169.62 Y145.437
G1 F2400 X162.318 Y138.135 E304.90816
G0 F9000 X163.591 Y138.136
G1 F2400 X169.62 Y144.164 E306.82221
G0 F9000 X169.62 Y142.891
G1 F2400 X164.864 Y138.136 E308.33208
G0 F9000 X166.138 Y138.136
G1 F2400 X169.62 Y141.618 E309.43761
G0 F9000 X169.62 Y140.345
G1 F2400 X167.411 Y138.137 E310.13881
G0 F9000 X168.685 Y138.138
G1 F2400 X169.62 Y139.073 E310.43567
G0 F9000 X165.057 Y144.692
G1 F2400 X158.497 Y138.133 E312.5183
G0 F9000 X157.224 Y138.132
G1 F2400 X163.334 Y144.242 E314.45822
G0 F9000 X162.073 Y144.254
G1 F2400 X155.951 Y138.132 E316.40196
G0 F9000 X155.776 Y139.23
G1 F2400 X161.004 Y144.458 E318.06184
G0 F9000 X160.105 Y144.832
G1 F2400 X155.776 Y140.502 E319.43646
G0 F9000 X155.776 Y141.775
G1 F2400 X159.33 Y145.329 E320.56485
G0 F9000 X158.611 Y145.883
G1 F2400 X155.776 Y143.048 E321.46496
G0 F9000 X155.776 Y144.321
G1 F2400 X158.059 Y146.604 E322.18981
G0 F9000 X157.566 Y147.383
G1 F2400 X155.776 Y145.593 E322.75813
G0 F9000 X155.776 Y146.866
G1 F2400 X157.192 Y148.283 E323.20787
G0 F9000 X156.991 Y149.355
G1 F2400 X155.776 Y148.139 E323.59379
G0 F9000 X155.776 Y149.412
G1 F2400 X156.989 Y150.625 E323.97892
G0 F9000 X155.776 Y150.685
G1 F2400 X157.46 Y152.369 E324.51359
G0 F9000 X154.604 Y162.241
;TYPE:SKIN
G1 F2400 X154.982 Y162.619 E324.55359
G0 F9000 X154.699 Y162.76
G1 F2400 X154.18 Y162.241 E324.60852
G0 F9000 X153.756 Y162.241
G1 F2400 X154.275 Y162.76 E324.66345
G0 F9000 X153.85 Y162.76
G1 F2400 X153.331 Y162.241 E324.71837
G0 F9000 X152.907 Y162.241
G1 F2400 X153.426 Y162.76 E324.7733
G0 F9000 X153.001 Y162.759
G1 F2400 X152.483 Y162.241 E324.82812
G0 F9000 X152.059 Y162.241
G1 F2400 X152.577 Y162.759 E324.88294
G0 F9000 X152.153 Y162.759
G1 F2400 X151.634 Y162.241 E324.93782
G0 F9000 X151.21 Y162.241
G1 F2400 X151.728 Y162.759 E324.99264
G0 F9000 X151.303 Y162.759
G1 F2400 X150.785 Y162.24 E325.04751
G0 F9000 X150.361 Y162.24
G1 F2400 X150.879 Y162.759 E325.10239
G0 F9000 X150.455 Y162.759
G1 F2400 X149.937 Y162.24 E325.15726
G0 F9000 X149.512 Y162.24
G1 F2400 X150.031 Y162.759 E325.21219
G0 F9000 X149.606 Y162.758
G1 F2400 X149.088 Y162.24 E325.26701
G0 F9000 X148.664 Y162.24
G1 F2400 X149.181 Y162.758 E325.32178
G0 F9000 X148.757 Y162.758
G1 F2400 X148.239 Y162.24 E325.3766
G0 F9000 X147.815 Y162.24
G1 F2400 X148.333 Y162.758 E325.43142
G0 F9000 X147.908 Y162.757
G1 F2400 X147.391 Y162.24 E325.48614
G0 F9000 X146.966 Y162.239
G1 F2400 X147.484 Y162.757 E325.54096
G0 F9000 X147.059 Y162.757
G1 F2400 X146.542 Y162.239 E325.59573
G0 F9000 X146.117 Y162.239
G1 F2400 X146.635 Y162.757 E325.65055
G0 F9000 X146.21 Y162.756
G1 F2400 X145.693 Y162.239 E325.70527
G0 F9000 X145.269 Y162.239
G1 F2400 X145.786 Y162.756 E325.75998
G0 F9000 X145.362 Y162.756
G1 F2400 X144.845 Y162.239 E325.8147
G0 F9000 X144.42 Y162.239
G1 F2400 X144.937 Y162.756 E325.86941
G0 F9000 X144.512 Y162.756
G1 F2400 X143.996 Y162.239 E325.92408
G0 F9000 X143.572 Y162.239
G1 F2400 X144.088 Y162.756 E325.97874
G0 F9000 X143.664 Y162.756
G1 F2400 X143.163 Y162.255 E326.03176
G0 F9000 X143.163 Y162.679
G1 F2400 X143.24 Y162.756 E326.03991
G0 F9000 X141.831 Y162.62
G1 F2400 X141.448 Y162.237 E326.08045
G0 F9000 X141.023 Y162.237
G1 F2400 X141.542 Y162.755 E326.13532
G0 F9000 X141.118 Y162.755
G1 F2400 X140.599 Y162.237 E326.19019
G0 F9000 X140.175 Y162.237
G1 F2400 X140.693 Y162.755 E326.24502
G0 F9000 X140.269 Y162.755
G1 F2400 X139.751 Y162.237 E326.29984
G0 F9000 X139.326 Y162.236
G1 F2400 X139.844 Y162.754 E326.35466
G0 F9000 X139.42 Y162.754
G1 F2400 X138.901 Y162.236 E326.40953
G0 F9000 X138.477 Y162.236
G1 F2400 X138.995 Y162.754 E326.46436
G0 F9000 X138.571 Y162.754
G1 F2400 X138.053 Y162.236 E326.51918
G0 F9000 X137.629 Y162.236
G1 F2400 X138.146 Y162.754 E326.57395
G0 F9000 X137.722 Y162.754
G1 F2400 X137.204 Y162.236 E326.62877
G0 F9000 X136.779 Y162.235
G1 F2400 X137.298 Y162.754 E326.68369
G0 F9000 X136.873 Y162.754
G1 F2400 X136.355 Y162.235 E326.73857
G0 F9000 X135.931 Y162.235
G1 F2400 X136.448 Y162.753 E326.79334
G0 F9000 X136.024 Y162.753
G1 F2400 X135.507 Y162.235 E326.84811
G0 F9000 X135.082 Y162.235
G1 F2400 X135.6 Y162.753 E326.90293
G0 F9000 X135.176 Y162.753
G1 F2400 X134.657 Y162.235 E326.9578
G0 F9000 X134.233 Y162.235
G1 F2400 X134.751 Y162.752 E327.01257
G0 F9000 X134.326 Y162.752
G1 F2400 X133.809 Y162.235 E327.06729
G0 F9000 X133.385 Y162.235
G1 F2400 X133.902 Y162.752 E327.122
G0 F9000 X133.478 Y162.752
G1 F2400 X132.96 Y162.235 E327.17677
G0 F9000 X132.536 Y162.235
G1 F2400 X133.053 Y162.751 E327.23143
G0 F9000 X132.629 Y162.751
