;FLAVOR:Marlin
;TIME:15506
;Filament used: 43.1509m
;Layer height: 0.32
;MINX:39.407
;MINY:93.643
;MINZ:0.32
;MAXX:260.593
;MAXY:206.357
;MAXZ:51.52
;Generated with Cura_SteamEngine master
M140 S90
M105
M190 S90
M104 S240
M105
M109 S240
M82 ;absolute extrusion mode
G28 ;Home
G1 Z15.0 F2000 ;Move the platform
G92 E0
G92 E0
G1 F1500 E-4
;LAYER_COUNT:161
;LAYER:0
M107 P2
G0 F7500 X50.567 Y95.527 Z0.32
;TYPE:SKIRT
G1 F1500 E0
G1 X51.567 Y95.03 E0.11885
G1 X52.601 Y94.607 E0.23776
G1 X53.662 Y94.258 E0.35663
G1 X54.745 Y93.986 E0.47548
G1 X55.845 Y93.792 E0.59436
G1 X56.957 Y93.678 E0.71334
G1 X57.999 Y93.643 E0.8243
G1 X82.099 Y93.643 E3.38932
G1 X83.215 Y93.683 E3.50818
G1 X84.326 Y93.803 E3.62711
G1 X85.425 Y94.002 E3.74598
G1 X86.507 Y94.279 E3.86486
G1 X87.566 Y94.632 E3.98367
G1 X88.598 Y95.061 E4.10262
G1 X89.596 Y95.563 E4.22152
G1 X90.403 Y96.037 E4.32113
G1 X92.674 Y97.465 E4.60665
G1 X94.834 Y98.755 E4.87442
G1 X97.018 Y99.991 E5.14151
G1 X99.261 Y101.197 E5.41256
G1 X101.464 Y102.317 E5.67559
G1 X103.774 Y103.424 E5.94822
G1 X106.022 Y104.437 E6.21065
G1 X108.356 Y105.428 E6.48053
G1 X110.702 Y106.361 E6.74924
G1 X113.088 Y107.243 E7.01999
G1 X115.383 Y108.034 E7.27835
G1 X117.825 Y108.814 E7.5512
G1 X120.217 Y109.52 E7.81664
G1 X122.672 Y110.183 E8.08729
G1 X125.071 Y110.77 E8.35016
G1 X127.575 Y111.325 E8.62313
G1 X130.038 Y111.811 E8.89033
G1 X132.479 Y112.234 E9.154
G1 X134.957 Y112.606 E9.4207
G1 X137.462 Y112.922 E9.68942
G1 X139.959 Y113.181 E9.95661
G1 X142.457 Y113.382 E10.22334
G1 X144.988 Y113.527 E10.49316
G1 X147.489 Y113.612 E10.7595
G1 X149.997 Y113.642 E11.02645
G1 X152.545 Y113.611 E11.29766
G1 X155.09 Y113.523 E11.56869
G1 X157.583 Y113.38 E11.83447
G1 X160.036 Y113.182 E12.09639
G1 X162.606 Y112.913 E12.37142
G1 X165.083 Y112.6 E12.63715
G1 X167.493 Y112.238 E12.89653
G1 X169.984 Y111.806 E13.16561
G1 X172.491 Y111.311 E13.43759
G1 X174.944 Y110.768 E13.70499
G1 X177.346 Y110.179 E13.96821
G1 X179.77 Y109.524 E14.23546
G1 X182.233 Y108.797 E14.50878
G1 X184.595 Y108.041 E14.77274
G1 X186.972 Y107.222 E15.04032
G1 X189.337 Y106.343 E15.30886
G1 X191.673 Y105.416 E15.57635
G1 X193.994 Y104.43 E15.84474
G1 X196.281 Y103.398 E16.11179
G1 X198.519 Y102.325 E16.37594
G1 X200.773 Y101.179 E16.64507
G1 X202.995 Y99.984 E16.91359
G1 X205.176 Y98.749 E17.18036
G1 X207.341 Y97.455 E17.4488
G1 X209.586 Y96.042 E17.73113
G1 X210.552 Y95.481 E17.85003
G1 X211.555 Y94.991 E17.96884
G1 X212.591 Y94.573 E18.08774
G1 X213.654 Y94.231 E18.20659
G1 X214.739 Y93.966 E18.32546
G1 X215.841 Y93.779 E18.44442
G1 X216.952 Y93.672 E18.56322
G1 X217.898 Y93.643 E18.66395
G1 X241.999 Y93.643 E21.22908
G1 X243.115 Y93.683 E21.34793
G1 X244.226 Y93.803 E21.46687
G1 X245.325 Y94.002 E21.58574
G1 X246.407 Y94.279 E21.70461
G1 X247.466 Y94.632 E21.82342
G1 X248.498 Y95.061 E21.94237
G1 X249.496 Y95.563 E22.06127
G1 X250.456 Y96.134 E22.18015
G1 X251.372 Y96.773 E22.29903
G1 X252.24 Y97.475 E22.41784
G1 X253.056 Y98.238 E22.53674
G1 X253.815 Y99.058 E22.65566
G1 X254.514 Y99.929 E22.77453
G1 X255.148 Y100.849 E22.89344
G1 X255.715 Y101.811 E23.01229
G1 X256.212 Y102.811 E23.13115
G1 X256.635 Y103.845 E23.25005
G1 X256.984 Y104.906 E23.36893
G1 X257.256 Y105.989 E23.48777
G1 X257.45 Y107.089 E23.60666
G1 X257.564 Y108.201 E23.72563
G1 X257.584 Y108.787 E23.78803
G1 X257.605 Y109.234 E23.83566
G1 X258.865 Y152.405 E28.43241
G1 X258.959 Y153.006 E28.49716
G1 X258.994 Y153.243 E28.52266
G1 X259.296 Y155.397 E28.75415
G1 X259.328 Y155.642 E28.78045
G1 X259.596 Y157.802 E29.01211
G1 X259.626 Y158.059 E29.03965
G1 X259.858 Y160.221 E29.27107
G1 X259.881 Y160.452 E29.29578
G1 X260.081 Y162.62 E29.52751
G1 X260.103 Y162.876 E29.55485
G1 X260.267 Y165.044 E29.78626
G1 X260.413 Y167.464 E30.04429
G1 X260.425 Y167.692 E30.06859
G1 X260.523 Y169.863 E30.29989
G1 X260.539 Y170.458 E30.36324
G1 X260.542 Y170.952 E30.41582
G1 X260.571 Y171.505 E30.47476
G1 X260.593 Y172.323 E30.56185
G1 X260.57 Y173.694 E30.70779
G1 X260.544 Y174.118 E30.75301
G1 X260.478 Y175.097 E30.85744
G1 X260.363 Y176.208 E30.97632
G1 X260.219 Y177.064 E31.0687
G1 X259.966 Y178.348 E31.20799
G1 X259.711 Y179.435 E31.32682
G1 X259.431 Y180.351 E31.42877
G1 X259.011 Y181.587 E31.56771
G1 X258.614 Y182.631 E31.68658
G1 X258.231 Y183.468 E31.78455
G1 X257.652 Y184.642 E31.92387
G1 X257.122 Y185.626 E32.04283
G1 X256.639 Y186.398 E32.13975
G1 X255.912 Y187.488 E32.2792
G1 X255.26 Y188.395 E32.39809
G1 X254.658 Y189.123 E32.49863
G1 X253.796 Y190.105 E32.6377
G1 X253.029 Y190.918 E32.75666
G1 X252.345 Y191.554 E32.85607
G1 X251.353 Y192.422 E32.99636
G1 X250.486 Y193.127 E33.11529
G1 X249.758 Y193.645 E33.21039
G1 X248.678 Y194.368 E33.34872
G1 X247.728 Y194.956 E33.46763
G1 X246.872 Y195.41 E33.57076
G1 X245.692 Y195.989 E33.71065
G1 X244.672 Y196.445 E33.82957
G1 X243.834 Y196.756 E33.9247
G1 X243.071 Y197.015 E34.01046
G1 X242.002 Y197.336 E34.12925
G1 X240.911 Y197.58 E34.24824
G1 X239.807 Y197.745 E34.36705
G1 X238.693 Y197.83 E34.48596
G1 X238.057 Y197.843 E34.55366
G1 X225.001 Y197.843 E35.94324
G1 X223.885 Y197.803 E36.0621
G1 X222.774 Y197.683 E36.18103
G1 X221.675 Y197.484 E36.2999
G1 X220.593 Y197.207 E36.41878
G1 X219.534 Y196.854 E36.53759
G1 X218.502 Y196.425 E36.65654
G1 X217.373 Y195.851 E36.79134
G1 X214.753 Y194.382 E37.11103
G1 X212.252 Y193.051 E37.41257
G1 X209.82 Y191.816 E37.70287
G1 X207.224 Y190.571 E38.0093
G1 X204.634 Y189.392 E38.31218
G1 X202.095 Y188.3 E38.60635
G1 X199.491 Y187.243 E38.90546
G1 X196.809 Y186.219 E39.21101
G1 X194.184 Y185.28 E39.50773
G1 X191.496 Y184.38 E39.80943
G1 X191.339 Y184.331 E39.82694
G1 X189.696 Y185.432 E40.03744
G1 X188.746 Y186.02 E40.15635
G1 X187.757 Y186.539 E40.27522
G1 X186.733 Y186.985 E40.3941
G1 X185.68 Y187.358 E40.513
G1 X184.603 Y187.653 E40.63185
G1 X183.507 Y187.871 E40.75078
G1 X182.399 Y188.01 E40.86963
G1 X181.284 Y188.07 E40.98848
G1 X180.167 Y188.049 E41.10738
G1 X179.055 Y187.949 E41.22621
G1 X177.949 Y187.768 E41.34549
G1 X175.161 Y187.209 E41.64813
G1 X172.406 Y186.716 E41.94601
G1 X169.569 Y186.27 E42.25167
G1 X166.87 Y185.903 E42.54157
G1 X163.993 Y185.572 E42.8498
G1 X161.241 Y185.313 E43.144
G1 X158.436 Y185.11 E43.44332
G1 X155.586 Y184.961 E43.74707
G1 X152.828 Y184.874 E44.04075
G1 X149.957 Y184.844 E44.34634
G1 X147.134 Y184.875 E44.64682
G1 X144.319 Y184.964 E44.94657
G1 X141.801 Y185.097 E45.21494
G1 X141.801 Y190.757 E45.81735
G1 X141.761 Y191.873 E45.93621
G1 X141.641 Y192.984 E46.05514
G1 X141.442 Y194.083 E46.17401
G1 X141.165 Y195.165 E46.29288
G1 X140.812 Y196.224 E46.41169
G1 X140.383 Y197.256 E46.53064
G1 X139.881 Y198.254 E46.64954
G1 X139.31 Y199.214 E46.76843
G1 X138.671 Y200.13 E46.8873
G1 X137.969 Y200.998 E47.00611
G1 X137.206 Y201.814 E47.12501
G1 X136.386 Y202.573 E47.24394
G1 X135.515 Y203.272 E47.3628
G1 X134.595 Y203.906 E47.48172
G1 X133.633 Y204.473 E47.60057
G1 X132.633 Y204.97 E47.71942
G1 X131.599 Y205.393 E47.83832
G1 X130.538 Y205.742 E47.9572
G1 X129.455 Y206.014 E48.07605
G1 X128.355 Y206.208 E48.19493
G1 X127.243 Y206.322 E48.3139
G1 X126.201 Y206.357 E48.42487
G1 X113.499 Y206.357 E49.77677
G1 X112.383 Y206.317 E49.89563
G1 X111.272 Y206.197 E50.01456
G1 X110.173 Y205.998 E50.13343
G1 X109.091 Y205.721 E50.25231
G1 X108.032 Y205.368 E50.37111
G1 X107 Y204.939 E50.49006
G1 X106.002 Y204.437 E50.60896
G1 X105.042 Y203.866 E50.72785
G1 X104.126 Y203.227 E50.84672
G1 X103.258 Y202.525 E50.96553
G1 X102.442 Y201.762 E51.08443
G1 X101.683 Y200.942 E51.20336
G1 X100.984 Y200.071 E51.32222
G1 X100.35 Y199.151 E51.44114
G1 X99.783 Y198.189 E51.55999
G1 X99.286 Y197.189 E51.67884
G1 X98.863 Y196.155 E51.79774
G1 X98.514 Y195.094 E51.91662
G1 X98.242 Y194.011 E52.03547
G1 X98.048 Y192.911 E52.15435
G1 X97.934 Y191.799 E52.27332
G1 X97.899 Y190.757 E52.38429
G1 X97.899 Y188.302 E52.64558
G1 X95.29 Y189.426 E52.94793
G1 X92.717 Y190.598 E53.24886
G1 X90.197 Y191.81 E53.54647
G1 X87.688 Y193.083 E53.84592
G1 X85.165 Y194.428 E54.15022
G1 X82.636 Y195.847 E54.45886
G1 X81.643 Y196.358 E54.57772
G1 X80.616 Y196.797 E54.6966
G1 X79.56 Y197.162 E54.81552
G1 X78.481 Y197.45 E54.93438
G1 X77.384 Y197.66 E55.05325
G1 X76.275 Y197.791 E55.17211
G1 X75.001 Y197.843 E55.30781
G1 X61.941 Y197.843 E56.69782
G1 X60.825 Y197.803 E56.81668
G1 X59.714 Y197.683 E56.93561
G1 X58.615 Y197.484 E57.05448
G1 X57.533 Y197.207 E57.17336
G1 X56.916 Y197.011 E57.24226
G1 X56.149 Y196.75 E57.32849
G1 X55.105 Y196.353 E57.44737
G1 X54.284 Y195.978 E57.54343
G1 X53.112 Y195.401 E57.68247
G1 X52.128 Y194.872 E57.80137
G1 X51.327 Y194.37 E57.90198
G1 X50.227 Y193.634 E58.04285
G1 X49.321 Y192.98 E58.16178
G1 X48.598 Y192.382 E58.26164
G1 X47.617 Y191.519 E58.4007
G1 X46.805 Y190.751 E58.51965
G1 X46.179 Y190.077 E58.61756
G1 X45.32 Y189.095 E58.75642
G1 X44.615 Y188.228 E58.87535
G1 X44.08 Y187.475 E58.97366
G1 X43.359 Y186.393 E59.11205
G1 X42.773 Y185.441 E59.23103
G1 X42.35 Y184.643 E59.32716
G1 X41.766 Y183.459 E59.46767
G1 X41.308 Y182.44 E59.58658
G1 X40.976 Y181.545 E59.68818
G1 X40.559 Y180.309 E59.82701
G1 X40.24 Y179.238 E59.94595
G1 X40.043 Y178.384 E60.03923
G1 X39.788 Y177.11 E60.17751
G1 X39.609 Y176.007 E60.29644
G1 X39.517 Y175.042 E60.39962
G1 X39.433 Y173.727 E60.53986
G1 X39.407 Y172.309 E60.69081
G1 X39.429 Y171.499 E60.77705
G1 X39.457 Y171.051 E60.82482
G1 X39.462 Y170.414 E60.89262
G1 X39.478 Y169.836 E60.95417
G1 X39.587 Y167.428 E61.21072
G1 X39.717 Y165.255 E61.44241
G1 X39.735 Y164.989 E61.47078
G1 X39.921 Y162.593 E61.72656
G1 X40.12 Y160.425 E61.95828
G1 X40.147 Y160.162 E61.98642
G1 X40.407 Y157.788 E62.2406
G1 X40.674 Y155.628 E62.47224
G1 X40.707 Y155.376 E62.49929
G1 X41.041 Y153.004 E62.75424
G1 X41.135 Y152.403 E62.81899
G1 X42.392 Y109.236 E67.4153
G1 X42.408 Y108.984 E67.44218
G1 X42.439 Y108.127 E67.53345
G1 X42.559 Y107.016 E67.65238
G1 X42.758 Y105.917 E67.77125
G1 X43.035 Y104.835 E67.89013
G1 X43.388 Y103.776 E68.00894
G1 X43.817 Y102.744 E68.12789
G1 X44.319 Y101.746 E68.24679
G1 X44.89 Y100.786 E68.36567
G1 X45.529 Y99.87 E68.48454
G1 X46.231 Y99.002 E68.60336
G1 X46.994 Y98.186 E68.72226
G1 X47.814 Y97.427 E68.84118
G1 X48.685 Y96.728 E68.96004
G1 X49.605 Y96.094 E69.07896
G1 X50.567 Y95.527 E69.19781
G0 F7500 X51.324 Y96.034
G1 F1500 X52.312 Y95.579 E69.31358
G1 X53.331 Y95.198 E69.42937
G1 X54.376 Y94.893 E69.54523
G1 X55.44 Y94.666 E69.66102
G1 X56.517 Y94.517 E69.77674
G1 X57.999 Y94.443 E69.93467
G1 X82.099 Y94.443 E72.49969
G1 X83.186 Y94.483 E72.61546
G1 X84.268 Y94.603 E72.73133
G1 X85.337 Y94.802 E72.84706
G1 X86.389 Y95.078 E72.96282
G1 X87.418 Y95.432 E73.07863
G1 X88.418 Y95.86 E73.19441
G1 X89.384 Y96.36 E73.31018
G1 X89.977 Y96.714 E73.38368
G1 X92.281 Y98.163 E73.67337
G1 X94.403 Y99.431 E73.93646
G1 X96.657 Y100.706 E74.21208
G1 X98.877 Y101.9 E74.48037
G1 X101.13 Y103.045 E74.74935
G1 X103.389 Y104.127 E75.01594
G1 X105.757 Y105.194 E75.29238
G1 X108.052 Y106.169 E75.55777
G1 X110.419 Y107.11 E75.82887
G1 X112.776 Y107.982 E76.09635
G1 X115.145 Y108.798 E76.36303
G1 X117.609 Y109.585 E76.63833
G1 X120.007 Y110.293 E76.90444
G1 X122.447 Y110.952 E77.17344
G1 X124.881 Y111.548 E77.44015
G1 X127.379 Y112.101 E77.71246
G1 X129.913 Y112.601 E77.98736
G1 X132.362 Y113.025 E78.25189
G1 X134.864 Y113.4 E78.52116
G1 X137.372 Y113.717 E78.79022
G1 X139.897 Y113.979 E79.0604
G1 X142.389 Y114.179 E79.32648
G1 X144.962 Y114.327 E79.60079
G1 X147.452 Y114.412 E79.86596
G1 X149.996 Y114.442 E80.13674
G1 X152.583 Y114.411 E80.4121
G1 X155.076 Y114.325 E80.67759
G1 X157.649 Y114.177 E80.9519
G1 X160.142 Y113.975 E81.2181
G1 X162.656 Y113.713 E81.48712
G1 X165.208 Y113.39 E81.76091
G1 X167.616 Y113.028 E82.02007
G1 X170.151 Y112.589 E82.2939
G1 X172.645 Y112.097 E82.56446
G1 X175.124 Y111.547 E82.83472
G1 X177.542 Y110.955 E83.09967
G1 X180.032 Y110.281 E83.37423
G1 X182.437 Y109.571 E83.64112
G1 X184.859 Y108.797 E83.91174
G1 X187.234 Y107.979 E84.17909
G1 X189.63 Y107.088 E84.45116
G1 X191.991 Y106.151 E84.72152
G1 X194.278 Y105.179 E84.986
G1 X196.615 Y104.124 E85.2589
G1 X198.887 Y103.035 E85.52706
G1 X201.123 Y101.899 E85.79399
G1 X203.392 Y100.678 E86.06823
G1 X205.607 Y99.424 E86.33914
G1 X207.735 Y98.153 E86.60295
G1 X210.012 Y96.719 E86.88935
G1 X210.953 Y96.174 E87.00509
G1 X211.932 Y95.699 E87.12091
G1 X212.943 Y95.297 E87.2367
G1 X213.981 Y94.971 E87.3525
G1 X215.04 Y94.722 E87.46829
G1 X216.114 Y94.551 E87.58404
G1 X217.199 Y94.46 E87.69992
G1 X217.898 Y94.443 E87.77434
G1 X241.999 Y94.443 E90.33947
G1 X243.086 Y94.483 E90.45524
G1 X244.168 Y94.603 E90.5711
G1 X245.237 Y94.802 E90.68683
G1 X246.289 Y95.078 E90.80259
G1 X247.318 Y95.432 E90.91841
G1 X248.318 Y95.86 E91.03418
G1 X249.284 Y96.36 E91.14995
G1 X250.211 Y96.93 E91.26577
G1 X251.093 Y97.567 E91.38157
G1 X251.927 Y98.266 E91.49739
G1 X252.706 Y99.025 E91.61314
G1 X253.428 Y99.84 E91.72903
G1 X254.088 Y100.704 E91.84475
G1 X254.682 Y101.616 E91.96059
G1 X255.208 Y102.568 E92.07635
G1 X255.663 Y103.556 E92.19212
G1 X256.044 Y104.575 E92.30791
G1 X256.349 Y105.62 E92.42377
G1 X256.576 Y106.684 E92.53956
G1 X256.725 Y107.761 E92.65528
G1 X256.778 Y108.832 E92.76941
G1 X256.806 Y109.257 E92.81474
G1 X258.068 Y152.488 E97.41788
G1 X258.202 Y153.354 E97.51115
G1 X258.504 Y155.508 E97.74265
G1 X258.802 Y157.901 E97.99931
G1 X258.831 Y158.144 E98.02535
G1 X259.063 Y160.306 E98.25678
G1 X259.284 Y162.693 E98.51192
G1 X259.305 Y162.937 E98.53799
G1 X259.469 Y165.105 E98.76939
G1 X259.485 Y165.338 E98.79425
G1 X259.615 Y167.512 E99.02605
G1 X259.724 Y169.899 E99.28037
G1 X259.739 Y170.464 E99.34052
G1 X259.742 Y170.944 E99.39161
G1 X259.772 Y171.526 E99.45364
G1 X259.794 Y172.344 E99.54073
G1 X259.771 Y173.646 E99.67933
G1 X259.745 Y174.064 E99.7239
G1 X259.679 Y175.043 E99.82833
G1 X259.566 Y176.126 E99.94423
G1 X259.434 Y176.909 E100.02874
G1 X259.181 Y178.193 E100.16803
G1 X258.931 Y179.252 E100.28384
G1 X258.673 Y180.094 E100.37756
G1 X258.253 Y181.33 E100.5165
G1 X257.865 Y182.346 E100.63225
G1 X257.514 Y183.114 E100.72213
G1 X256.935 Y184.288 E100.86145
G1 X256.418 Y185.246 E100.97731
G1 X255.974 Y185.954 E101.06626
G1 X255.247 Y187.044 E101.2057
G1 X254.61 Y187.926 E101.3215
G1 X254.057 Y188.595 E101.41388
G1 X253.195 Y189.577 E101.55295
G1 X252.447 Y190.368 E101.66882
G1 X251.818 Y190.952 E101.76017
G1 X250.826 Y191.82 E101.90047
G1 X249.981 Y192.506 E102.01631
G1 X249.313 Y192.981 E102.10355
G1 X248.233 Y193.704 E102.24187
G1 X247.308 Y194.275 E102.35757
G1 X246.519 Y194.692 E102.45255
G1 X245.339 Y195.271 E102.59245
G1 X244.346 Y195.714 E102.70817
G1 X243.577 Y195.999 E102.79546
G1 X242.814 Y196.258 E102.88122
G1 X241.772 Y196.569 E102.99696
G1 X240.709 Y196.803 E103.1128
G1 X239.633 Y196.959 E103.22852
G1 X238.057 Y197.043 E103.3965
G1 X225.001 Y197.043 E104.78608
G1 X223.914 Y197.003 E104.90185
G1 X222.832 Y196.883 E105.01771
G1 X221.763 Y196.684 E105.13345
G1 X220.711 Y196.408 E105.2492
G1 X219.682 Y196.054 E105.36502
G1 X218.682 Y195.626 E105.48079
G1 X217.764 Y195.153 E105.5907
G1 X215.144 Y193.684 E105.9104
G1 X212.633 Y192.347 E106.21317
G1 X210.134 Y191.079 E106.51143
G1 X207.603 Y189.865 E106.81019
G1 X204.983 Y188.672 E107.11659
G1 X202.332 Y187.532 E107.42373
G1 X199.781 Y186.497 E107.71673
G1 X197.084 Y185.466 E108.02404
G1 X194.46 Y184.528 E108.32063
G1 X191.736 Y183.617 E108.62633
G1 X191.213 Y183.453 E108.68467
G1 X189.251 Y184.768 E108.93605
G1 X188.325 Y185.34 E109.0519
G1 X187.36 Y185.842 E109.16767
G1 X186.361 Y186.272 E109.28343
G1 X185.333 Y186.628 E109.39922
G1 X184.281 Y186.907 E109.51505
G1 X183.212 Y187.108 E109.63082
G1 X182.131 Y187.23 E109.74661
G1 X181.044 Y187.272 E109.86238
G1 X179.956 Y187.234 E109.97825
G1 X178.875 Y187.117 E110.09398
G1 X178.106 Y186.984 E110.17704
G1 X175.265 Y186.415 E110.48542
G1 X172.577 Y185.933 E110.77607
G1 X169.701 Y185.482 E111.08591
G1 X166.923 Y185.103 E111.38432
G1 X164.114 Y184.781 E111.68525
G1 X161.281 Y184.514 E111.98811
G1 X158.486 Y184.312 E112.28636
G1 X155.653 Y184.163 E112.5883
G1 X152.813 Y184.074 E112.89072
G1 X149.956 Y184.044 E113.19481
G1 X147.149 Y184.075 E113.49359
