;FLAVOR:Marlin
;TIME:10674
;Filament used: 14.8092m
;Layer height: 0.3
;MINX:88.056
;MINY:115.866
;MINZ:0.3
;MAXX:211.932
;MAXY:182.591
;MAXZ:27
;Generated with Cura_SteamEngine master
M140 S90
M105
M190 S90
M104 S240
M105
M109 S240
M82 ;absolute extrusion mode
G28 ;Home
G1 Z15.0 F2000 ;Move the platform
G92 E0
G92 E0
;LAYER_COUNT:90
;LAYER:0
M107 P2
G0 F7500 X89.425 Y144.141 Z0.3
;TYPE:SKIRT
G1 F1500 X89.861 Y143.885 E0.02522
G1 X90.332 Y143.701 E0.05045
G1 X90.793 Y143.597 E0.07403
G1 X91.177 Y143.542 E0.09338
G1 X99.433 Y142.606 E0.50792
G1 X100.294 Y142.52 E0.55108
G1 X103.088 Y142.203 E0.69137
G1 X105.763 Y141.824 E0.82616
G1 X108.45 Y141.364 E0.96217
G1 X111.182 Y140.816 E1.10118
G1 X113.784 Y140.22 E1.23436
G1 X116.483 Y139.517 E1.3735
G1 X119.082 Y138.763 E1.50851
G1 X121.709 Y137.92 E1.64616
G1 X124.322 Y136.998 E1.7844
G1 X126.812 Y136.039 E1.91752
G1 X129.398 Y134.959 E2.05734
G1 X131.872 Y133.843 E2.19274
G1 X134.318 Y132.655 E2.32841
G1 X136.435 Y131.536 E2.44787
G1 X136.602 Y131.464 E2.45694
G1 X137.588 Y130.939 E2.51267
G1 X137.854 Y130.813 E2.52736
G1 X138.888 Y130.379 E2.5833
G1 X138.99 Y130.338 E2.58879
G1 X139.551 Y130.125 E2.61873
G1 X139.831 Y130.034 E2.63341
G1 X140.897 Y129.738 E2.68861
G1 X141.006 Y129.71 E2.69422
G1 X141.829 Y129.513 E2.73644
G1 X142.623 Y129.344 E2.77694
G1 X145.301 Y128.739 E2.91392
G1 X147.992 Y128.048 E3.05253
G1 X150.583 Y127.307 E3.18697
G1 X153.23 Y126.466 E3.32554
G1 X155.783 Y125.575 E3.46044
G1 X158.34 Y124.601 E3.59695
G1 X160.866 Y123.557 E3.73332
G1 X163.378 Y122.433 E3.87061
G1 X165.866 Y121.235 E4.00838
G1 X168.258 Y119.998 E4.14273
G1 X170.673 Y118.662 E4.28042
G1 X173.597 Y116.922 E4.45018
G1 X174.545 Y116.335 E4.50581
G1 X174.994 Y116.104 E4.531
G1 X175.475 Y115.947 E4.55624
G1 X175.974 Y115.867 E4.58145
G1 X176.463 Y115.866 E4.60585
G1 X176.924 Y115.9 E4.62891
G1 X177.046 Y115.911 E4.63502
G1 X178.377 Y116.061 E4.70185
G1 X185.538 Y116.995 E5.06214
G1 X187.458 Y117.282 E5.15899
G1 X194.509 Y118.47 E5.51573
G1 X196.459 Y118.835 E5.6147
G1 X203.743 Y120.341 E5.98579
G1 X204.428 Y120.493 E6.02079
G1 X204.912 Y120.641 E6.04604
G1 X205.366 Y120.864 E6.07128
G1 X205.779 Y121.155 E6.09648
G1 X206.141 Y121.507 E6.12167
G1 X206.443 Y121.913 E6.14692
G1 X206.695 Y122.4 E6.17428
G1 X206.974 Y123.081 E6.21099
G1 X207.97 Y125.595 E6.3459
G1 X208.128 Y126.01 E6.36806
G1 X208.167 Y126.12 E6.37388
G1 X208.623 Y127.466 E6.44478
G1 X209.342 Y129.727 E6.56315
G1 X209.503 Y130.262 E6.59102
G1 X209.855 Y131.591 E6.65961
G1 X210.411 Y133.861 E6.77621
G1 X210.527 Y134.363 E6.80191
G1 X210.793 Y135.727 E6.87125
G1 X211.228 Y138.235 E6.99824
G1 X211.301 Y138.708 E7.02212
G1 X211.467 Y140.059 E7.09002
G1 X211.747 Y142.782 E7.22659
G1 X211.776 Y143.127 E7.24387
G1 X211.783 Y143.234 E7.24921
G1 X211.83 Y144.175 E7.29622
G1 X211.923 Y146.853 E7.42991
G1 X211.932 Y147.336 E7.45401
G1 X211.911 Y148.737 E7.52391
G1 X211.827 Y151.18 E7.64587
G1 X211.8 Y151.697 E7.67169
G1 X211.688 Y153.045 E7.73918
G1 X211.438 Y155.476 E7.8611
G1 X211.377 Y155.983 E7.88658
G1 X211.165 Y157.375 E7.95682
G1 X210.754 Y159.746 E8.07688
G1 X210.649 Y160.301 E8.10506
G1 X210.369 Y161.556 E8.16921
G1 X209.745 Y164.118 E8.30077
G1 X209.647 Y164.503 E8.32059
G1 X209.527 Y164.926 E8.34252
G1 X209.379 Y165.409 E8.36773
G1 X208.535 Y168.058 E8.50643
G1 X208.253 Y168.899 E8.55068
G1 X208.196 Y169.052 E8.55883
G1 X207.988 Y169.576 E8.58696
G1 X207.682 Y170.294 E8.62589
G1 X207.54 Y170.592 E8.64236
G1 X207.476 Y170.713 E8.64919
G1 X207.274 Y171.077 E8.66996
G1 X207.104 Y171.354 E8.68618
G1 X206.939 Y171.606 E8.7012
G1 X206.713 Y171.921 E8.72055
G1 X206.496 Y172.201 E8.73822
G1 X206.246 Y172.499 E8.75763
G1 X205.974 Y172.795 E8.77768
G1 X205.776 Y172.994 E8.79169
G1 X205.428 Y173.32 E8.81548
G1 X205.226 Y173.494 E8.82878
G1 X204.973 Y173.699 E8.84502
G1 X204.675 Y173.921 E8.86356
G1 X204.322 Y174.162 E8.88489
G1 X204.039 Y174.34 E8.90157
G1 X203.719 Y174.523 E8.91996
G1 X203.407 Y174.685 E8.9375
G1 X203.046 Y174.855 E8.9574
G1 X202.754 Y174.979 E8.97323
G1 X202.427 Y175.104 E8.9907
G1 X202.182 Y175.186 E9.00359
G1 X200.817 Y175.585 E9.07454
G1 X196.885 Y176.654 E9.27782
G1 X195.945 Y176.895 E9.32624
G1 X195.613 Y176.972 E9.34324
G1 X188.857 Y178.462 E9.6884
G1 X187.866 Y178.665 E9.73887
G1 X187.526 Y178.726 E9.7561
G1 X180.7 Y179.89 E10.10157
G1 X179.714 Y180.044 E10.15135
G1 X179.315 Y180.096 E10.17143
G1 X177.84 Y180.278 E10.24558
G1 X177.701 Y180.308 E10.25267
G1 X174.836 Y180.683 E10.39682
G1 X173.683 Y180.859 E10.45501
G1 X172.724 Y180.998 E10.50336
G1 X171.714 Y181.139 E10.55424
G1 X170.417 Y181.308 E10.61949
G1 X169.195 Y181.459 E10.68092
G1 X168.101 Y181.586 E10.73587
G1 X167.368 Y181.667 E10.77266
G1 X166.158 Y181.793 E10.83335
G1 X165.053 Y181.9 E10.88874
G1 X164.075 Y181.989 E10.93773
G1 X162.998 Y182.079 E10.99165
G1 X162.109 Y182.147 E11.03613
G1 X161.048 Y182.222 E11.0892
G1 X160.002 Y182.289 E11.14149
G1 X158.909 Y182.354 E11.19612
G1 X158.041 Y182.399 E11.23948
G1 X156.476 Y182.468 E11.31764
G1 X155.86 Y182.491 E11.34839
G1 X154.909 Y182.522 E11.39586
G1 X153.868 Y182.549 E11.44781
G1 X152.865 Y182.569 E11.49786
G1 X151.885 Y182.583 E11.54676
G1 X150.836 Y182.59 E11.5991
G1 X149.755 Y182.591 E11.65303
G1 X148.714 Y182.586 E11.70496
G1 X147.859 Y182.576 E11.74762
G1 X146.739 Y182.555 E11.80351
G1 X145.645 Y182.528 E11.85811
G1 X144.843 Y182.503 E11.89814
G1 X143.845 Y182.467 E11.94796
G1 X142.764 Y182.422 E12.00194
G1 X141.681 Y182.367 E12.05604
G1 X140.592 Y182.305 E12.11046
G1 X139.588 Y182.241 E12.16065
G1 X138.08 Y182.136 E12.23607
G1 X136.818 Y182.036 E12.29922
G1 X135.626 Y181.931 E12.35892
G1 X134.529 Y181.826 E12.4139
G1 X133.63 Y181.736 E12.45898
G1 X132.861 Y181.655 E12.49756
G1 X131.524 Y181.503 E12.56469
G1 X130.418 Y181.371 E12.62026
G1 X129.462 Y181.248 E12.66835
G1 X128.406 Y181.107 E12.7215
G1 X127.317 Y180.954 E12.77636
G1 X126.51 Y180.835 E12.81706
G1 X123.344 Y180.426 E12.97633
G1 X123.257 Y180.408 E12.98076
G1 X120.723 Y180.098 E13.10812
G1 X119.79 Y179.97 E13.15511
G1 X119.505 Y179.924 E13.16951
G1 X112.606 Y178.747 E13.51867
G1 X111.667 Y178.572 E13.56633
G1 X111.295 Y178.494 E13.58529
G1 X104.811 Y177.064 E13.91655
G1 X104.616 Y177.016 E13.92657
G1 X103.725 Y176.811 E13.97218
G1 X103.142 Y176.66 E14.00223
G1 X99.157 Y175.576 E14.20827
G1 X97.874 Y175.201 E14.27495
G1 X97.467 Y175.062 E14.29641
G1 X97.302 Y174.998 E14.30524
G1 X96.939 Y174.844 E14.32491
G1 X96.697 Y174.732 E14.33822
G1 X96.393 Y174.577 E14.35524
G1 X96.149 Y174.443 E14.36913
G1 X96.023 Y174.37 E14.37639
G1 X95.676 Y174.155 E14.39676
G1 X95.435 Y173.993 E14.41125
G1 X95.093 Y173.742 E14.43241
G1 X94.844 Y173.545 E14.44825
G1 X94.631 Y173.364 E14.4622
G1 X94.329 Y173.085 E14.48271
G1 X94.182 Y172.938 E14.49308
G1 X93.672 Y172.39 E14.53043
G1 X93.482 Y172.165 E14.54512
G1 X93.301 Y171.929 E14.55996
G1 X93.117 Y171.674 E14.57565
G1 X92.941 Y171.412 E14.59139
G1 X92.73 Y171.071 E14.6114
G1 X92.578 Y170.802 E14.62682
G1 X92.419 Y170.493 E14.64415
G1 X92.311 Y170.263 E14.65683
G1 X91.874 Y169.217 E14.71339
G1 X91.797 Y169.012 E14.72431
G1 X91.389 Y167.808 E14.78773
G1 X90.632 Y165.424 E14.91252
G1 X90.514 Y165.034 E14.93285
G1 X90.484 Y164.928 E14.93835
G1 X90.145 Y163.646 E15.00451
G1 X89.55 Y161.215 E15.12937
G1 X89.45 Y160.769 E15.15217
G1 X89.183 Y159.387 E15.2224
G1 X88.768 Y156.973 E15.3446
G1 X88.703 Y156.565 E15.36521
G1 X88.687 Y156.453 E15.37085
G1 X88.529 Y155.167 E15.4355
G1 X88.27 Y152.663 E15.56109
G1 X88.241 Y152.342 E15.57717
G1 X88.233 Y152.228 E15.58287
G1 X88.156 Y150.807 E15.65387
G1 X88.081 Y148.603 E15.76389
G1 X88.056 Y147.176 E15.83509
G1 X88.06 Y146.727 E15.85749
G1 X88.106 Y146.224 E15.88269
G1 X88.23 Y145.734 E15.90791
G1 X88.43 Y145.269 E15.93316
G1 X88.701 Y144.842 E15.9584
G1 X89.035 Y144.463 E15.9836
G1 X89.425 Y144.141 E16.00883
;MESH:Z-TOP-RIGHT-MIRAKO.stl
G0 F7500 X187.701 Y139.618
;TYPE:WALL-OUTER
G1 F1500 X188.468 Y139.765 E16.04779
G1 X189.245 Y139.814 E16.08663
G1 X190.022 Y139.765 E16.12548
G1 X190.789 Y139.618 E16.16444
G1 X191.531 Y139.378 E16.20335
G1 X192.235 Y139.046 E16.24218
G1 X192.893 Y138.63 E16.28102
G1 X193.492 Y138.132 E16.31988
G1 X194.027 Y137.564 E16.35881
G1 X194.484 Y136.933 E16.39768
G1 X194.86 Y136.249 E16.43662
G1 X195.148 Y135.526 E16.47545
G1 X195.34 Y134.772 E16.51426
G1 X195.439 Y133.999 E16.55314
G1 X195.437 Y133.217 E16.59216
G1 X195.34 Y132.444 E16.63103
G1 X195.146 Y131.69 E16.66987
G1 X194.858 Y130.965 E16.70879
G1 X194.482 Y130.283 E16.74764
G1 X194.023 Y129.65 E16.78665
G1 X193.49 Y129.084 E16.82544
G1 X192.891 Y128.586 E16.8643
G1 X192.231 Y128.168 E16.90328
G1 X191.527 Y127.838 E16.94207
G1 X190.785 Y127.596 E16.981
G1 X190.02 Y127.449 E17.01987
G1 X189.241 Y127.402 E17.0588
G1 X188.464 Y127.449 E17.09764
G1 X187.699 Y127.596 E17.1365
G1 X186.957 Y127.838 E17.17544
G1 X186.253 Y128.168 E17.21423
G1 X185.593 Y128.586 E17.25321
G1 X184.994 Y129.084 E17.29207
G1 X184.461 Y129.65 E17.33086
G1 X184.002 Y130.283 E17.36987
G1 X183.628 Y130.965 E17.40867
G1 X183.34 Y131.69 E17.44759
G1 X183.146 Y132.444 E17.48643
G1 X183.049 Y133.217 E17.5253
G1 X183.049 Y133.997 E17.56422
G1 X183.146 Y134.77 E17.60308
G1 X183.343 Y135.526 E17.64206
G1 X183.63 Y136.249 E17.68087
G1 X184.004 Y136.933 E17.71976
G1 X184.463 Y137.564 E17.75869
G1 X184.996 Y138.132 E17.79755
G1 X185.596 Y138.63 E17.83645
G1 X186.255 Y139.046 E17.87533
G1 X186.959 Y139.378 E17.91417
G1 X187.701 Y139.618 E17.95307
G0 F7500 X187.897 Y139.655
G0 X187.814 Y140.087
G0 X145.731 Y157.586
G1 F1500 X147.178 Y157.403 E18.02584
G1 X148.588 Y157.041 E18.09847
G1 X149.941 Y156.505 E18.17107
G1 X151.219 Y155.803 E18.24382
G1 X152.396 Y154.946 E18.31645
G1 X153.458 Y153.949 E18.38913
G1 X154.385 Y152.826 E18.46178
G1 X155.167 Y151.597 E18.53445
G1 X155.787 Y150.28 E18.60707
G1 X156.235 Y148.894 E18.67974
G1 X156.508 Y147.463 E18.75242
G1 X156.599 Y146.008 E18.82516
G1 X156.508 Y144.553 E18.89789
G1 X156.233 Y143.122 E18.97059
G1 X155.783 Y141.736 E19.04329
G1 X155.16 Y140.419 E19.11597
G1 X154.379 Y139.188 E19.18871
G1 X153.451 Y138.065 E19.26139
G1 X152.389 Y137.067 E19.33409
G1 X151.208 Y136.213 E19.40681
G1 X149.932 Y135.511 E19.47946
G1 X148.577 Y134.975 E19.55216
G1 X147.165 Y134.613 E19.62488
G1 X145.722 Y134.43 E19.69745
G1 X144.264 Y134.43 E19.77019
G1 X142.817 Y134.613 E19.84296
G1 X141.407 Y134.975 E19.91559
G1 X140.054 Y135.511 E19.98819
G1 X138.778 Y136.213 E20.06085
G1 X137.599 Y137.068 E20.13351
G1 X136.537 Y138.065 E20.20618
G1 X135.609 Y139.188 E20.27886
G1 X134.829 Y140.42 E20.35161
G1 X134.21 Y141.736 E20.42417
G1 X133.761 Y143.122 E20.49685
G1 X133.487 Y144.553 E20.56954
G1 X133.397 Y146.008 E20.64227
G1 X133.489 Y147.462 E20.71496
G1 X133.762 Y148.893 E20.78764
G1 X134.214 Y150.278 E20.86032
G1 X134.833 Y151.597 E20.93301
G1 X135.616 Y152.826 E21.00571
G1 X136.544 Y153.949 E21.07839
G1 X137.606 Y154.946 E21.15107
G1 X138.787 Y155.803 E21.22387
G1 X140.063 Y156.505 E21.29652
G1 X141.418 Y157.041 E21.36922
G1 X142.828 Y157.403 E21.44185
G1 X144.273 Y157.586 E21.51452
G1 X145.731 Y157.586 E21.58726
G0 F7500 X145.929 Y157.561
G0 X145.983 Y157.997
G0 X150.002 Y179.192
G1 F1500 X148.999 Y179.188 E21.6373
G1 X147.997 Y179.178 E21.68729
G1 X146.994 Y179.16 E21.73734
G1 X145.991 Y179.136 E21.78739
G1 X144.988 Y179.106 E21.83745
G1 X143.987 Y179.07 E21.88743
G1 X142.985 Y179.028 E21.93746
G1 X141.984 Y178.978 E21.98746
G1 X140.983 Y178.922 E22.03748
G1 X139.983 Y178.86 E22.08747
G1 X138.981 Y178.793 E22.13757
G1 X137.983 Y178.719 E22.18749
G1 X136.984 Y178.637 E22.2375
G1 X135.984 Y178.549 E22.28759
G1 X134.985 Y178.455 E22.33765
G1 X133.988 Y178.355 E22.38764
G1 X132.992 Y178.249 E22.43761
G1 X131.994 Y178.135 E22.48772
G1 X130.998 Y178.018 E22.53775
G1 X130.002 Y177.89 E22.58785
G1 X129.011 Y177.758 E22.63773
G1 X128.018 Y177.62 E22.68775
G1 X127.025 Y177.476 E22.73781
G1 X126.034 Y177.324 E22.78783
G1 X125.036 Y177.166 E22.83824
G1 X123.779 Y177.045 E22.90124
G1 X120.525 Y176.649 E23.06478
G1 X112.539 Y175.287 E23.46896
G1 X104.625 Y173.54 E23.87329
G1 X99.238 Y172.075 E24.15181
G1 X98.768 Y171.929 E24.17637
G1 X98.338 Y171.756 E24.19949
G1 X97.925 Y171.553 E24.22245
G1 X97.531 Y171.318 E24.24534
G1 X97.168 Y171.061 E24.26753
G1 X96.806 Y170.765 E24.29086
G1 X96.477 Y170.443 E24.31382
G1 X96.178 Y170.108 E24.33622
G1 X95.897 Y169.734 E24.35956
G1 X95.651 Y169.351 E24.38227
G1 X95.435 Y168.947 E24.40513
G1 X95.248 Y168.522 E24.42829
G1 X94.92 Y167.69 E24.47291
G1 X93.677 Y163.778 E24.6777
G1 X92.707 Y159.811 E24.88144
G1 X92.01 Y155.768 E25.08612
G1 X91.589 Y151.704 E25.28996
G1 X91.452 Y147.704 E25.48964
G1 X91.451 Y146.933 E25.52811
G1 X100.518 Y145.904 E25.98336
G1 X120.937 Y145.907 E27.00207
G1 X124.804 Y148.328 E27.22969
G1 X124.806 Y148.814 E27.25393
G1 X131.917 Y148.816 E27.6087
G1 X131.701 Y147.693 E27.66576
G1 X131.594 Y146.007 E27.75004
G1 X131.699 Y144.32 E27.83437
G1 X132.012 Y142.677 E27.91781
G1 X132.531 Y141.074 E28.00187
G1 X133.248 Y139.549 E28.08595
G1 X134.151 Y138.127 E28.16999
G1 X135.218 Y136.835 E28.25358
G1 X136.448 Y135.682 E28.33769
G1 X137.816 Y134.686 E28.42212
G1 X139.28 Y133.879 E28.50552
G1 X140.848 Y133.259 E28.58964
G1 X142.486 Y132.84 E28.67399
G1 X144.146 Y132.63 E28.75747
G1 X145.836 Y132.63 E28.84178
G1 X147.498 Y132.84 E28.92536
G1 X149.142 Y133.261 E29.01003
G1 X150.059 Y133.566 E29.05824
G1 X175.191 Y133.57 E30.31208
G1 X175.189 Y123.635 E30.80774
G1 X176.388 Y119.253 E31.03439
G1 X177.013 Y119.311 E31.06571
G1 X185.971 Y120.479 E31.51641
G1 X194.855 Y121.976 E31.96588
G1 X203.595 Y123.782 E32.41113
G1 X205.065 Y127.496 E32.61041
G1 X206.313 Y131.42 E32.81584
G1 X207.284 Y135.385 E33.0195
G1 X207.984 Y139.424 E33.22401
G1 X208.405 Y143.508 E33.42885
G1 X208.548 Y147.6 E33.63312
G1 X208.407 Y151.712 E33.83839
G1 X207.989 Y155.79 E34.04291
G1 X207.29 Y159.83 E34.24746
G1 X206.323 Y163.801 E34.45136
G1 X205.075 Y167.719 E34.65651
G1 X204.567 Y168.956 E34.72322
G1 X204.351 Y169.357 E34.74595
G1 X204.104 Y169.746 E34.76894
G1 X203.834 Y170.101 E34.79119
G1 X203.524 Y170.451 E34.81452
G1 X203.198 Y170.766 E34.83713
G1 X202.843 Y171.061 E34.86016
G1 X202.479 Y171.318 E34.88239
G1 X202.072 Y171.559 E34.90599
G1 X201.677 Y171.754 E34.92797
G1 X201.244 Y171.927 E34.95123
G1 X200.804 Y172.064 E34.97422
G1 X195.363 Y173.545 E35.25555
G1 X187.471 Y175.287 E35.65876
G1 X179.485 Y176.649 E36.06294
G1 X176.229 Y177.046 E36.22658
G1 X174.964 Y177.222 E36.2903
G1 X173.972 Y177.376 E36.34038
G1 X172.978 Y177.526 E36.39054
G1 X171.986 Y177.67 E36.44055
G1 X170.994 Y177.806 E36.4905
G1 X170 Y177.934 E36.5405
G1 X169.005 Y178.057 E36.59052
G1 X168.009 Y178.175 E36.64056
G1 X167.013 Y178.285 E36.69055
G1 X166.013 Y178.391 E36.74072
G1 X165.017 Y178.489 E36.79065
G1 X164.019 Y178.581 E36.84065
G1 X163.02 Y178.667 E36.89068
G1 X162.021 Y178.745 E36.94067
G1 X161.022 Y178.816 E36.99063
G1 X160.02 Y178.882 E37.04073
G1 X159.019 Y178.942 E37.09076
G1 X158.018 Y178.996 E37.14077
G1 X157.016 Y179.042 E37.19082
G1 X156.014 Y179.084 E37.24085
G1 X155.012 Y179.118 E37.29087
G1 X154.011 Y179.146 E37.34083
G1 X153.007 Y179.166 E37.39093
G1 X152.005 Y179.182 E37.44093
G1 X151.003 Y179.19 E37.49092
G1 X150.002 Y179.192 E37.54086
G0 F7500 X149.802 Y179.192
G0 X149.804 Y178.752
G0 X150.004 Y178.802
;TYPE:SKIN
G1 F1500 X149.003 Y178.798 E37.5908
G1 X148.004 Y178.788 E37.64064
G1 X147.004 Y178.77 E37.69054
G1 X146.003 Y178.746 E37.74049
G1 X145.002 Y178.716 E37.79046
G1 X144.003 Y178.68 E37.84033
G1 X143.004 Y178.638 E37.89021
G1 X142.006 Y178.588 E37.94007
G1 X141.007 Y178.532 E37.98998
G1 X140.007 Y178.47 E38.03997
G1 X138.937 Y178.4 E38.09347
G1 X138.015 Y178.331 E38.13959
G1 X137.019 Y178.249 E38.18945
G1 X136.021 Y178.161 E38.23944
G1 X135.024 Y178.067 E38.2894
G1 X134.029 Y177.967 E38.33929
G1 X133.037 Y177.861 E38.38906
G1 X130.96 Y177.621 E38.49337
G1 X130.051 Y177.504 E38.5391
G1 X129.065 Y177.372 E38.58873
G1 X128.074 Y177.234 E38.63865
G1 X127.084 Y177.09 E38.68856
G1 X126.093 Y176.938 E38.73858
G1 X125.085 Y176.778 E38.7895
G1 X123.826 Y176.657 E38.8526
