;FLAVOR:Marlin
;TIME:2966
;Filament used: 11.8219m
;Layer height: 0.8
;MINX:91.014
;MINY:106.073
;MINZ:0.2
;MAXX:208.986
;MAXY:193.927
;MAXZ:5.2
;Generated with Cura_SteamEngine master
M140 S60
M105
M190 S60
M104 S220
M105
M109 S220
M82 ;absolute extrusion mode
G28 ;Home
G1 Z15.0 F2000 ;Move the platform
G92 E0
G92 E0
;LAYER_COUNT:6
;LAYER:0
M107 P2
M204 S100
G1 F300 Z1.2
;MESH:BOX TINYBEE BY SANTOCYBER-TAMPA.stl
G0 F9000 X101.341 Y191.037 Z1.2
;TYPE:WALL-OUTER
G1 F300 Z0.2
G1 F2400 X101.769 Y190.722 E0.04419
G1 X102.101 Y190.308 E0.08831
G1 X102.309 Y189.824 E0.13212
G1 X102.382 Y189.301 E0.17603
G1 X102.309 Y188.778 E0.21994
G1 X102.101 Y188.294 E0.26374
G1 X101.769 Y187.879 E0.30793
G1 X101.341 Y187.565 E0.35207
G1 X100.846 Y187.369 E0.39634
G1 X100.317 Y187.302 E0.44068
G1 X99.788 Y187.369 E0.48501
G1 X99.293 Y187.565 E0.52928
G1 X98.865 Y187.879 E0.57342
G1 X98.533 Y188.294 E0.61761
G1 X98.325 Y188.778 E0.66142
G1 X98.252 Y189.301 E0.70533
G1 X98.325 Y189.824 E0.74923
G1 X98.533 Y190.308 E0.79304
G1 X98.865 Y190.722 E0.83716
G1 X99.293 Y191.037 E0.88135
G1 X99.788 Y191.233 E0.92562
G1 X100.317 Y191.3 E0.96996
G1 X100.846 Y191.233 E1.0143
G1 X101.341 Y191.037 E1.05857
G0 F9000 X101.502 Y190.919
G1 F300 Z1.2
G0 F9000 X203.115 Y191.037 Z1.2
G1 F300 Z0.2
G1 F2400 X203.61 Y191.233 E1.10283
G1 X204.139 Y191.3 E1.14717
G1 X204.668 Y191.233 E1.19151
G1 X205.163 Y191.037 E1.23578
G1 X205.591 Y190.722 E1.27997
G1 X205.923 Y190.308 E1.32409
G1 X206.131 Y189.823 E1.36797
G1 X206.203 Y189.301 E1.41179
G1 X206.131 Y188.779 E1.4556
G1 X205.923 Y188.294 E1.49948
G1 X205.591 Y187.879 E1.54367
G1 X205.163 Y187.565 E1.58781
G1 X204.668 Y187.369 E1.63208
G1 X204.139 Y187.302 E1.67642
G1 X203.61 Y187.369 E1.72076
G1 X203.115 Y187.565 E1.76503
G1 X202.687 Y187.879 E1.80916
G1 X202.356 Y188.293 E1.85324
G1 X202.146 Y188.778 E1.89718
G1 X202.074 Y189.301 E1.94108
G1 X202.146 Y189.824 E1.98498
G1 X202.356 Y190.308 E2.02885
G1 X202.687 Y190.722 E2.07292
G1 X203.115 Y191.037 E2.11711
G0 F9000 X203.301 Y191.11
G1 F300 Z1.2
G0 F9000 X203.609 Y127.626 Z1.2
G1 F300 Z0.2
G1 F2400 X204.139 Y127.693 E2.16153
G1 X204.669 Y127.626 E2.20595
G1 X205.163 Y127.429 E2.25017
G1 X205.591 Y127.115 E2.29431
G1 X205.923 Y126.701 E2.33844
G1 X206.131 Y126.216 E2.38232
G1 X206.203 Y125.694 E2.42613
G1 X206.131 Y125.172 E2.46995
G1 X205.923 Y124.687 E2.51383
G1 X205.591 Y124.272 E2.55802
G1 X205.163 Y123.958 E2.60216
G1 X204.668 Y123.761 E2.64646
G1 X204.139 Y123.695 E2.69079
G1 X203.61 Y123.761 E2.73511
G1 X203.115 Y123.958 E2.77941
G1 X202.687 Y124.272 E2.82355
G1 X202.356 Y124.686 E2.86763
G1 X202.146 Y125.171 E2.91157
G1 X202.074 Y125.694 E2.95547
G1 X202.146 Y126.217 E2.99937
G1 X202.356 Y126.701 E3.04324
G1 X202.687 Y127.115 E3.08731
G1 X203.115 Y127.429 E3.13145
G1 X203.609 Y127.626 E3.17567
G0 F9000 X203.807 Y127.651
G0 X203.668 Y128.742
G1 F300 Z1.2
G0 F9000 X157.927 Y152.747 Z1.2
G1 F300 Z0.2
G1 F2400 X158.481 Y152.722 E3.22178
G1 X159.014 Y152.561 E3.26808
G1 X159.483 Y152.28 E3.31354
G1 X159.576 Y152.191 E3.32425
G1 X159.878 Y151.882 E3.36017
G1 X160.152 Y151.403 E3.40606
G1 X160.293 Y150.872 E3.45174
G1 X160.287 Y150.321 E3.49756
G1 X160.137 Y149.791 E3.54336
G1 X159.854 Y149.318 E3.58919
G1 X159.46 Y148.932 E3.63506
G1 X158.978 Y148.653 E3.68136
G1 X158.492 Y148.518 E3.72331
G1 X132.513 Y142.261 E5.94524
G1 X132.081 Y142.177 E5.98183
G1 X131.527 Y142.202 E6.02794
G1 X130.994 Y142.363 E6.07424
G1 X130.524 Y142.644 E6.11977
G1 X130.431 Y142.733 E6.13048
G1 X130.128 Y143.043 E6.16652
G1 X129.856 Y143.521 E6.21225
G1 X129.715 Y144.052 E6.25794
G1 X129.721 Y144.603 E6.30375
G1 X129.871 Y145.133 E6.34955
G1 X130.153 Y145.606 E6.39534
G1 X130.548 Y145.992 E6.44127
G1 X131.03 Y146.271 E6.48758
G1 X131.515 Y146.406 E6.52944
G1 X157.494 Y152.663 E8.75137
G1 X157.927 Y152.747 E8.78804
G0 F9000 X158.127 Y152.738
G0 X158.175 Y153.838
G1 F300 Z1.2
G0 F9000 X157.927 Y159.582 Z1.2
G1 F300 Z0.2
G1 F2400 X158.481 Y159.557 E8.83416
G1 X159.014 Y159.396 E8.88045
G1 X159.483 Y159.115 E8.92591
G1 X159.576 Y159.026 E8.93662
G1 X159.878 Y158.715 E8.97266
G1 X160.151 Y158.239 E9.01829
G1 X160.293 Y157.707 E9.06408
G1 X160.287 Y157.156 E9.10989
G1 X160.137 Y156.626 E9.1557
G1 X159.854 Y156.153 E9.20153
G1 X159.46 Y155.767 E9.24739
G1 X158.978 Y155.488 E9.2937
G1 X158.492 Y155.353 E9.33564
G1 X132.513 Y149.096 E11.55757
G1 X132.081 Y149.012 E11.59417
G1 X131.528 Y149.037 E11.6402
G1 X130.994 Y149.197 E11.68655
G1 X130.524 Y149.479 E11.73212
G1 X130.431 Y149.568 E11.74283
G1 X130.128 Y149.878 E11.77887
G1 X129.856 Y150.356 E11.8246
G1 X129.715 Y150.887 E11.87029
G1 X129.721 Y151.438 E11.9161
G1 X129.871 Y151.968 E11.9619
G1 X130.153 Y152.44 E12.00762
G1 X130.548 Y152.828 E12.05366
G1 X131.03 Y153.104 E12.09985
G1 X131.515 Y153.241 E12.14175
G1 X157.494 Y159.498 E14.36368
G1 X157.927 Y159.582 E14.40036
G0 F9000 X158.127 Y159.573
G0 X158.175 Y160.673
G1 F300 Z1.2
G0 F9000 X157.927 Y166.417 Z1.2
G1 F300 Z0.2
G1 F2400 X158.481 Y166.392 E14.44647
G1 X159.014 Y166.231 E14.49277
G1 X159.483 Y165.95 E14.53823
G1 X159.576 Y165.861 E14.54893
G1 X159.878 Y165.55 E14.58498
G1 X160.151 Y165.074 E14.63061
G1 X160.293 Y164.542 E14.67639
G1 X160.287 Y163.991 E14.72221
G1 X160.137 Y163.461 E14.76801
G1 X159.854 Y162.988 E14.81384
G1 X159.46 Y162.602 E14.85971
G1 X158.978 Y162.323 E14.90601
G1 X158.492 Y162.188 E14.94796
G1 X132.576 Y155.944 E17.16454
G1 X132.081 Y155.847 E17.20649
G1 X131.534 Y155.872 E17.25202
G1 X131.411 Y155.905 E17.2626
G1 X130.993 Y156.033 E17.29895
G1 X130.524 Y156.314 E17.34442
G1 X130.431 Y156.403 E17.35512
G1 X130.128 Y156.713 E17.39116
G1 X129.856 Y157.191 E17.43689
G1 X129.715 Y157.721 E17.4825
G1 X129.721 Y158.273 E17.5284
G1 X129.871 Y158.803 E17.5742
G1 X130.153 Y159.275 E17.61992
G1 X130.548 Y159.663 E17.66596
G1 X131.03 Y159.939 E17.71214
G1 X131.515 Y160.076 E17.75405
G1 X157.494 Y166.333 E19.97598
G1 X157.927 Y166.417 E20.01265
G0 F9000 X158.127 Y166.408
G0 X158.175 Y167.508
G1 F300 Z1.2
G0 F9000 X157.927 Y173.252 Z1.2
G1 F300 Z0.2
G1 F2400 X158.481 Y173.227 E20.05877
G1 X159.014 Y173.066 E20.10506
G1 X159.483 Y172.785 E20.15053
G1 X159.576 Y172.696 E20.16123
G1 X159.878 Y172.385 E20.19727
G1 X160.151 Y171.909 E20.2429
G1 X160.293 Y171.377 E20.28869
G1 X160.287 Y170.826 E20.33451
G1 X160.137 Y170.296 E20.38031
G1 X159.854 Y169.823 E20.42614
G1 X159.46 Y169.437 E20.472
G1 X158.978 Y169.158 E20.51831
G1 X158.492 Y169.023 E20.56025
G1 X132.576 Y162.779 E22.77684
G1 X132.081 Y162.682 E22.81878
G1 X131.534 Y162.707 E22.86431
G1 X131.411 Y162.74 E22.8749
G1 X130.993 Y162.868 E22.91125
G1 X130.524 Y163.149 E22.95671
G1 X130.431 Y163.238 E22.96741
G1 X130.128 Y163.548 E23.00346
G1 X129.856 Y164.026 E23.04919
G1 X129.715 Y164.556 E23.09479
G1 X129.721 Y165.108 E23.14069
G1 X129.871 Y165.638 E23.18649
G1 X130.153 Y166.11 E23.23221
G1 X130.548 Y166.498 E23.27825
G1 X131.03 Y166.774 E23.32444
G1 X131.515 Y166.911 E23.36634
G1 X157.494 Y173.168 E25.58827
G1 X157.927 Y173.252 E25.62495
G0 F9000 X158.127 Y173.243
G0 X158.175 Y174.343
G1 F300 Z1.2
G0 F9000 X157.926 Y180.087 Z1.2
G1 F300 Z0.2
G1 F2400 X158.472 Y180.061 E25.6704
G1 X158.594 Y180.028 E25.68091
G1 X159.014 Y179.902 E25.71737
G1 X159.482 Y179.62 E25.7628
G1 X159.575 Y179.531 E25.77351
G1 X159.874 Y179.225 E25.80908
G1 X159.94 Y179.116 E25.81968
G1 X160.151 Y178.743 E25.85531
G1 X160.291 Y178.213 E25.90089
G1 X160.288 Y177.662 E25.94671
G1 X160.137 Y177.13 E25.99269
G1 X159.926 Y176.779 E26.02674
G1 X159.86 Y176.662 E26.03791
G1 X159.46 Y176.272 E26.08437
G1 X158.979 Y175.994 E26.13056
G1 X158.492 Y175.857 E26.17263
G1 X132.577 Y169.615 E28.3891
G1 X132.081 Y169.516 E28.43115
G1 X131.534 Y169.542 E28.47669
G1 X131.411 Y169.575 E28.48728
G1 X130.993 Y169.703 E28.52362
G1 X130.524 Y169.984 E28.56909
G1 X130.431 Y170.073 E28.57979
G1 X130.128 Y170.383 E28.61583
G1 X129.856 Y170.86 E28.66149
G1 X129.715 Y171.391 E28.70718
G1 X129.721 Y171.942 E28.75299
G1 X129.871 Y172.472 E28.79879
G1 X130.153 Y172.945 E28.84458
G1 X130.548 Y173.333 E28.89062
G1 X131.03 Y173.609 E28.93681
G1 X131.515 Y173.746 E28.97871
G1 X157.494 Y180.001 E31.20061
G1 X157.926 Y180.087 E31.23723
G0 F9000 X158.126 Y180.078
G0 X158.177 Y181.178
G1 F300 Z1.2
G0 F9000 X157.927 Y186.922 Z1.2
G1 F300 Z0.2
G1 F2400 X158.474 Y186.896 E31.28277
G1 X158.597 Y186.863 E31.29336
G1 X159.015 Y186.735 E31.32971
G1 X159.483 Y186.454 E31.3751
G1 X159.576 Y186.365 E31.3858
G1 X159.878 Y186.056 E31.42173
G1 X160.151 Y185.579 E31.46743
G1 X160.293 Y185.047 E31.51321
G1 X160.287 Y184.496 E31.55903
G1 X160.137 Y183.966 E31.60483
G1 X159.854 Y183.493 E31.65066
G1 X159.46 Y183.107 E31.69653
G1 X158.979 Y182.829 E31.74272
G1 X158.492 Y182.692 E31.78479
G1 X132.577 Y176.45 E34.00125
G1 X132.081 Y176.351 E34.04331
G1 X131.534 Y176.377 E34.08884
G1 X131.411 Y176.41 E34.09943
G1 X130.993 Y176.538 E34.13578
G1 X130.524 Y176.819 E34.18124
G1 X130.431 Y176.908 E34.19195
G1 X130.128 Y177.218 E34.22799
G1 X129.856 Y177.695 E34.27365
G1 X129.715 Y178.226 E34.31933
G1 X129.721 Y178.777 E34.36515
G1 X129.871 Y179.307 E34.41095
G1 X130.153 Y179.78 E34.45674
G1 X130.548 Y180.166 E34.50267
G1 X131.029 Y180.444 E34.54886
G1 X131.515 Y180.581 E34.59085
G1 X157.43 Y186.823 E36.80731
G1 X157.927 Y186.922 E36.84945
G0 F9000 X158.127 Y186.913
G0 X158.178 Y188.013
G1 F300 Z1.2
G0 F9000 X93.567 Y192.726 Z1.2
G1 F300 Z0.2
G1 F2400 X93.203 Y192.267 E36.89816
G1 X92.989 Y191.146 E36.99306
G1 X92.989 Y159.631 E39.61354
G1 X91.014 Y159.631 E39.77776
G1 X91.014 Y115.625 E43.43687
G1 X92.989 Y115.625 E43.6011
G1 X92.989 Y109.61 E44.10125
G1 X93.203 Y108.489 E44.19614
G1 X93.783 Y107.76 E44.2736
G1 X94.819 Y107.289 E44.36823
G1 X96.415 Y107.115 E44.50172
G1 X103.357 Y107.116 E45.07895
G1 X106.608 Y107.125 E45.34928
G1 X166.687 Y107.123 E50.34487
G1 X168.89 Y107.115 E50.52805
G1 X204.362 Y107.115 E53.47756
G1 X205.958 Y107.289 E53.61105
G1 X206.999 Y107.76 E53.70606
G1 X207.575 Y108.49 E53.78338
G1 X207.733 Y109.32 E53.85363
G1 X207.733 Y191.437 E60.68169
G1 X207.575 Y192.268 E60.75202
G1 X207.216 Y192.725 E60.80035
G1 X93.567 Y192.726 E70.2503
G0 F9000 X93.443 Y192.57
G0 X94.308 Y191.625
G0 X94.109 Y191.736
;TYPE:SKIN
G1 F2400 X93.979 Y191.054 E70.30803
G1 X93.979 Y158.641 E73.00318
G1 X92.004 Y158.641 E73.1674
G1 X92.004 Y116.615 E76.66188
G1 X93.979 Y116.615 E76.8261
G1 X93.979 Y109.702 E77.40092
G1 X94.129 Y108.913 E77.4677
G1 X94.408 Y108.564 E77.50485
G1 X95.085 Y108.255 E77.56673
G1 X96.466 Y108.105 E77.68224
G1 X103.355 Y108.106 E78.25506
G1 X106.606 Y108.115 E78.52538
G1 X166.689 Y108.113 E83.5213
G1 X168.894 Y108.105 E83.70465
G1 X204.311 Y108.105 E86.64959
G1 X205.693 Y108.256 E86.76519
G1 X206.37 Y108.562 E86.82696
G1 X206.648 Y108.915 E86.86432
G1 X206.743 Y109.412 E86.9064
G1 X206.743 Y124.128 E88.13004
G1 X206.282 Y123.551 E88.19145
G1 X205.646 Y123.085 E88.25701
G1 X204.916 Y122.795 E88.32232
G1 X204.139 Y122.697 E88.38744
G1 X203.362 Y122.795 E88.45256
G1 X202.632 Y123.085 E88.51787
G1 X201.996 Y123.551 E88.58343
G1 X201.5 Y124.171 E88.64945
G1 X201.184 Y124.902 E88.71567
G1 X201.074 Y125.694 E88.78216
G1 X201.184 Y126.487 E88.84873
G1 X201.501 Y127.216 E88.91483
G1 X201.996 Y127.836 E88.9808
G1 X202.632 Y128.302 E89.04636
G1 X203.36 Y128.592 E89.11152
G1 X204.139 Y128.691 E89.17681
G1 X204.918 Y128.592 E89.24211
G1 X205.646 Y128.302 E89.30727
G1 X206.282 Y127.836 E89.37283
G1 X206.743 Y127.261 E89.43411
G1 X206.743 Y187.735 E94.46254
G1 X206.282 Y187.158 E94.52395
G1 X205.646 Y186.692 E94.58951
G1 X204.916 Y186.403 E94.65479
G1 X204.139 Y186.304 E94.71993
G1 X203.362 Y186.403 E94.78506
G1 X202.632 Y186.692 E94.85034
G1 X201.996 Y187.158 E94.9159
G1 X201.5 Y187.778 E94.98192
G1 X201.184 Y188.509 E95.04814
G1 X201.074 Y189.301 E95.11462
G1 X201.184 Y190.094 E95.18119
G1 X201.501 Y190.823 E95.24729
G1 X201.996 Y191.442 E95.3132
G1 X202.394 Y191.735 E95.35429
G1 X102.061 Y191.736 E103.69701
G1 X102.46 Y191.443 E103.73818
G1 X102.958 Y190.823 E103.8043
G1 X103.271 Y190.093 E103.87034
G1 X103.382 Y189.301 E103.93684
G1 X103.271 Y188.509 E104.00334
G1 X102.958 Y187.78 E104.06931
G1 X102.46 Y187.158 E104.13556
G1 X101.824 Y186.692 E104.20112
G1 X101.094 Y186.403 E104.26641
G1 X100.317 Y186.304 E104.33154
G1 X99.54 Y186.403 E104.39667
G1 X98.81 Y186.692 E104.46195
G1 X98.174 Y187.158 E104.52751
G1 X97.676 Y187.78 E104.59376
G1 X97.363 Y188.509 E104.65973
G1 X97.252 Y189.301 E104.72623
G1 X97.363 Y190.093 E104.79273
G1 X97.676 Y190.823 E104.85877
G1 X98.174 Y191.443 E104.9249
G1 X98.573 Y191.736 E104.96606
G1 X94.109 Y191.736 E105.33724
G1 F300 Z1.2
G0 F9000 X128.954 Y179.703 Z1.2
G1 F300 Z0.2
G1 F2400 X129.369 Y180.398 E105.40455
G1 X129.945 Y180.96 E105.47147
G1 X130.641 Y181.363 E105.53834
G1 X131.265 Y181.539 E105.59225
G1 X157.218 Y187.79 E107.81196
G1 X157.852 Y187.916 E107.86571
G1 X158.628 Y187.88 E107.93031
G1 X158.87 Y187.815 E107.95114
G1 X159.421 Y187.646 E107.99906
G1 X160.087 Y187.246 E108.06366
G1 X160.273 Y187.068 E108.08507
G1 X160.674 Y186.658 E108.13276
G1 X161.074 Y185.959 E108.19972
G1 X161.285 Y185.172 E108.26747
G1 X161.275 Y184.353 E108.33558
G1 X161.054 Y183.57 E108.40323
G1 X160.638 Y182.875 E108.47058
G1 X160.064 Y182.313 E108.53738
G1 X159.367 Y181.91 E108.60432
G1 X158.742 Y181.734 E108.65831
G1 X132.79 Y175.483 E110.87794
G1 X132.156 Y175.357 E110.93169
G1 X131.38 Y175.393 E110.99629
G1 X131.138 Y175.458 E111.01712
G1 X130.587 Y175.627 E111.06505
G1 X129.92 Y176.027 E111.12972
G1 X129.735 Y176.204 E111.151
G1 X129.331 Y176.616 E111.19898
G1 X128.932 Y177.317 E111.26605
G1 X128.723 Y178.102 E111.3336
G1 X128.733 Y178.92 E111.40162
G1 X128.954 Y179.703 E111.46927
G1 F300 Z1.2
G0 F9000 X128.954 Y172.868 Z1.2
G1 F300 Z0.2
G1 F2400 X129.369 Y173.561 E111.53644
G1 X129.946 Y174.129 E111.60376
G1 X130.644 Y174.528 E111.67061
G1 X131.264 Y174.704 E111.7242
G1 X157.282 Y180.968 E113.94943
G1 X157.852 Y181.081 E113.99774
G1 X158.626 Y181.045 E114.06217
G1 X158.865 Y180.98 E114.08277
G1 X159.418 Y180.815 E114.13075
G1 X160.088 Y180.411 E114.19581
G1 X160.272 Y180.234 E114.21704
G1 X160.661 Y179.836 E114.26331
G1 X160.795 Y179.617 E114.28466
G1 X161.076 Y179.119 E114.33221
G1 X161.281 Y178.339 E114.39927
G1 X161.278 Y177.522 E114.4672
G1 X161.054 Y176.733 E114.5354
G1 X160.764 Y176.251 E114.58217
G1 X160.632 Y176.031 E114.60351
G1 X160.062 Y175.476 E114.66966
G1 X159.367 Y175.075 E114.73638
G1 X158.742 Y174.899 E114.79037
G1 X132.79 Y168.648 E117.01
G1 X132.156 Y168.522 E117.06375
G1 X131.38 Y168.558 E117.12834
G1 X131.138 Y168.623 E117.14918
G1 X130.587 Y168.792 E117.1971
G1 X129.92 Y169.192 E117.26177
G1 X129.735 Y169.369 E117.28306
G1 X129.331 Y169.781 E117.33104
G1 X128.932 Y170.482 E117.39811
G1 X128.723 Y171.267 E117.46565
G1 X128.733 Y172.085 E117.53368
G1 X128.954 Y172.868 E117.60133
G1 F300 Z1.2
G0 F9000 X129.369 Y166.728 Z1.2
G1 F300 Z0.2
G1 F2400 X129.946 Y167.294 E117.66853
G1 X130.644 Y167.693 E117.73539
G1 X131.264 Y167.869 E117.78898
G1 X157.284 Y174.136 E120.01442
G1 X157.854 Y174.246 E120.06269
G1 X158.649 Y174.211 E120.12886
G1 X159.418 Y173.978 E120.19567
G1 X160.087 Y173.577 E120.26053
G1 X160.273 Y173.399 E120.28193
G1 X160.674 Y172.985 E120.32986
G1 X161.074 Y172.29 E120.39654
G1 X161.285 Y171.502 E120.46437
G1 X161.275 Y170.683 E120.53247
G1 X161.054 Y169.9 E120.60012
G1 X160.638 Y169.205 E120.66747
G1 X160.064 Y168.643 E120.73427
G1 X159.364 Y168.238 E120.80151
G1 X158.741 Y168.065 E120.85528
G1 X132.787 Y161.811 E123.07513
G1 X132.154 Y161.688 E123.12875
G1 X131.382 Y161.723 E123.19301
G1 X131.138 Y161.788 E123.214
G1 X130.587 Y161.957 E123.26193
G1 X129.92 Y162.357 E123.3266
G1 X129.734 Y162.535 E123.348
G1 X129.33 Y162.948 E123.39604
G1 X128.932 Y163.648 E123.463
G1 X128.723 Y164.432 E123.53046
G1 X128.733 Y165.251 E123.59857
G1 X128.954 Y166.034 E123.66622
G1 X129.369 Y166.728 E123.73346
G1 F300 Z1.2
G0 F9000 X129.369 Y159.893 Z1.2
G1 F300 Z0.2
G1 F2400 X129.946 Y160.459 E123.80066
G1 X130.644 Y160.858 E123.86752
G1 X131.264 Y161.034 E123.92111
G1 X157.284 Y167.301 E126.14655
G1 X157.854 Y167.411 E126.19482
