;FLAVOR:Marlin
;TIME:4430
;Filament used: 4.88221m
;Layer height: 0.32
;MINX:126.2
;MINY:118.99
;MINZ:0.32
;MAXX:173.8
;MAXY:179.729
;MAXZ:25.92
;Generated with Cura_SteamEngine master
M140 S70
M105
M190 S70
M104 S240
M105
M109 S240
M82 ;absolute extrusion mode
G28 ;Home
G1 Z15.0 F2000 ;Move the platform
G92 E0
G92 E0
;LAYER_COUNT:81
;LAYER:0
M107 P2
G0 F9000 X130.556 Y120.326 Z0.32
;TYPE:SKIRT
G1 F2400 X130.943 Y119.934 E0.02931
G1 X131.382 Y119.601 E0.05864
G1 X131.865 Y119.336 E0.08795
G1 X132.381 Y119.143 E0.11727
G1 X132.92 Y119.027 E0.14661
G1 X133.449 Y118.99 E0.17483
G1 X137.125 Y118.99 E0.37046
G1 X137.675 Y119.03 E0.3998
G1 X138.213 Y119.149 E0.42912
G1 X138.557 Y119.28 E0.44871
G1 X139.049 Y119.112 E0.47638
G1 X139.591 Y119.012 E0.50571
G1 X140.142 Y118.991 E0.53505
G1 X140.689 Y119.05 E0.56433
G1 X141.223 Y119.188 E0.59368
G1 X141.731 Y119.402 E0.62302
G1 X141.801 Y119.444 E0.62736
G1 X141.98 Y119.457 E0.63691
G1 X142.518 Y119.576 E0.66623
G1 X143.033 Y119.772 E0.69556
G1 X143.514 Y120.04 E0.72486
G1 X143.801 Y120.273 E0.74453
G1 X143.849 Y120.283 E0.74714
G1 X145.048 Y120.283 E0.81095
G1 X145.175 Y120.27 E0.81774
G1 X146.183 Y120.269 E0.87138
G1 X146.281 Y120.276 E0.87661
G1 X149.469 Y120.274 E1.04627
G1 X150.772 Y120.267 E1.11561
G1 X150.998 Y120.273 E1.12764
G1 X151.667 Y120.309 E1.16329
G1 X151.715 Y120.303 E1.16587
G1 X152.214 Y120.27 E1.19248
G1 X153.063 Y120.269 E1.23766
G1 X153.26 Y120.283 E1.24817
G1 X154.28 Y120.283 E1.30245
G1 X154.606 Y120.134 E1.32152
G1 X154.898 Y119.881 E1.34209
G1 X155.362 Y119.584 E1.3714
G1 X155.865 Y119.358 E1.40075
G1 X156.395 Y119.206 E1.43009
G1 X157.171 Y119.126 E1.4716
G1 X158.657 Y119.126 E1.55068
G1 X159.207 Y119.166 E1.58003
G1 X159.745 Y119.285 E1.60935
G1 X160.26 Y119.481 E1.63868
G1 X160.741 Y119.749 E1.66798
G1 X161.145 Y120.057 E1.69501
G1 X161.318 Y119.905 E1.70727
G1 X161.781 Y119.606 E1.7366
G1 X162.282 Y119.377 E1.76591
G1 X162.811 Y119.223 E1.79523
G1 X163.59 Y119.139 E1.83693
G1 X166.395 Y119.127 E1.9862
G1 X166.944 Y119.165 E2.01549
G1 X167.483 Y119.281 E2.04483
G1 X167.999 Y119.475 E2.07416
G1 X168.481 Y119.741 E2.10346
G1 X168.921 Y120.074 E2.13283
G1 X169.307 Y120.466 E2.1621
G1 X169.632 Y120.911 E2.19143
G1 X169.89 Y121.398 E2.22076
G1 X170.074 Y121.917 E2.25006
G1 X170.182 Y122.458 E2.27942
G1 X170.211 Y122.973 E2.30687
G1 X170.164 Y126.817 E2.51145
G1 X170.117 Y127.366 E2.54077
G1 X169.991 Y127.903 E2.57012
G1 X169.79 Y128.416 E2.59944
G1 X169.516 Y128.894 E2.62876
G1 X169.328 Y129.133 E2.64494
G1 X169.328 Y129.968 E2.68938
G1 X169.288 Y130.518 E2.71873
G1 X169.169 Y131.056 E2.74805
G1 X168.973 Y131.571 E2.77737
G1 X168.705 Y132.052 E2.80667
G1 X168.371 Y132.49 E2.83599
G1 X168.135 Y132.72 E2.85352
G1 X168.214 Y132.749 E2.858
G1 X168.492 Y132.865 E2.87403
G1 X168.856 Y133.033 E2.89537
G1 X169.123 Y133.169 E2.91131
G1 X169.46 Y133.358 E2.93187
G1 X169.7 Y133.503 E2.9468
G1 X169.798 Y133.566 E2.953
G1 X170.069 Y133.748 E2.97037
G1 X170.327 Y133.938 E2.98742
G1 X170.65 Y134.197 E3.00945
G1 X170.854 Y134.373 E3.02379
G1 X171.145 Y134.644 E3.04495
G1 X171.241 Y134.737 E3.05206
G1 X171.416 Y134.918 E3.06546
G1 X171.595 Y135.116 E3.07967
G1 X171.772 Y135.323 E3.09416
G1 X171.855 Y135.426 E3.1012
G1 X172.035 Y135.657 E3.11678
G1 X172.207 Y135.897 E3.1325
G1 X172.459 Y136.278 E3.15681
G1 X172.632 Y136.565 E3.17464
G1 X172.835 Y136.94 E3.19733
G1 X172.961 Y137.196 E3.21251
G1 X173.081 Y137.464 E3.22814
G1 X173.188 Y137.724 E3.2431
G1 X173.323 Y138.095 E3.26411
G1 X173.514 Y138.596 E3.29265
G1 X173.595 Y138.826 E3.30562
G1 X173.735 Y139.358 E3.3349
G1 X173.8 Y140.058 E3.37231
G1 X173.8 Y171.807 E5.06187
G1 X173.734 Y172.513 E5.09961
G1 X173.727 Y172.55 E5.10161
G1 X173.539 Y173.211 E5.13818
G1 X173.319 Y173.781 E5.17069
G1 X173.213 Y174.08 E5.18758
G1 X173.101 Y174.36 E5.20362
G1 X172.942 Y174.715 E5.22432
G1 X172.798 Y175.003 E5.24146
G1 X172.602 Y175.357 E5.26299
G1 X172.441 Y175.622 E5.27949
G1 X172.212 Y175.966 E5.30149
G1 X172.038 Y176.206 E5.31726
G1 X171.801 Y176.508 E5.33769
G1 X171.608 Y176.736 E5.35359
G1 X171.341 Y177.026 E5.37457
G1 X171.144 Y177.225 E5.38947
G1 X170.873 Y177.479 E5.40923
G1 X170.578 Y177.733 E5.42995
G1 X170.35 Y177.914 E5.44544
G1 X170.125 Y178.08 E5.46032
G1 X169.809 Y178.295 E5.48066
G1 X169.476 Y178.503 E5.50155
G1 X169.2 Y178.66 E5.51845
G1 X168.846 Y178.842 E5.53963
G1 X168.558 Y178.975 E5.55652
G1 X168.313 Y179.079 E5.57068
G1 X167.807 Y179.267 E5.59941
G1 X167.536 Y179.352 E5.61452
G1 X167.244 Y179.434 E5.63066
G1 X166.98 Y179.5 E5.64514
G1 X166.566 Y179.585 E5.66763
G1 X166.274 Y179.632 E5.68337
G1 X165.864 Y179.682 E5.70535
G1 X165.569 Y179.708 E5.72111
G1 X165.439 Y179.715 E5.72804
G1 X165.13 Y179.726 E5.74449
G1 X164.995 Y179.728 E5.75168
G1 X135.002 Y179.729 E7.34779
G1 X134.836 Y179.725 E7.35663
G1 X134.326 Y179.701 E7.3838
G1 X134.091 Y179.68 E7.39636
G1 X133.802 Y179.646 E7.41184
G1 X133.518 Y179.602 E7.42713
G1 X133.144 Y179.529 E7.44741
G1 X132.756 Y179.436 E7.46865
G1 X132.462 Y179.353 E7.4849
G1 X132.201 Y179.269 E7.49949
G1 X131.814 Y179.129 E7.52139
G1 X131.548 Y179.023 E7.53663
G1 X131.419 Y178.965 E7.54416
G1 X131.139 Y178.834 E7.56061
G1 X130.899 Y178.711 E7.57496
G1 X130.542 Y178.512 E7.59671
G1 X130.287 Y178.358 E7.61256
G1 X130.183 Y178.29 E7.61918
G1 X129.917 Y178.109 E7.6363
G1 X129.692 Y177.943 E7.65118
G1 X129.352 Y177.673 E7.67428
G1 X129.119 Y177.472 E7.69066
G1 X128.842 Y177.212 E7.71088
G1 X128.606 Y176.972 E7.72879
G1 X128.415 Y176.763 E7.74386
G1 X128.226 Y176.544 E7.75925
G1 X128.131 Y176.427 E7.76727
G1 X127.956 Y176.201 E7.78248
G1 X127.79 Y175.968 E7.79771
G1 X127.539 Y175.588 E7.82194
G1 X127.368 Y175.303 E7.83963
G1 X127.165 Y174.928 E7.86232
G1 X127.038 Y174.669 E7.87767
G1 X126.916 Y174.396 E7.89358
G1 X126.812 Y174.144 E7.90809
G1 X126.758 Y174.002 E7.91618
G1 X126.666 Y173.742 E7.93085
G1 X126.489 Y173.282 E7.95708
G1 X126.395 Y173.012 E7.9723
G1 X126.259 Y172.478 E8.00162
G1 X126.2 Y171.81 E8.03731
G1 X126.2 Y140.061 E9.72687
G1 X126.266 Y139.355 E9.7646
G1 X126.273 Y139.318 E9.76661
G1 X126.459 Y138.663 E9.80284
G1 X126.669 Y138.117 E9.83397
G1 X126.783 Y137.795 E9.85215
G1 X126.898 Y137.509 E9.86856
G1 X127.061 Y137.147 E9.88968
G1 X127.202 Y136.866 E9.90641
G1 X127.398 Y136.512 E9.92795
G1 X127.559 Y136.247 E9.94445
G1 X127.788 Y135.903 E9.96644
G1 X127.96 Y135.665 E9.98207
G1 X128.203 Y135.355 E10.00303
G1 X128.408 Y135.114 E10.01987
G1 X128.665 Y134.837 E10.03997
G1 X128.845 Y134.657 E10.05352
G1 X129.123 Y134.395 E10.07385
G1 X129.42 Y134.137 E10.09479
G1 X129.649 Y133.955 E10.11035
G1 X129.868 Y133.793 E10.12485
G1 X130.181 Y133.579 E10.14503
G1 X130.434 Y133.419 E10.16096
G1 X130.796 Y133.212 E10.18315
G1 X131.029 Y133.089 E10.19717
G1 X131.133 Y133.038 E10.20333
G1 X131.425 Y132.901 E10.2205
G1 X131.644 Y132.806 E10.2332
G1 X131.259 Y132.412 E10.26252
G1 X130.935 Y131.966 E10.29185
G1 X130.678 Y131.478 E10.3212
G1 X130.496 Y130.958 E10.35052
G1 X130.39 Y130.418 E10.37981
G1 X130.362 Y129.96 E10.40422
G1 X130.362 Y129.433 E10.43227
G1 X130.393 Y128.948 E10.45813
G1 X130.406 Y128.847 E10.46355
G1 X130.489 Y128.406 E10.48743
G1 X130.566 Y128.099 E10.50428
G1 X130.547 Y128.071 E10.50608
G1 X130.307 Y127.575 E10.5354
G1 X130.14 Y127.049 E10.56477
G1 X130.062 Y126.444 E10.59723
G1 X130.005 Y126.334 E10.60382
G1 X129.822 Y125.814 E10.63316
G1 X129.717 Y125.273 E10.66249
G1 X129.691 Y124.897 E10.68254
G1 X129.65 Y122.867 E10.79059
G1 X129.679 Y122.316 E10.81996
G1 X129.787 Y121.776 E10.84926
G1 X129.972 Y121.257 E10.87858
G1 X130.23 Y120.77 E10.90791
G1 X130.556 Y120.326 E10.93723
G0 F9000 X130.954 Y120.48
G1 F2400 X131.337 Y120.126 E10.96498
G1 X131.769 Y119.834 E10.99273
G1 X132.24 Y119.612 E11.02044
G1 X132.74 Y119.465 E11.04817
G1 X133.449 Y119.39 E11.08611
G1 X137.125 Y119.39 E11.28174
G1 X137.645 Y119.43 E11.30949
G1 X138.152 Y119.549 E11.3372
G1 X138.556 Y119.712 E11.36039
G1 X138.683 Y119.658 E11.36773
G1 X139.178 Y119.492 E11.39551
G1 X139.691 Y119.404 E11.42321
G1 X140.212 Y119.395 E11.45094
G1 X140.729 Y119.466 E11.47871
G1 X141.228 Y119.615 E11.50643
G1 X141.696 Y119.837 E11.53399
G1 X141.95 Y119.857 E11.54755
G1 X142.457 Y119.976 E11.57527
G1 X142.94 Y120.171 E11.60298
G1 X143.388 Y120.437 E11.63071
G1 X143.639 Y120.648 E11.64816
G1 X143.811 Y120.683 E11.6575
G1 X145.026 Y120.683 E11.72216
G1 X145.176 Y120.67 E11.73017
G1 X146.184 Y120.669 E11.78381
G1 X146.276 Y120.676 E11.78872
G1 X149.471 Y120.674 E11.95875
G1 X150.774 Y120.667 E12.02809
G1 X150.977 Y120.672 E12.0389
G1 X151.688 Y120.711 E12.07679
G1 X151.768 Y120.7 E12.08109
G1 X152.214 Y120.67 E12.10488
G1 X153.063 Y120.669 E12.15006
G1 X153.25 Y120.683 E12.16004
G1 X154.388 Y120.683 E12.2206
G1 X154.687 Y120.523 E12.23864
G1 X154.82 Y120.476 E12.24615
G1 X155.16 Y120.184 E12.27
G1 X155.603 Y119.909 E12.29775
G1 X156.082 Y119.705 E12.32545
G1 X156.587 Y119.577 E12.35318
G1 X157.171 Y119.526 E12.38437
G1 X158.657 Y119.526 E12.46345
G1 X159.177 Y119.566 E12.49121
G1 X159.684 Y119.685 E12.51892
G1 X160.167 Y119.88 E12.54664
G1 X160.615 Y120.146 E12.57437
G1 X161.018 Y120.48 E12.60222
G1 X161.188 Y120.549 E12.61199
G1 X161.582 Y120.207 E12.63975
G1 X162.023 Y119.93 E12.66746
G1 X162.501 Y119.723 E12.69518
G1 X163.006 Y119.592 E12.72295
G1 X163.591 Y119.539 E12.75421
G1 X166.396 Y119.527 E12.90348
G1 X166.916 Y119.565 E12.93123
G1 X167.424 Y119.681 E12.95896
G1 X167.908 Y119.874 E12.98668
G1 X168.357 Y120.139 E13.01443
G1 X168.76 Y120.469 E13.04215
G1 X169.108 Y120.857 E13.06988
G1 X169.393 Y121.294 E13.09765
G1 X169.608 Y121.769 E13.1254
G1 X169.747 Y122.271 E13.15312
G1 X169.811 Y122.969 E13.19042
G1 X169.764 Y126.813 E13.39499
G1 X169.717 Y127.332 E13.42273
G1 X169.592 Y127.838 E13.45046
G1 X169.391 Y128.318 E13.47816
G1 X169.119 Y128.763 E13.50591
G1 X168.928 Y128.989 E13.52166
G1 X168.928 Y129.968 E13.57376
G1 X168.888 Y130.488 E13.60151
G1 X168.769 Y130.995 E13.62922
G1 X168.574 Y131.478 E13.65694
G1 X168.308 Y131.926 E13.68467
G1 X167.976 Y132.328 E13.71242
G1 X167.586 Y132.674 E13.74016
G1 X167.528 Y132.712 E13.74385
G1 X167.598 Y132.952 E13.75715
G1 X167.764 Y133.01 E13.76651
G1 X168.076 Y133.125 E13.78421
G1 X168.325 Y133.228 E13.79855
G1 X168.689 Y133.396 E13.81988
G1 X168.927 Y133.518 E13.83411
G1 X169.264 Y133.707 E13.85468
G1 X169.488 Y133.842 E13.86859
G1 X169.575 Y133.898 E13.8741
G1 X169.846 Y134.08 E13.89147
G1 X170.077 Y134.25 E13.90673
G1 X170.4 Y134.509 E13.92877
G1 X170.582 Y134.667 E13.94159
G1 X170.867 Y134.931 E13.96227
G1 X171.119 Y135.186 E13.98135
G1 X171.384 Y135.482 E14.00249
G1 X171.54 Y135.672 E14.01557
G1 X171.72 Y135.903 E14.03115
G1 X171.874 Y136.117 E14.04519
G1 X172.126 Y136.498 E14.06949
G1 X172.28 Y136.755 E14.08544
G1 X172.483 Y137.13 E14.10813
G1 X172.596 Y137.36 E14.12177
G1 X172.716 Y137.628 E14.13739
G1 X172.817 Y137.872 E14.15145
G1 X172.863 Y137.995 E14.15844
G1 X172.956 Y138.257 E14.17323
G1 X173.14 Y138.739 E14.20069
G1 X173.216 Y138.955 E14.21287
G1 X173.347 Y139.46 E14.24064
G1 X173.4 Y140.058 E14.27258
G1 X173.4 Y171.807 E15.96215
G1 X173.341 Y172.439 E15.99592
G1 X173.334 Y172.476 E15.99793
G1 X173.166 Y173.067 E16.03063
G1 X172.939 Y173.656 E16.06422
G1 X172.836 Y173.946 E16.08059
G1 X172.736 Y174.197 E16.09497
G1 X172.577 Y174.552 E16.11567
G1 X172.449 Y174.809 E16.13095
G1 X172.253 Y175.163 E16.15248
G1 X172.108 Y175.4 E16.16727
G1 X171.879 Y175.744 E16.18926
G1 X171.724 Y175.959 E16.20337
G1 X171.487 Y176.261 E16.2238
G1 X171.313 Y176.465 E16.23806
G1 X171.046 Y176.755 E16.25904
G1 X170.87 Y176.933 E16.27236
G1 X170.599 Y177.187 E16.29213
G1 X170.329 Y177.42 E16.31111
G1 X170.101 Y177.601 E16.3266
G1 X169.9 Y177.749 E16.33988
G1 X169.584 Y177.964 E16.36022
G1 X169.278 Y178.155 E16.37942
G1 X169.002 Y178.312 E16.39632
G1 X168.678 Y178.479 E16.41571
G1 X168.39 Y178.612 E16.4326
G1 X168.079 Y178.741 E16.45051
G1 X167.679 Y178.888 E16.47319
G1 X167.428 Y178.967 E16.48719
G1 X167.136 Y179.049 E16.50333
G1 X166.891 Y179.11 E16.51677
G1 X166.487 Y179.193 E16.53872
G1 X166.226 Y179.235 E16.55279
G1 X165.816 Y179.285 E16.57477
G1 X165.541 Y179.309 E16.58946
G1 X165.116 Y179.326 E16.61209
G1 X164.995 Y179.328 E16.61853
G1 X135.002 Y179.329 E18.21465
G1 X134.853 Y179.326 E18.22258
G1 X134.465 Y179.309 E18.24325
G1 X134.138 Y179.283 E18.2607
G1 X133.849 Y179.249 E18.27619
G1 X133.595 Y179.209 E18.28987
G1 X133.221 Y179.136 E18.31015
G1 X132.864 Y179.051 E18.32968
G1 X132.57 Y178.968 E18.34594
G1 X132.337 Y178.893 E18.35896
G1 X131.95 Y178.753 E18.38086
G1 X131.704 Y178.654 E18.39497
G1 X131.588 Y178.603 E18.40172
G1 X131.308 Y178.472 E18.41817
G1 X131.094 Y178.362 E18.43097
G1 X130.737 Y178.163 E18.45272
G1 X130.501 Y178.02 E18.46741
G1 X130.142 Y177.778 E18.49045
G1 X129.941 Y177.63 E18.50373
G1 X129.601 Y177.36 E18.52684
G1 X129.392 Y177.18 E18.54151
G1 X129.122 Y176.926 E18.56124
G1 X128.901 Y176.703 E18.57795
G1 X128.71 Y176.494 E18.59302
G1 X128.533 Y176.287 E18.60751
G1 X128.448 Y176.182 E18.6147
G1 X128.273 Y175.956 E18.62991
G1 X128.124 Y175.748 E18.64353
G1 X127.873 Y175.368 E18.66776
G1 X127.72 Y175.113 E18.68359
G1 X127.517 Y174.738 E18.70628
G1 X127.403 Y174.506 E18.72004
G1 X127.281 Y174.233 E18.73595
G1 X127.183 Y173.996 E18.7496
G1 X127.135 Y173.869 E18.75682
G1 X127.025 Y173.557 E18.77443
G1 X126.863 Y173.138 E18.79833
G1 X126.774 Y172.885 E18.8126
G1 X126.648 Y172.38 E18.8403
G1 X126.6 Y171.81 E18.87074
G1 X126.6 Y140.061 E20.5603
G1 X126.659 Y139.429 E20.59408
G1 X126.666 Y139.392 E20.59609
G1 X126.833 Y138.806 E20.62851
G1 X127.04 Y138.267 E20.65924
G1 X127.16 Y137.929 E20.67833
G1 X127.263 Y137.673 E20.69301
G1 X127.426 Y137.311 E20.71414
G1 X127.551 Y137.06 E20.72906
G1 X127.747 Y136.706 E20.75059
G1 X127.892 Y136.469 E20.76538
G1 X128.121 Y136.125 E20.78737
G1 X128.275 Y135.911 E20.8014
G1 X128.518 Y135.601 E20.82236
G1 X128.702 Y135.387 E20.83738
G1 X128.959 Y135.11 E20.85749
G1 X129.119 Y134.948 E20.86961
G1 X129.493 Y134.598 E20.89687
G1 X129.669 Y134.45 E20.9091
G1 X129.898 Y134.268 E20.92467
G1 X130.094 Y134.123 E20.93764
G1 X130.407 Y133.909 E20.95782
G1 X130.641 Y133.761 E20.97256
G1 X130.994 Y133.559 E20.9942
G1 X131.303 Y133.4 E21.01269
G1 X131.595 Y133.263 E21.02986
G1 X131.927 Y133.124 E21.04901
G1 X132.046 Y133.08 E21.05576
G1 X132.106 Y132.825 E21.0697
G1 X132.155 Y132.704 E21.07665
G1 X131.765 Y132.371 E21.10394
G1 X131.424 Y131.976 E21.13171
G1 X131.148 Y131.534 E21.15944
G1 X130.943 Y131.055 E21.18717
G1 X130.814 Y130.55 E21.21491
G1 X130.762 Y129.96 E21.24643
G1 X130.762 Y129.433 E21.27447
G1 X130.79 Y128.999 E21.29761
G1 X130.803 Y128.898 E21.30303
G1 X130.877 Y128.504 E21.32437
G1 X130.998 Y128.022 E21.35081
G1 X130.838 Y127.772 E21.36661
G1 X130.629 Y127.295 E21.39432
G1 X130.494 Y126.791 E21.42209
G1 X130.445 Y126.316 E21.4475
G1 X130.288 Y125.965 E21.46796
G1 X130.151 Y125.462 E21.49571
G1 X130.091 Y124.889 E21.52637
G1 X130.05 Y122.859 E21.63442
G1 X130.079 Y122.338 E21.66219
G1 X130.188 Y121.829 E21.68989
G1 X130.373 Y121.342 E21.71761
G1 X130.63 Y120.888 E21.74537
G1 X130.954 Y120.48 E21.7731
G0 F9000 X131.031 Y121.015
G1 F2400 X131.351 Y120.645 E21.79913
G1 X131.728 Y120.333 E21.82517
G1 X132.151 Y120.086 E21.85124
G1 X132.608 Y119.91 E21.8773
G1 X133.087 Y119.812 E21.90332
G1 X133.449 Y119.79 E21.92262
G1 X137.125 Y119.79 E22.11824
G1 X137.613 Y119.83 E22.1443
G1 X138.088 Y119.949 E22.17036
G1 X138.537 Y120.143 E22.19639
G1 X138.547 Y120.15 E22.19704
G1 X138.839 Y120.026 E22.21392
G1 X139.304 Y119.873 E22.23997
G1 X139.788 Y119.797 E22.26604
G1 X140.277 Y119.801 E22.29206
G1 X140.76 Y119.884 E22.31814
G1 X141.222 Y120.045 E22.34418
G1 X141.557 Y120.227 E22.36447
G1 X141.918 Y120.257 E22.38375
G1 X142.393 Y120.376 E22.40981
G1 X142.842 Y120.57 E22.43583
G1 X143.254 Y120.835 E22.4619
G1 X143.468 Y121.023 E22.47706
G1 X143.767 Y121.083 E22.49329
G1 X144.98 Y121.083 E22.55784
G1 X145.176 Y121.07 E22.5683
G1 X146.184 Y121.069 E22.62194
G1 X146.271 Y121.076 E22.62658
G1 X149.473 Y121.074 E22.79698
G1 X150.776 Y121.067 E22.86632
G1 X150.955 Y121.071 E22.87585
G1 X151.703 Y121.112 E22.91572
