;FLAVOR:Marlin
;TIME:1063
;Filament used: 2.66829m
;Layer height: 0.32
;MINX:127.62
;MINY:105.283
;MINZ:0.32
;MAXX:172.381
;MAXY:194.719
;MAXZ:12.16
;Generated with Cura_SteamEngine master
M140 S90
M105
M190 S90
M104 S240
M105
M109 S240
M82 ;absolute extrusion mode
G28 ;Home
G1 Z15.0 F2000 ;Move the platform
G92 E0
G92 E0
G1 F1500 E-4
;LAYER_COUNT:38
;LAYER:0
M107 P2
G0 F7500 X140.699 Y122.504 Z0.32
;TYPE:SKIRT
G1 F1500 E0
G1 X140.897 Y122.279 E0.0319
G1 X141.094 Y122.063 E0.06301
G1 X141.335 Y121.81 E0.1002
G1 X141.652 Y121.493 E0.14792
G1 X141.937 Y121.222 E0.18977
G1 X142.156 Y121.024 E0.2212
G1 X142.526 Y120.681 E0.2749
G1 X143.379 Y119.918 E0.3967
G1 X144.147 Y119.256 E0.50462
G1 X144.277 Y119.147 E0.52267
G1 X145.15 Y118.431 E0.64284
G1 X145.54 Y118.12 E0.69593
G1 X146.033 Y117.737 E0.76238
G1 X146.455 Y117.416 E0.81881
G1 X146.954 Y117.045 E0.88499
G1 X147.491 Y116.655 E0.95563
G1 X147.826 Y116.42 E0.99918
G1 X148.405 Y116.025 E1.07378
G1 X149.158 Y115.525 E1.16998
G1 X150.047 Y114.954 E1.28244
G1 X150.681 Y114.563 E1.36172
G1 X150.681 Y112.882 E1.54063
G1 X150.721 Y112.104 E1.62354
G1 X150.841 Y111.333 E1.70659
G1 X151.039 Y110.579 E1.78956
G1 X151.313 Y109.85 E1.87245
G1 X151.66 Y109.152 E1.95541
G1 X152.078 Y108.493 E2.03847
G1 X152.56 Y107.881 E2.12138
G1 X153.102 Y107.321 E2.20433
G1 X153.699 Y106.82 E2.28728
G1 X154.345 Y106.383 E2.37029
G1 X155.031 Y106.014 E2.4532
G1 X155.752 Y105.717 E2.53619
G1 X156.499 Y105.496 E2.6191
G1 X157.266 Y105.352 E2.70216
G1 X158.28 Y105.284 E2.81032
G1 X164.779 Y105.283 E3.50203
G1 X165.557 Y105.323 E3.58494
G1 X166.328 Y105.442 E3.66797
G1 X167.082 Y105.64 E3.75095
G1 X167.811 Y105.914 E3.83383
G1 X168.509 Y106.261 E3.9168
G1 X169.168 Y106.678 E3.9998
G1 X169.781 Y107.16 E4.0828
G1 X170.34 Y107.702 E4.16567
G1 X170.842 Y108.299 E4.24868
G1 X171.28 Y108.944 E4.33166
G1 X171.649 Y109.63 E4.41457
G1 X171.946 Y110.351 E4.49756
G1 X172.167 Y111.098 E4.58047
G1 X172.311 Y111.864 E4.66343
G1 X172.38 Y112.883 E4.77213
G1 X172.38 Y120.208 E5.55175
G1 X172.374 Y120.505 E5.58337
G1 X172.362 Y120.812 E5.61607
G1 X172.318 Y121.381 E5.67681
G1 X172.283 Y121.686 E5.70948
G1 X172.192 Y122.278 E5.77323
G1 X172.132 Y122.585 E5.80652
G1 X171.993 Y123.172 E5.87073
G1 X171.912 Y123.462 E5.90277
G1 X171.748 Y123.976 E5.9602
G1 X171.645 Y124.264 E5.99275
G1 X171.414 Y124.837 E6.05851
G1 X171.286 Y125.12 E6.09156
G1 X171.04 Y125.615 E6.1504
G1 X170.895 Y125.882 E6.18273
G1 X170.584 Y126.403 E6.24731
G1 X170.414 Y126.664 E6.28046
G1 X170.093 Y127.12 E6.33982
G1 X169.908 Y127.363 E6.37232
G1 X169.526 Y127.825 E6.43613
G1 X169.323 Y128.052 E6.46854
G1 X168.919 Y128.471 E6.53049
G1 X168.698 Y128.683 E6.56308
G1 X168.252 Y129.078 E6.62649
G1 X168.009 Y129.277 E6.65992
G1 X167.542 Y129.63 E6.72222
G1 X167.294 Y129.803 E6.75441
G1 X166.812 Y130.113 E6.8154
G1 X166.548 Y130.269 E6.84804
G1 X166.031 Y130.548 E6.91057
G1 X165.758 Y130.682 E6.94293
G1 X165.244 Y130.911 E7.00282
G1 X164.958 Y131.026 E7.03563
G1 X164.765 Y131.101 E7.05767
G1 X164.359 Y131.251 E7.10374
G1 X163.98 Y131.406 E7.14732
G1 X163.609 Y131.57 E7.19049
G1 X163.237 Y131.743 E7.23415
G1 X162.832 Y131.943 E7.28223
G1 X162.403 Y132.168 E7.33379
G1 X162.07 Y132.348 E7.37408
G1 X161.835 Y132.479 E7.40271
G1 X161.471 Y132.697 E7.44787
G1 X160.68 Y133.202 E7.54775
G1 X160.168 Y133.542 E7.61317
G1 X159.739 Y133.836 E7.66852
G1 X159.113 Y134.298 E7.75133
G1 X158.754 Y134.571 E7.79933
G1 X158.364 Y134.88 E7.85229
G1 X157.887 Y135.271 E7.91793
G1 X157.655 Y135.465 E7.95012
G1 X157.392 Y135.695 E7.9873
G1 X156.952 Y136.087 E8.05002
G1 X156.662 Y136.35 E8.09169
G1 X155.648 Y137.848 E8.28422
G1 X155.322 Y138.314 E8.34475
G1 X154.842 Y138.928 E8.4277
G1 X154.559 Y139.236 E8.47222
G1 X154.323 Y139.48 E8.50834
G1 X153.784 Y140.115 E8.59699
G1 X153.333 Y140.666 E8.67278
G1 X153.116 Y140.943 E8.71023
G1 X152.837 Y141.318 E8.75998
G1 X152.118 Y142.304 E8.88986
G1 X151.921 Y142.58 E8.92595
G1 X151.491 Y143.232 E9.00907
G1 X151.403 Y143.369 E9.0264
G1 X151.183 Y143.725 E9.07095
G1 X150.889 Y144.219 E9.13213
G1 X150.681 Y144.584 E9.17684
G1 X150.435 Y145.04 E9.23199
G1 X150.229 Y145.434 E9.27931
G1 X150.119 Y145.653 E9.30539
G1 X149.983 Y145.933 E9.33852
G1 X149.87 Y146.179 E9.36733
G1 X149.762 Y146.425 E9.39593
G1 X149.619 Y146.766 E9.43528
G1 X149.449 Y147.188 E9.48371
G1 X149.299 Y147.587 E9.52908
G1 X149.198 Y147.877 E9.56176
G1 X149.078 Y148.261 E9.60458
G1 X148.969 Y148.659 E9.6485
G1 X148.89 Y148.985 E9.6842
G1 X148.831 Y149.28 E9.71622
G1 X148.781 Y149.576 E9.74817
G1 X148.735 Y149.912 E9.78426
G1 X148.727 Y149.995 E9.79314
G1 X148.77 Y150.355 E9.83173
G1 X148.815 Y150.642 E9.86265
G1 X148.903 Y151.061 E9.90821
G1 X149.009 Y151.488 E9.95504
G1 X149.111 Y151.843 E9.99435
G1 X149.195 Y152.11 E10.02414
G1 X149.349 Y152.56 E10.07476
G1 X149.46 Y152.852 E10.10801
G1 X149.559 Y153.097 E10.13614
G1 X149.762 Y153.573 E10.19121
G1 X149.952 Y153.998 E10.24076
G1 X150.041 Y154.188 E10.26309
G1 X150.205 Y154.519 E10.30241
G1 X150.409 Y154.919 E10.3502
G1 X150.633 Y155.342 E10.40114
G1 X150.816 Y155.663 E10.44047
G1 X151.228 Y156.35 E10.52573
G1 X151.402 Y156.627 E10.56054
G1 X151.759 Y157.179 E10.63051
G1 X151.919 Y157.417 E10.66103
G1 X152.152 Y157.747 E10.70403
G1 X152.345 Y158.014 E10.73909
G1 X152.89 Y158.756 E10.83708
G1 X153.286 Y159.274 E10.90648
G1 X153.521 Y159.568 E10.94654
G1 X153.72 Y159.809 E10.9798
G1 X154.323 Y160.52 E11.07902
G1 X154.588 Y160.809 E11.12076
G1 X155.159 Y161.511 E11.21707
G1 X155.549 Y162.056 E11.2884
G1 X156.644 Y163.627 E11.49221
G1 X156.932 Y163.9 E11.53445
G1 X157.415 Y164.327 E11.60306
G1 X157.78 Y164.639 E11.65417
G1 X158.062 Y164.872 E11.6931
G1 X158.463 Y165.198 E11.7481
G1 X158.676 Y165.368 E11.77711
G1 X159.338 Y165.872 E11.86566
G1 X159.682 Y166.123 E11.91099
G1 X159.936 Y166.302 E11.94406
G1 X160.286 Y166.541 E11.98917
G1 X160.787 Y166.873 E12.05313
G1 X161.255 Y167.172 E12.11224
G1 X161.831 Y167.513 E12.18349
G1 X162.279 Y167.764 E12.23814
G1 X162.708 Y167.994 E12.28995
G1 X163.145 Y168.213 E12.34197
G1 X163.739 Y168.489 E12.41169
G1 X163.979 Y168.592 E12.43948
G1 X164.165 Y168.669 E12.46091
G1 X164.465 Y168.787 E12.49522
G1 X164.788 Y168.907 E12.53189
G1 X165.027 Y169 E12.55919
G1 X165.308 Y169.115 E12.5915
G1 X165.798 Y169.336 E12.64871
G1 X166.071 Y169.471 E12.68113
G1 X166.605 Y169.763 E12.74591
G1 X166.864 Y169.918 E12.77803
G1 X167.351 Y170.235 E12.83988
G1 X167.604 Y170.414 E12.87286
G1 X168.065 Y170.767 E12.93466
G1 X168.299 Y170.961 E12.96701
G1 X168.734 Y171.351 E13.02919
G1 X168.953 Y171.563 E13.06163
G1 X169.345 Y171.972 E13.12193
G1 X169.547 Y172.199 E13.15427
G1 X169.949 Y172.691 E13.22189
G1 X170.135 Y172.939 E13.25489
G1 X170.428 Y173.359 E13.30939
G1 X170.593 Y173.613 E13.34163
G1 X170.894 Y174.117 E13.40411
G1 X171.04 Y174.385 E13.43659
G1 X171.31 Y174.932 E13.50151
G1 X171.435 Y175.213 E13.53425
G1 X171.644 Y175.735 E13.59409
G1 X171.747 Y176.022 E13.62655
G1 X171.926 Y176.589 E13.68983
G1 X172.007 Y176.886 E13.72259
G1 X172.134 Y177.429 E13.78195
G1 X172.193 Y177.731 E13.8147
G1 X172.287 Y178.346 E13.88091
G1 X172.321 Y178.651 E13.91358
G1 X172.362 Y179.188 E13.9709
G1 X172.374 Y179.487 E14.00275
G1 X172.38 Y179.791 E14.03511
G1 X172.381 Y187.115 E14.81462
G1 X172.341 Y187.893 E14.89753
G1 X172.222 Y188.664 E14.98056
G1 X172.024 Y189.418 E15.06353
G1 X171.75 Y190.148 E15.14652
G1 X171.403 Y190.845 E15.22939
G1 X170.986 Y191.504 E15.31239
G1 X170.504 Y192.117 E15.39539
G1 X169.962 Y192.677 E15.47834
G1 X169.365 Y193.178 E15.56129
G1 X168.72 Y193.616 E15.64427
G1 X168.033 Y193.985 E15.72727
G1 X167.313 Y194.282 E15.81016
G1 X166.565 Y194.504 E15.8932
G1 X165.799 Y194.647 E15.97614
G1 X164.836 Y194.716 E16.0789
G1 X164.461 Y194.718 E16.11881
G1 X162.653 Y194.707 E16.31124
G1 X158.81 Y194.719 E16.72026
G1 X158.24 Y194.716 E16.78093
G1 X157.462 Y194.672 E16.86387
G1 X156.692 Y194.548 E16.94688
G1 X155.939 Y194.347 E17.02983
G1 X155.211 Y194.069 E17.11277
G1 X154.515 Y193.718 E17.19573
G1 X153.858 Y193.297 E17.27878
G1 X153.249 Y192.812 E17.36164
G1 X152.692 Y192.267 E17.44458
G1 X152.193 Y191.667 E17.52764
G1 X151.759 Y191.02 E17.61056
G1 X151.394 Y190.331 E17.69355
G1 X151.101 Y189.609 E17.77648
G1 X150.883 Y188.861 E17.8594
G1 X150.743 Y188.094 E17.94238
G1 X150.68 Y187.116 E18.04669
G1 X150.68 Y185.433 E18.22582
G1 X150.524 Y185.34 E18.24515
G1 X149.946 Y184.986 E18.31729
G1 X149.274 Y184.556 E18.4022
G1 X148.716 Y184.189 E18.47328
G1 X148.03 Y183.723 E18.56155
G1 X147.497 Y183.349 E18.63085
G1 X147.21 Y183.142 E18.66851
G1 X146.709 Y182.774 E18.73467
G1 X146.156 Y182.358 E18.80832
G1 X145.457 Y181.814 E18.90259
G1 X144.87 Y181.342 E18.98276
G1 X144.306 Y180.876 E19.06063
G1 X143.718 Y180.377 E19.14271
G1 X143.29 Y180.002 E19.20327
G1 X142.738 Y179.512 E19.28183
G1 X142.351 Y179.154 E19.33794
G1 X141.822 Y178.668 E19.4144
G1 X141.671 Y178.524 E19.43661
G1 X141.472 Y178.329 E19.46626
G1 X141.288 Y178.142 E19.49418
G1 X141.108 Y177.953 E19.52196
G1 X140.921 Y177.75 E19.55134
G1 X140.782 Y177.593 E19.57365
G1 X140.616 Y177.399 E19.60083
G1 X140.396 Y177.133 E19.63757
G1 X140.166 Y176.844 E19.67688
G1 X140.008 Y176.634 E19.70485
G1 X139.669 Y176.166 E19.76636
G1 X139.182 Y175.474 E19.85642
G1 X138.445 Y174.417 E19.99356
G1 X138.252 Y174.194 E20.02495
G1 X137.798 Y173.659 E20.09963
G1 X137.247 Y172.998 E20.19122
G1 X136.96 Y172.644 E20.23973
G1 X136.503 Y172.064 E20.31832
G1 X136.156 Y171.61 E20.37913
G1 X135.943 Y171.326 E20.41692
G1 X135.117 Y170.199 E20.56563
G1 X134.792 Y169.743 E20.62523
G1 X134.409 Y169.191 E20.69674
G1 X134.098 Y168.723 E20.75655
G1 X133.741 Y168.174 E20.82625
G1 X133.496 Y167.789 E20.87482
G1 X133.224 Y167.352 E20.9296
G1 X132.793 Y166.636 E21.01855
G1 X132.584 Y166.28 E21.06248
G1 X132.198 Y165.602 E21.14552
G1 X131.823 Y164.909 E21.22938
G1 X131.429 Y164.147 E21.32069
G1 X131.118 Y163.522 E21.39499
G1 X130.887 Y163.04 E21.45187
G1 X130.587 Y162.384 E21.52865
G1 X130.24 Y161.59 E21.62087
G1 X130.053 Y161.141 E21.67264
G1 X129.796 Y160.502 E21.74595
G1 X129.598 Y159.982 E21.80517
G1 X129.409 Y159.458 E21.86445
G1 X129.128 Y158.63 E21.95752
G1 X129.07 Y158.454 E21.97724
G1 X128.911 Y157.941 E22.0344
G1 X128.798 Y157.558 E22.0769
G1 X128.622 Y156.927 E22.14662
G1 X128.517 Y156.522 E22.19116
G1 X128.38 Y155.962 E22.25251
G1 X128.218 Y155.24 E22.33127
G1 X128.112 Y154.717 E22.38807
G1 X128.04 Y154.325 E22.43049
G1 X127.954 Y153.817 E22.48532
G1 X127.899 Y153.459 E22.52387
G1 X127.787 Y152.606 E22.61544
G1 X127.732 Y152.11 E22.66855
G1 X127.686 Y151.608 E22.72221
G1 X127.671 Y151.404 E22.74398
G1 X127.647 Y151.011 E22.78588
G1 X127.637 Y150.78 E22.81049
G1 X127.624 Y150.355 E22.85575
G1 X127.62 Y150.041 E22.88917
G1 X127.625 Y149.576 E22.93866
G1 X127.633 Y149.303 E22.96773
G1 X127.654 Y148.854 E23.01557
G1 X127.691 Y148.317 E23.07286
G1 X127.726 Y147.926 E23.11464
G1 X127.751 Y147.69 E23.1399
G1 X127.822 Y147.104 E23.20273
G1 X127.917 Y146.426 E23.27559
G1 X127.996 Y145.933 E23.32873
G1 X128.064 Y145.542 E23.37097
G1 X128.101 Y145.345 E23.39231
G1 X128.261 Y144.55 E23.47862
G1 X128.314 Y144.309 E23.50488
G1 X128.431 Y143.814 E23.55902
G1 X128.551 Y143.34 E23.61106
G1 X128.686 Y142.835 E23.66669
G1 X128.834 Y142.316 E23.72413
G1 X129.006 Y141.745 E23.7876
G1 X129.155 Y141.279 E23.83967
G1 X129.226 Y141.067 E23.86347
G1 X129.458 Y140.409 E23.93773
G1 X129.799 Y139.5 E24.04106
G1 X129.948 Y139.122 E24.0843
G1 X130.1 Y138.747 E24.12737
G1 X130.255 Y138.376 E24.17016
G1 X130.527 Y137.747 E24.2431
G1 X130.794 Y137.156 E24.31212
G1 X131.03 Y136.658 E24.37078
G1 X131.345 Y136.019 E24.4466
G1 X131.585 Y135.552 E24.50249
G1 X131.846 Y135.056 E24.56214
G1 X132.118 Y134.552 E24.62309
G1 X132.368 Y134.102 E24.67788
G1 X132.684 Y133.549 E24.74567
G1 X132.975 Y133.059 E24.80633
G1 X133.355 Y132.434 E24.88418
G1 X133.58 Y132.076 E24.92918
G1 X133.937 Y131.521 E24.99942
G1 X134.477 Y130.706 E25.10347
G1 X134.677 Y130.418 E25.14079
G1 X134.997 Y129.971 E25.1993
G1 X135.466 Y129.325 E25.28426
G1 X136.201 Y128.328 E25.4161
G1 X136.574 Y127.842 E25.4813
G1 X136.873 Y127.465 E25.53251
G1 X137.46 Y126.745 E25.63138
G1 X137.891 Y126.231 E25.70278
G1 X138.474 Y125.549 E25.79827
G1 X138.567 Y125.443 E25.81328
G1 X138.946 Y124.879 E25.8856
G1 X139.413 Y124.193 E25.97393
G1 X139.695 Y123.794 E26.02593
G1 X140.015 Y123.358 E26.08349
G1 X140.228 Y123.081 E26.12068
G1 X140.528 Y122.707 E26.17171
G1 X140.699 Y122.504 E26.19996
G0 F7500 X141.311 Y123.019
G1 F1500 X141.488 Y122.818 E26.22847
G1 X141.685 Y122.602 E26.25958
G1 X141.901 Y122.376 E26.29285
G1 X142.218 Y122.059 E26.34057
G1 X142.473 Y121.816 E26.37806
G1 X142.718 Y121.595 E26.41318
G1 X142.945 Y121.382 E26.44631
G1 X143.912 Y120.515 E26.58454
G1 X144.669 Y119.863 E26.69087
G1 X144.785 Y119.765 E26.70703
G1 X145.649 Y119.056 E26.82599
G1 X146.032 Y118.751 E26.8781
G1 X146.517 Y118.374 E26.94348
G1 X146.933 Y118.057 E26.99915
G1 X147.358 Y117.74 E27.05558
G1 X147.951 Y117.31 E27.13354
G1 X148.278 Y117.081 E27.17603
G1 X148.848 Y116.691 E27.24953
G1 X149.59 Y116.199 E27.34429
G1 X150.591 Y115.557 E27.47086
G1 X151.117 Y115.234 E27.53655
G1 X151.48 Y115.018 E27.58151
G1 X151.481 Y112.882 E27.80885
G1 X151.521 Y112.146 E27.8873
G1 X151.641 Y111.418 E27.96583
G1 X151.839 Y110.708 E28.04428
G1 X152.112 Y110.023 E28.12276
G1 X152.458 Y109.372 E28.20123
G1 X152.872 Y108.763 E28.27961
G1 X153.35 Y108.201 E28.35813
G1 X153.886 Y107.695 E28.43658
G1 X154.474 Y107.25 E28.51507
G1 X155.106 Y106.871 E28.5935
G1 X155.776 Y106.562 E28.67203
G1 X156.475 Y106.328 E28.75048
G1 X157.196 Y106.171 E28.82902
G1 X158.28 Y106.084 E28.94476
G1 X164.779 Y106.083 E29.63647
G1 X165.515 Y106.123 E29.71492
G1 X166.243 Y106.242 E29.79343
G1 X166.953 Y106.44 E29.87188
G1 X167.638 Y106.713 E29.95036
G1 X168.289 Y107.058 E30.02878
G1 X168.899 Y107.473 E30.1073
G1 X169.461 Y107.95 E30.18576
G1 X169.967 Y108.486 E30.26421
G1 X170.413 Y109.074 E30.34276
G1 X170.792 Y109.706 E30.42119
G1 X171.101 Y110.375 E30.49962
G1 X171.335 Y111.074 E30.57808
G1 X171.492 Y111.795 E30.65661
G1 X171.58 Y112.883 E30.77279
G1 X171.58 Y120.208 E31.55241
G1 X171.575 Y120.474 E31.58072
G1 X171.563 Y120.781 E31.61342
G1 X171.524 Y121.29 E31.66775
G1 X171.489 Y121.595 E31.70043
G1 X171.407 Y122.124 E31.7574
G1 X171.347 Y122.431 E31.7907
G1 X171.222 Y122.956 E31.84814
G1 X171.141 Y123.246 E31.88018
G1 X170.995 Y123.707 E31.93165
G1 X170.892 Y123.995 E31.9642
G1 X170.685 Y124.507 E32.02298
G1 X170.557 Y124.79 E32.05604
G1 X170.337 Y125.233 E32.10868
G1 X170.192 Y125.5 E32.14102
G1 X169.914 Y125.966 E32.19878
G1 X169.744 Y126.227 E32.23193
G1 X169.456 Y126.635 E32.28508
G1 X169.271 Y126.878 E32.31759
G1 X168.93 Y127.292 E32.37467
G1 X168.727 Y127.519 E32.40708
G1 X168.365 Y127.893 E32.46248
G1 X168.144 Y128.105 E32.49508
G1 X167.745 Y128.459 E32.55185
G1 X167.502 Y128.658 E32.58528
G1 X167.084 Y128.974 E32.64105
G1 X166.836 Y129.147 E32.67323
G1 X166.405 Y129.424 E32.72776
G1 X166.141 Y129.58 E32.7604
G1 X165.678 Y129.83 E32.8164
G1 X165.405 Y129.964 E32.84877
G1 X164.946 Y130.169 E32.90227
G1 X164.66 Y130.284 E32.93508
G1 X164.487 Y130.351 E32.95482
G1 X164.084 Y130.501 E33.00059
G1 X163.633 Y130.685 E33.05243
G1 X163.287 Y130.837 E33.09266
G1 X162.885 Y131.024 E33.13984
G1 X162.464 Y131.233 E33.18987
G1 X162.069 Y131.44 E33.23733
G1 X161.657 Y131.662 E33.28714
G1 X161.262 Y131.888 E33.33558
G1 X160.953 Y132.077 E33.37413
G1 X160.249 Y132.528 E33.46312
G1 X159.717 Y132.882 E33.53113
G1 X159.265 Y133.191 E33.5894
G1 X159.125 Y133.292 E33.60778
G1 X158.631 Y133.659 E33.67328
G1 X158.284 Y133.923 E33.71968
G1 X157.86 Y134.259 E33.77726
G1 X157.402 Y134.634 E33.84026
G1 X157.154 Y134.842 E33.87471
G1 X156.801 Y135.149 E33.9245
G1 X156.455 Y135.457 E33.97381
G1 X156.055 Y135.82 E34.0313
G1 X155.96 Y135.957 E34.04904
G1 X155.204 Y137.08 E34.19312
G1 X154.94 Y137.465 E34.24281
G1 X154.667 Y137.854 E34.29339
G1 X153.985 Y138.68 E34.4074
G1 X153.714 Y138.96 E34.44887
G1 X153.179 Y139.591 E34.53692
G1 X152.706 Y140.169 E34.61641
G1 X152.488 Y140.447 E34.65401
G1 X152.236 Y140.785 E34.69888
