;FLAVOR:Marlin
;TIME:22753
;Filament used: 83.0852m
;Layer height: 0.32
;MINX:70.4
;MINY:109.336
;MINZ:0.32
;MAXX:229.6
;MAXY:190.468
;MAXZ:70.08
;Generated with Cura_SteamEngine master
M140 S90
M105
M190 S90
M104 S240
M105
M109 S240
M82 ;absolute extrusion mode
G28 ;Home
G1 Z15.0 F2000 ;Move the platform
G92 E0
G92 E0
;LAYER_COUNT:219
;LAYER:0
M107 P2
G0 F7500 X74.062 Y110.454 Z0.32
;TYPE:SKIRT
G1 F1500 X74.748 Y110.085 E0.08291
G1 X75.469 Y109.788 E0.1659
G1 X76.217 Y109.566 E0.24894
G1 X76.983 Y109.422 E0.3319
G1 X77.984 Y109.354 E0.43868
G1 X85.94 Y109.337 E1.28546
G1 X88.271 Y109.34 E1.53355
G1 X212.377 Y109.341 E14.74246
G1 X214.087 Y109.336 E14.92446
G1 X222.018 Y109.355 E15.76858
G1 X222.797 Y109.397 E15.85161
G1 X223.567 Y109.518 E15.93457
G1 X224.32 Y109.718 E16.01749
G1 X225.049 Y109.993 E16.10041
G1 X225.746 Y110.342 E16.18338
G1 X226.404 Y110.761 E16.2664
G1 X227.015 Y111.245 E16.34937
G1 X227.574 Y111.788 E16.43231
G1 X228.074 Y112.386 E16.51527
G1 X228.51 Y113.033 E16.59831
G1 X228.877 Y113.72 E16.68121
G1 X229.172 Y114.441 E16.76412
G1 X229.392 Y115.189 E16.8471
G1 X229.534 Y115.956 E16.93013
G1 X229.6 Y116.955 E17.03668
G1 X229.6 Y182.85 E24.05005
G1 X229.56 Y183.628 E24.13296
G1 X229.441 Y184.399 E24.21599
G1 X229.243 Y185.153 E24.29896
G1 X228.969 Y185.882 E24.38185
G1 X228.622 Y186.58 E24.46482
G1 X228.205 Y187.239 E24.54782
G1 X227.722 Y187.851 E24.6308
G1 X227.18 Y188.411 E24.71374
G1 X226.583 Y188.913 E24.79676
G1 X225.938 Y189.35 E24.87968
G1 X225.252 Y189.719 E24.96259
G1 X224.531 Y190.016 E25.04558
G1 X223.783 Y190.238 E25.12863
G1 X223.017 Y190.382 E25.21158
G1 X222.016 Y190.45 E25.31837
G1 X214.06 Y190.467 E26.16514
G1 X211.729 Y190.464 E26.41324
G1 X87.623 Y190.463 E39.62214
G1 X85.913 Y190.468 E39.80414
G1 X77.982 Y190.449 E40.64826
G1 X77.203 Y190.407 E40.73129
G1 X76.433 Y190.286 E40.81425
G1 X75.68 Y190.086 E40.89717
G1 X74.951 Y189.811 E40.9801
G1 X74.254 Y189.462 E41.06306
G1 X73.596 Y189.043 E41.14609
G1 X72.985 Y188.559 E41.22905
G1 X72.426 Y188.016 E41.31199
G1 X71.926 Y187.418 E41.39496
G1 X71.49 Y186.771 E41.47799
G1 X71.123 Y186.084 E41.56089
G1 X70.828 Y185.363 E41.6438
G1 X70.608 Y184.615 E41.72679
G1 X70.466 Y183.848 E41.80981
G1 X70.4 Y182.849 E41.91637
G1 X70.4 Y116.954 E48.92973
G1 X70.44 Y116.176 E49.01265
G1 X70.559 Y115.405 E49.09568
G1 X70.757 Y114.651 E49.17865
G1 X71.031 Y113.922 E49.26154
G1 X71.378 Y113.224 E49.3445
G1 X71.795 Y112.565 E49.4275
G1 X72.278 Y111.953 E49.51048
G1 X72.82 Y111.393 E49.59343
G1 X73.417 Y110.891 E49.67644
G1 X74.062 Y110.454 E49.75937
G0 F7500 X74.191 Y111.321
G1 F1500 X74.824 Y110.941 E49.83795
G1 X75.493 Y110.633 E49.91633
G1 X76.192 Y110.399 E49.99479
G1 X76.913 Y110.241 E50.07335
G1 X77.985 Y110.154 E50.18782
G1 X85.939 Y110.137 E51.03438
G1 X88.27 Y110.14 E51.28248
G1 X212.38 Y110.141 E64.4918
G1 X214.085 Y110.136 E64.67327
G1 X222.016 Y110.155 E65.51739
G1 X222.752 Y110.197 E65.59585
G1 X223.48 Y110.318 E65.6744
G1 X224.19 Y110.517 E65.75288
G1 X224.874 Y110.792 E65.83134
G1 X225.524 Y111.139 E65.90976
G1 X226.133 Y111.555 E65.98826
G1 X226.693 Y112.034 E66.06669
G1 X227.198 Y112.571 E66.14515
G1 X227.642 Y113.16 E66.22365
G1 X228.02 Y113.793 E66.30212
G1 X228.327 Y114.463 E66.38056
G1 X228.56 Y115.163 E66.45908
G1 X228.715 Y115.884 E66.53757
G1 X228.8 Y116.955 E66.65192
G1 X228.8 Y182.85 E73.66529
G1 X228.76 Y183.586 E73.74374
G1 X228.641 Y184.314 E73.82225
G1 X228.443 Y185.024 E73.9007
G1 X228.17 Y185.709 E73.97918
G1 X227.824 Y186.36 E74.05765
G1 X227.41 Y186.97 E74.13611
G1 X226.932 Y187.531 E74.21455
G1 X226.396 Y188.038 E74.29308
G1 X225.809 Y188.483 E74.37148
G1 X225.176 Y188.863 E74.45006
G1 X224.507 Y189.171 E74.52845
G1 X223.808 Y189.405 E74.6069
G1 X223.087 Y189.563 E74.68546
G1 X222.015 Y189.65 E74.79993
G1 X214.061 Y189.667 E75.64649
G1 X211.73 Y189.664 E75.89459
G1 X87.62 Y189.663 E89.10392
G1 X85.915 Y189.668 E89.28539
G1 X77.984 Y189.649 E90.1295
G1 X77.248 Y189.607 E90.20797
G1 X76.52 Y189.486 E90.28651
G1 X75.81 Y189.287 E90.36499
G1 X75.126 Y189.012 E90.44345
G1 X74.476 Y188.665 E90.52188
G1 X73.867 Y188.249 E90.60037
G1 X73.307 Y187.77 E90.6788
G1 X72.802 Y187.233 E90.75726
G1 X72.358 Y186.644 E90.83577
G1 X71.98 Y186.011 E90.91423
G1 X71.673 Y185.341 E90.99267
G1 X71.44 Y184.641 E91.0712
G1 X71.285 Y183.92 E91.14969
G1 X71.2 Y182.849 E91.26403
G1 X71.2 Y116.954 E98.2774
G1 X71.24 Y116.218 E98.35585
G1 X71.359 Y115.49 E98.43436
G1 X71.557 Y114.78 E98.51281
G1 X71.83 Y114.095 E98.59129
G1 X72.176 Y113.444 E98.66976
G1 X72.59 Y112.834 E98.74822
G1 X73.068 Y112.273 E98.82667
G1 X73.604 Y111.766 E98.90519
G1 X74.191 Y111.321 E98.98359
G0 F7500 X74.959 Y111.781
G1 F1500 X75.576 Y111.466 E99.05732
G1 X76.224 Y111.223 E99.13098
G1 X76.897 Y111.056 E99.20478
G1 X77.583 Y110.968 E99.27839
G1 X77.987 Y110.954 E99.32142
G1 X85.938 Y110.937 E100.16766
G1 X88.269 Y110.94 E100.41576
G1 X212.382 Y110.941 E113.62541
G1 X214.083 Y110.936 E113.80645
G1 X222.014 Y110.955 E114.65057
G1 X222.706 Y110.997 E114.72435
G1 X223.388 Y111.118 E114.79808
G1 X224.051 Y111.316 E114.87172
G1 X224.687 Y111.59 E114.94543
G1 X225.287 Y111.936 E115.01914
G1 X225.844 Y112.348 E115.09288
G1 X226.349 Y112.821 E115.16652
G1 X226.796 Y113.35 E115.24023
G1 X227.18 Y113.927 E115.314
G1 X227.494 Y114.544 E115.38769
G1 X227.735 Y115.193 E115.46137
G1 X227.9 Y115.866 E115.53512
G1 X227.987 Y116.553 E115.60882
G1 X228 Y116.955 E115.65163
G1 X228 Y182.85 E122.665
G1 X227.96 Y183.541 E122.73866
G1 X227.841 Y184.224 E122.81245
G1 X227.643 Y184.887 E122.8861
G1 X227.371 Y185.524 E122.95982
G1 X227.027 Y186.125 E123.03352
G1 X226.616 Y186.683 E123.10728
G1 X226.144 Y187.189 E123.18093
G1 X225.616 Y187.638 E123.2547
G1 X225.041 Y188.023 E123.32835
G1 X224.424 Y188.338 E123.40208
G1 X223.776 Y188.581 E123.47574
G1 X223.103 Y188.748 E123.54954
G1 X222.417 Y188.836 E123.62315
G1 X222.013 Y188.85 E123.66617
G1 X214.062 Y188.867 E124.51242
G1 X211.731 Y188.864 E124.76051
G1 X87.618 Y188.863 E137.97016
G1 X85.917 Y188.868 E138.1512
G1 X77.986 Y188.849 E138.99532
G1 X77.294 Y188.807 E139.06911
G1 X76.612 Y188.686 E139.14283
G1 X75.949 Y188.488 E139.21647
G1 X75.313 Y188.214 E139.29018
G1 X74.713 Y187.868 E139.3639
G1 X74.156 Y187.456 E139.43763
G1 X73.651 Y186.983 E139.51128
G1 X73.204 Y186.454 E139.58499
G1 X72.82 Y185.877 E139.65876
G1 X72.506 Y185.26 E139.73244
G1 X72.265 Y184.611 E139.80612
G1 X72.1 Y183.938 E139.87987
G1 X72.013 Y183.251 E139.95358
G1 X72 Y182.849 E139.99639
G1 X72 Y116.954 E147.00975
G1 X72.04 Y116.263 E147.08342
G1 X72.159 Y115.58 E147.15721
G1 X72.357 Y114.917 E147.23085
G1 X72.629 Y114.28 E147.30457
G1 X72.973 Y113.679 E147.37827
G1 X73.384 Y113.121 E147.45203
G1 X73.856 Y112.615 E147.52568
G1 X74.384 Y112.166 E147.59945
G1 X74.959 Y111.781 E147.6731
G0 F7500 X75.157 Y112.6
G1 F1500 X75.718 Y112.281 E147.74179
G1 X76.314 Y112.035 E147.81041
G1 X76.935 Y111.864 E147.87897
G1 X77.573 Y111.772 E147.94757
G1 X77.989 Y111.754 E147.99189
G1 X85.937 Y111.737 E148.83782
G1 X88.268 Y111.74 E149.08591
G1 X212.384 Y111.741 E162.29588
G1 X214.081 Y111.736 E162.4765
G1 X222.012 Y111.755 E163.32061
G1 X222.656 Y111.797 E163.3893
G1 X223.289 Y111.917 E163.45787
G1 X223.902 Y112.116 E163.52647
G1 X224.487 Y112.388 E163.59513
G1 X225.033 Y112.731 E163.66376
G1 X225.532 Y113.139 E163.73236
G1 X225.977 Y113.605 E163.80094
G1 X226.361 Y114.123 E163.86957
G1 X226.678 Y114.684 E163.93815
G1 X226.923 Y115.281 E164.00683
G1 X227.092 Y115.903 E164.07544
G1 X227.183 Y116.541 E164.14403
G1 X227.2 Y116.955 E164.18813
G1 X227.2 Y182.85 E171.20149
G1 X227.16 Y183.493 E171.27006
G1 X227.041 Y184.127 E171.33872
G1 X226.844 Y184.741 E171.40735
G1 X226.573 Y185.326 E171.47597
G1 X226.231 Y185.873 E171.54463
G1 X225.825 Y186.373 E171.61318
G1 X225.36 Y186.819 E171.68175
G1 X224.843 Y187.204 E171.75036
G1 X224.282 Y187.523 E171.81905
G1 X223.686 Y187.769 E171.88767
G1 X223.065 Y187.94 E171.95623
G1 X222.427 Y188.032 E172.02483
G1 X222.011 Y188.05 E172.06915
G1 X214.063 Y188.067 E172.91508
G1 X211.732 Y188.064 E173.16317
G1 X87.616 Y188.063 E186.37314
G1 X85.919 Y188.068 E186.55376
G1 X77.988 Y188.049 E187.39787
G1 X77.344 Y188.007 E187.46656
G1 X76.711 Y187.887 E187.53513
G1 X76.098 Y187.688 E187.60373
G1 X75.513 Y187.416 E187.67239
G1 X74.967 Y187.073 E187.74102
G1 X74.468 Y186.665 E187.80962
G1 X74.023 Y186.199 E187.8782
G1 X73.639 Y185.681 E187.94683
G1 X73.322 Y185.12 E188.01541
G1 X73.077 Y184.523 E188.0841
G1 X72.908 Y183.901 E188.1527
G1 X72.817 Y183.263 E188.22129
G1 X72.8 Y182.849 E188.26539
G1 X72.8 Y116.954 E195.27875
G1 X72.84 Y116.311 E195.34732
G1 X72.959 Y115.677 E195.41598
G1 X73.156 Y115.063 E195.48461
G1 X73.427 Y114.478 E195.55323
G1 X73.769 Y113.931 E195.62189
G1 X74.175 Y113.431 E195.69044
G1 X74.64 Y112.985 E195.75902
G1 X75.157 Y112.6 E195.82762
G0 F7500 X75.922 Y113.076
G1 F1500 X76.462 Y112.831 E195.89073
G1 X77.031 Y112.662 E195.95391
G1 X77.616 Y112.571 E196.01692
G1 X77.991 Y112.554 E196.05687
G1 X85.936 Y112.537 E196.90248
G1 X88.267 Y112.54 E197.15058
G1 X212.387 Y112.541 E210.36097
G1 X214.08 Y112.536 E210.54116
G1 X222.011 Y112.555 E211.38528
G1 X222.602 Y112.596 E211.44833
G1 X223.183 Y112.717 E211.5115
G1 X223.742 Y112.914 E211.57458
G1 X224.269 Y113.185 E211.63765
G1 X224.755 Y113.525 E211.70078
G1 X225.192 Y113.926 E211.7639
G1 X225.57 Y114.383 E211.82702
G1 X225.883 Y114.886 E211.89008
G1 X226.126 Y115.427 E211.9532
G1 X226.294 Y115.996 E212.01634
G1 X226.384 Y116.582 E212.07944
G1 X226.4 Y116.955 E212.11918
G1 X226.4 Y182.85 E219.13255
G1 X226.36 Y183.442 E219.1957
G1 X226.241 Y184.022 E219.25871
G1 X226.045 Y184.582 E219.32186
G1 X225.775 Y185.11 E219.38498
G1 X225.437 Y185.597 E219.44807
G1 X225.036 Y186.034 E219.5112
G1 X224.581 Y186.414 E219.57429
G1 X224.078 Y186.728 E219.6374
G1 X223.538 Y186.973 E219.70051
G1 X222.969 Y187.142 E219.76369
G1 X222.384 Y187.233 E219.8267
G1 X222.009 Y187.25 E219.86665
G1 X214.064 Y187.267 E220.71226
G1 X211.733 Y187.264 E220.96036
G1 X87.613 Y187.263 E234.17075
G1 X85.92 Y187.268 E234.35094
G1 X77.989 Y187.249 E235.19506
G1 X77.398 Y187.208 E235.25811
G1 X76.817 Y187.087 E235.32128
G1 X76.258 Y186.89 E235.38436
G1 X75.731 Y186.619 E235.44743
G1 X75.245 Y186.279 E235.51056
G1 X74.808 Y185.878 E235.57368
G1 X74.43 Y185.421 E235.6368
G1 X74.117 Y184.918 E235.69986
G1 X73.874 Y184.377 E235.76298
G1 X73.706 Y183.808 E235.82612
G1 X73.616 Y183.222 E235.88923
G1 X73.6 Y182.849 E235.92896
G1 X73.6 Y116.954 E242.94233
G1 X73.64 Y116.362 E243.00548
G1 X73.759 Y115.782 E243.06849
G1 X73.955 Y115.222 E243.13164
G1 X74.225 Y114.694 E243.19476
G1 X74.563 Y114.207 E243.25785
G1 X74.964 Y113.77 E243.32098
G1 X75.419 Y113.39 E243.38407
G1 X75.922 Y113.076 E243.44718
G0 F7500 X76.189 Y113.843
G1 F1500 X76.672 Y113.608 E243.50435
G1 X77.183 Y113.448 E243.56134
G1 X77.713 Y113.365 E243.61844
G1 X77.992 Y113.354 E243.64816
G1 X85.935 Y113.337 E244.49355
G1 X88.266 Y113.34 E244.74165
G1 X212.389 Y113.341 E257.95236
G1 X214.078 Y113.336 E258.13212
G1 X222.009 Y113.355 E258.97624
G1 X222.543 Y113.396 E259.03324
G1 X223.066 Y113.516 E259.09035
G1 X223.565 Y113.713 E259.14745
G1 X224.029 Y113.981 E259.20448
G1 X224.448 Y114.316 E259.26158
G1 X224.813 Y114.709 E259.31867
G1 X225.116 Y115.152 E259.37579
G1 X225.349 Y115.635 E259.43286
G1 X225.508 Y116.147 E259.48992
G1 X225.589 Y116.677 E259.54699
G1 X225.6 Y116.955 E259.5766
G1 X225.6 Y182.85 E266.58997
G1 X225.56 Y183.385 E266.64707
G1 X225.441 Y183.908 E266.70415
G1 X225.246 Y184.407 E266.76117
G1 X224.978 Y184.872 E266.8183
G1 X224.645 Y185.292 E266.87534
G1 X224.253 Y185.658 E266.93242
G1 X223.811 Y185.961 E266.98946
G1 X223.328 Y186.196 E267.04663
G1 X222.817 Y186.356 E267.10362
G1 X222.287 Y186.439 E267.16071
G1 X222.008 Y186.45 E267.19043
G1 X214.065 Y186.467 E268.03583
G1 X211.734 Y186.464 E268.28392
G1 X87.611 Y186.463 E281.49463
G1 X85.922 Y186.468 E281.6744
G1 X77.991 Y186.449 E282.51852
G1 X77.457 Y186.408 E282.57552
G1 X76.934 Y186.288 E282.63263
G1 X76.435 Y186.091 E282.68973
G1 X75.971 Y185.823 E282.74676
G1 X75.552 Y185.488 E282.80386
G1 X75.187 Y185.095 E282.86094
G1 X74.884 Y184.652 E282.91806
G1 X74.651 Y184.169 E282.97514
G1 X74.492 Y183.657 E283.0322
G1 X74.411 Y183.127 E283.08926
G1 X74.4 Y182.849 E283.11888
G1 X74.4 Y116.954 E290.13224
G1 X74.44 Y116.419 E290.18934
G1 X74.559 Y115.896 E290.24643
G1 X74.754 Y115.397 E290.30345
G1 X75.022 Y114.932 E290.36057
G1 X75.355 Y114.512 E290.41762
G1 X75.747 Y114.146 E290.4747
G1 X76.189 Y113.843 E290.53173
G0 F7500 X76.521 Y114.576
G1 F1500 X76.943 Y114.361 E290.58214
G1 X77.394 Y114.22 E290.63243
G1 X77.994 Y114.154 E290.69668
G1 X85.934 Y114.137 E291.54175
G1 X88.265 Y114.14 E291.78985
G1 X212.392 Y114.141 E305.00099
G1 X214.076 Y114.136 E305.18022
G1 X222.007 Y114.155 E306.02434
G1 X222.478 Y114.196 E306.07466
G1 X222.935 Y114.316 E306.12495
G1 X223.366 Y114.511 E306.1753
G1 X223.758 Y114.776 E306.22566
G1 X224.1 Y115.102 E306.27594
G1 X224.381 Y115.482 E306.32624
G1 X224.595 Y115.904 E306.3766
G1 X224.735 Y116.356 E306.42697
G1 X224.8 Y116.955 E306.49109
G1 X224.8 Y182.85 E313.50446
G1 X224.76 Y183.321 E313.55477
G1 X224.641 Y183.779 E313.60513
G1 X224.447 Y184.21 E313.65544
G1 X224.184 Y184.603 E313.70577
G1 X223.858 Y184.945 E313.75606
G1 X223.479 Y185.228 E313.8064
G1 X223.057 Y185.443 E313.85681
G1 X222.606 Y185.584 E313.9071
G1 X222.006 Y185.65 E313.97134
G1 X214.066 Y185.667 E314.81642
G1 X211.735 Y185.664 E315.06451
G1 X87.608 Y185.663 E328.27565
G1 X85.924 Y185.668 E328.45488
G1 X77.993 Y185.649 E329.299
G1 X77.522 Y185.608 E329.34932
G1 X77.065 Y185.488 E329.39961
G1 X76.634 Y185.293 E329.44996
G1 X76.242 Y185.028 E329.50032
G1 X75.9 Y184.702 E329.55061
G1 X75.619 Y184.322 E329.60091
G1 X75.405 Y183.9 E329.65127
G1 X75.265 Y183.448 E329.70163
G1 X75.2 Y182.849 E329.76576
G1 X75.2 Y116.954 E336.77912
G1 X75.24 Y116.483 E336.82943
G1 X75.359 Y116.025 E336.8798
G1 X75.553 Y115.594 E336.9301
G1 X75.816 Y115.201 E336.98043
G1 X76.142 Y114.859 E337.03072
G1 X76.521 Y114.576 E337.08106
G0 F7500 X76.92 Y115.271
G1 F1500 X77.276 Y115.09 E337.12357
G1 X77.661 Y114.983 E337.1661
G1 X77.996 Y114.954 E337.20189
G1 X85.933 Y114.937 E338.04664
G1 X88.264 Y114.94 E338.29474
G1 X212.394 Y114.941 E351.50619
G1 X214.074 Y114.936 E351.685
G1 X222.005 Y114.955 E352.52912
G1 X222.402 Y114.996 E352.5716
G1 X222.784 Y115.115 E352.61418
G1 X223.134 Y115.307 E352.65667
G1 X223.439 Y115.566 E352.69926
G1 X223.686 Y115.879 E352.74169
G1 X223.866 Y116.236 E352.78425
G1 X223.972 Y116.621 E352.82675
G1 X224 Y116.955 E352.86242
G1 X224 Y182.85 E359.87579
G1 X223.96 Y183.248 E359.91836
G1 X223.842 Y183.629 E359.96081
G1 X223.65 Y183.98 E360.00339
G1 X223.393 Y184.285 E360.04584
G1 X223.08 Y184.533 E360.08835
G1 X222.724 Y184.714 E360.13085
G1 X222.339 Y184.821 E360.17338
G1 X222.004 Y184.85 E360.20917
G1 X214.067 Y184.867 E361.05393
G1 X211.736 Y184.864 E361.30202
G1 X87.606 Y184.863 E374.51348
G1 X85.926 Y184.868 E374.69228
G1 X77.995 Y184.849 E375.5364
G1 X77.598 Y184.808 E375.57888
G1 X77.216 Y184.689 E375.62147
G1 X76.866 Y184.497 E375.66395
G1 X76.561 Y184.238 E375.70654
G1 X76.314 Y183.925 E375.74898
G1 X76.134 Y183.568 E375.79153
G1 X76.028 Y183.183 E375.83403
G1 X76 Y182.849 E375.8697
G1 X76 Y116.954 E382.88307
G1 X76.04 Y116.556 E382.92564
G1 X76.158 Y116.175 E382.96809
G1 X76.35 Y115.824 E383.01068
G1 X76.607 Y115.519 E383.05313
G1 X76.92 Y115.271 E383.09563
G0 F7500 X77.386 Y115.923
G1 F1500 X77.67 Y115.8 E383.12857
G1 X77.997 Y115.754 E383.16371
G1 X85.932 Y115.737 E384.00826
G1 X88.263 Y115.74 E384.25635
G1 X212.396 Y115.741 E397.46813
G1 X214.072 Y115.736 E397.64651
G1 X222.003 Y115.755 E398.49063
G1 X222.309 Y115.796 E398.52349
G1 X222.595 Y115.913 E398.55638
G1 X222.842 Y116.1 E398.58935
G1 X223.032 Y116.343 E398.62218
G1 X223.154 Y116.627 E398.65508
G1 X223.2 Y116.955 E398.69033
G1 X223.2 Y182.85 E405.70369
G1 X223.16 Y183.157 E405.73665
G1 X223.043 Y183.443 E405.76953
G1 X222.857 Y183.69 E405.80244
G1 X222.614 Y183.881 E405.83534
G1 X222.33 Y184.004 E405.86828
G1 X222.003 Y184.05 E405.90342
