;FLAVOR:Marlin
;TIME:11981
;Filament used: 39.0078m
;Layer height: 0.32
;MINX:119.435
;MINY:82.935
;MINZ:0.32
;MAXX:180.565
;MAXY:217.064
;MAXZ:30.08
;Generated with Cura_SteamEngine master
M140 S90
M105
M190 S90
M104 S240
M105
M109 S240
M82 ;absolute extrusion mode
G28 ;Home
G1 Z15.0 F2000 ;Move the platform
G92 E0
G92 E0
;LAYER_COUNT:94
;LAYER:0
M107 P2
G0 F7500 X120.827 Y86.86 Z0.32
;TYPE:SKIRT
G1 F1500 X121.213 Y86.329 E0.06987
G1 X121.472 Y86.004 E0.1141
G1 X121.989 Y85.421 E0.19704
G1 X122.562 Y84.893 E0.27996
G1 X123.319 Y84.34 E0.37974
G1 X123.394 Y84.292 E0.38922
G1 X124.071 Y83.906 E0.47216
G1 X125.088 Y83.483 E0.58939
G1 X125.553 Y83.328 E0.64156
G1 X126.304 Y83.12 E0.7245
G1 X127.072 Y82.99 E0.80741
G1 X127.85 Y82.939 E0.89039
G1 X128.177 Y82.951 E0.92521
G1 X132.262 Y82.935 E1.35999
G1 X132.882 Y82.939 E1.42598
G1 X164.144 Y82.939 E4.75327
G1 X165.189 Y82.936 E4.8645
G1 X172.018 Y82.952 E5.59133
G1 X172.519 Y82.97 E5.64468
G1 X172.782 Y82.988 E5.67274
G1 X173.556 Y83.081 E5.75571
G1 X174.316 Y83.253 E5.83865
G1 X175.293 Y83.6 E5.94899
G1 X175.835 Y83.86 E6.01297
G1 X176.102 Y84.001 E6.04511
G1 X176.772 Y84.399 E6.12805
G1 X177.397 Y84.865 E6.21103
G1 X177.903 Y85.323 E6.28367
G1 X178.13 Y85.548 E6.31769
G1 X178.655 Y86.125 E6.40071
G1 X179.118 Y86.752 E6.48367
G1 X179.545 Y87.483 E6.57377
G1 X179.695 Y87.776 E6.60881
G1 X180.014 Y88.487 E6.69175
G1 X180.259 Y89.227 E6.77471
G1 X180.426 Y89.988 E6.85763
G1 X180.514 Y90.743 E6.93853
G1 X180.531 Y91.003 E6.96627
G1 X180.547 Y91.48 E7.01706
G1 X180.565 Y98.905 E7.80733
G1 X180.561 Y99.991 E7.92291
G1 X180.561 Y193.062 E17.82868
G1 X180.564 Y194.163 E17.94587
G1 X180.548 Y201.541 E18.73113
G1 X180.512 Y202.204 E18.8018
G1 X180.547 Y202.724 E18.85727
G1 X180.548 Y208.499 E19.47191
G1 X180.542 Y208.499 E19.47255
G1 X180.532 Y209.081 E19.53451
G1 X180.439 Y209.855 E19.61748
G1 X180.258 Y210.644 E19.70363
G1 X180.151 Y211.019 E19.74514
G1 X179.899 Y211.757 E19.82814
G1 X179.573 Y212.465 E19.9111
G1 X179.176 Y213.136 E19.99408
G1 X178.787 Y213.671 E20.06448
G1 X178.528 Y213.996 E20.10871
G1 X178.011 Y214.579 E20.19164
G1 X177.438 Y215.107 E20.27457
G1 X176.681 Y215.66 E20.37435
G1 X176.606 Y215.708 E20.38383
G1 X175.929 Y216.094 E20.46677
G1 X174.912 Y216.517 E20.584
G1 X174.447 Y216.672 E20.63617
G1 X173.696 Y216.88 E20.71911
G1 X172.928 Y217.01 E20.80201
G1 X172.15 Y217.061 E20.885
G1 X171.813 Y217.048 E20.92089
G1 X164.722 Y217.064 E21.6756
G1 X163.099 Y217.061 E21.84835
G1 X150.001 Y217.062 E23.2424
G1 X149.671 Y217.055 E23.27753
G1 X149.394 Y217.043 E23.30704
G1 X149.134 Y217.027 E23.33476
G1 X148.581 Y216.984 E23.3938
G1 X148.038 Y216.922 E23.45197
G1 X147.487 Y216.839 E23.51127
G1 X146.886 Y216.724 E23.5764
G1 X146.348 Y216.598 E23.63521
G1 X145.822 Y216.454 E23.69325
G1 X145.292 Y216.289 E23.75233
G1 X144.738 Y216.093 E23.81488
G1 X144.221 Y215.887 E23.87411
G1 X143.707 Y215.66 E23.93391
G1 X143.21 Y215.418 E23.99275
G1 X142.697 Y215.144 E24.05465
G1 X142.217 Y214.863 E24.11384
G1 X141.725 Y214.548 E24.17602
G1 X141.271 Y214.233 E24.23483
G1 X140.82 Y213.895 E24.29482
G1 X140.389 Y213.546 E24.35384
G1 X140.07 Y213.278 E24.39819
G1 X139.788 Y213.025 E24.43851
G1 X127.136 Y201.137 E26.28626
G1 X126.467 Y200.512 E26.38371
G1 X122.131 Y196.418 E27.0184
G1 X121.593 Y195.855 E27.10128
G1 X121.184 Y195.337 E27.17153
G1 X120.915 Y194.957 E27.22108
G1 X120.84 Y194.846 E27.23534
G1 X120.437 Y194.179 E27.31828
G1 X120.105 Y193.473 E27.40132
G1 X119.788 Y192.529 E27.5073
G1 X119.735 Y192.328 E27.52943
G1 X119.587 Y191.639 E27.60443
G1 X119.556 Y191.453 E27.6245
G1 X119.468 Y190.679 E27.70741
G1 X119.453 Y190.223 E27.75597
G1 X119.435 Y183.003 E28.52441
G1 X119.439 Y181.948 E28.6367
G1 X119.439 Y99.725 E37.38789
G1 X119.436 Y98.654 E37.50188
G1 X119.452 Y91.483 E38.26511
G1 X119.458 Y91.483 E38.26575
G1 X119.468 Y90.914 E38.32632
G1 X119.562 Y90.14 E38.4093
G1 X119.743 Y89.35 E38.49557
G1 X119.85 Y88.976 E38.53697
G1 X120.103 Y88.238 E38.62
G1 X120.429 Y87.53 E38.70296
G1 X120.827 Y86.86 E38.7859
G0 F7500 X121.56 Y87.204
G1 F1500 X121.839 Y86.828 E38.83574
G1 X122.098 Y86.503 E38.87997
G1 X122.588 Y85.952 E38.95845
G1 X123.135 Y85.458 E39.03689
G1 X123.75 Y85.014 E39.11762
G1 X123.825 Y84.966 E39.1271
G1 X124.467 Y84.602 E39.20565
G1 X125.341 Y84.242 E39.30625
G1 X125.806 Y84.087 E39.35842
G1 X126.517 Y83.892 E39.43689
G1 X127.245 Y83.775 E39.51537
G1 X127.981 Y83.738 E39.5938
G1 X128.205 Y83.751 E39.61768
G1 X132.257 Y83.735 E40.04895
G1 X132.877 Y83.739 E40.11494
G1 X164.147 Y83.739 E43.44308
G1 X165.187 Y83.736 E43.55377
G1 X172.016 Y83.752 E44.2806
G1 X172.464 Y83.768 E44.32831
G1 X172.727 Y83.786 E44.35637
G1 X173.459 Y83.876 E44.43486
G1 X174.177 Y84.045 E44.51337
G1 X174.974 Y84.334 E44.6036
G1 X175.461 Y84.567 E44.66106
G1 X175.728 Y84.708 E44.6932
G1 X176.361 Y85.087 E44.77172
G1 X176.948 Y85.532 E44.85012
G1 X177.34 Y85.891 E44.9067
G1 X177.567 Y86.116 E44.94071
G1 X178.062 Y86.663 E45.01923
G1 X178.494 Y87.26 E45.09766
G1 X178.833 Y87.847 E45.16981
G1 X178.983 Y88.14 E45.20484
G1 X179.283 Y88.814 E45.28336
G1 X179.508 Y89.516 E45.36182
G1 X179.656 Y90.238 E45.44026
G1 X179.716 Y90.795 E45.49989
G1 X179.733 Y91.055 E45.52762
G1 X179.747 Y91.482 E45.57309
G1 X179.765 Y98.902 E46.36282
G1 X179.761 Y99.988 E46.47841
G1 X179.761 Y193.062 E56.3845
G1 X179.764 Y194.162 E56.50158
G1 X179.748 Y201.54 E57.28684
G1 X179.708 Y202.233 E57.36072
G1 X179.747 Y202.724 E57.41314
G1 X179.748 Y208.499 E58.02779
G1 X179.743 Y208.499 E58.02832
G1 X179.731 Y209.066 E58.08868
G1 X179.636 Y209.797 E58.16714
G1 X179.489 Y210.425 E58.23578
G1 X179.382 Y210.8 E58.27729
G1 X179.142 Y211.497 E58.35575
G1 X178.827 Y212.164 E58.43426
G1 X178.442 Y212.793 E58.51275
G1 X178.161 Y213.172 E58.56296
G1 X177.902 Y213.497 E58.60719
G1 X177.412 Y214.048 E58.68567
G1 X176.865 Y214.542 E58.76412
G1 X176.25 Y214.986 E58.84485
G1 X176.175 Y215.034 E58.85433
G1 X175.533 Y215.398 E58.93288
G1 X174.659 Y215.758 E59.03348
G1 X174.194 Y215.913 E59.08565
G1 X173.483 Y216.108 E59.16412
G1 X172.755 Y216.225 E59.24259
G1 X172.019 Y216.262 E59.32103
G1 X171.788 Y216.249 E59.34565
G1 X164.723 Y216.264 E60.0976
G1 X163.1 Y216.261 E60.27034
G1 X150.001 Y216.262 E61.6645
G1 X149.706 Y216.256 E61.6959
G1 X149.429 Y216.244 E61.72541
G1 X149.196 Y216.23 E61.75025
G1 X148.643 Y216.187 E61.80929
G1 X148.157 Y216.131 E61.86136
G1 X147.606 Y216.048 E61.92066
G1 X147.068 Y215.945 E61.97896
G1 X146.53 Y215.819 E62.03777
G1 X146.06 Y215.691 E62.08962
G1 X145.53 Y215.526 E62.1487
G1 X145.034 Y215.35 E62.20471
G1 X144.517 Y215.144 E62.26395
G1 X144.057 Y214.941 E62.31746
G1 X143.56 Y214.699 E62.3763
G1 X143.102 Y214.453 E62.43163
G1 X142.622 Y214.172 E62.49083
G1 X142.181 Y213.891 E62.54648
G1 X141.727 Y213.576 E62.60529
G1 X141.324 Y213.274 E62.65889
G1 X140.893 Y212.925 E62.71792
G1 X140.588 Y212.668 E62.76037
G1 X140.335 Y212.442 E62.79647
G1 X127.682 Y200.553 E64.64438
G1 X127.017 Y199.93 E64.74136
G1 X122.681 Y195.836 E65.37606
G1 X122.173 Y195.302 E65.4545
G1 X121.833 Y194.869 E65.5131
G1 X121.578 Y194.509 E65.56005
G1 X121.503 Y194.398 E65.57431
G1 X121.124 Y193.766 E65.65274
G1 X120.815 Y193.096 E65.73127
G1 X120.562 Y192.325 E65.81764
G1 X120.509 Y192.124 E65.83976
G1 X120.377 Y191.508 E65.90681
G1 X120.346 Y191.322 E65.92688
G1 X120.253 Y190.221 E66.04448
G1 X120.235 Y183.006 E66.81239
G1 X120.239 Y181.951 E66.92468
G1 X120.239 Y99.725 E75.67619
G1 X120.236 Y98.656 E75.78997
G1 X120.252 Y91.485 E76.5532
G1 X120.258 Y91.485 E76.55384
G1 X120.269 Y90.929 E76.61302
G1 X120.364 Y90.198 E76.69148
G1 X120.512 Y89.57 E76.76015
G1 X120.619 Y89.196 E76.80155
G1 X120.86 Y88.499 E76.88005
G1 X121.175 Y87.832 E76.95856
G1 X121.56 Y87.204 E77.03696
G0 F7500 X121.919 Y88.139
G1 F1500 X122.465 Y87.327 E77.1411
G1 X122.724 Y87.002 E77.18533
G1 X123.186 Y86.486 E77.25905
G1 X123.704 Y86.027 E77.33271
G1 X124.182 Y85.687 E77.39514
G1 X124.257 Y85.639 E77.40462
G1 X124.861 Y85.3 E77.47834
G1 X125.594 Y85.001 E77.56259
G1 X126.059 Y84.846 E77.61476
G1 X126.727 Y84.665 E77.68842
G1 X127.412 Y84.563 E77.76213
G1 X128.104 Y84.54 E77.83582
G1 X128.237 Y84.551 E77.85003
G1 X132.252 Y84.535 E78.27736
G1 X132.872 Y84.539 E78.34335
G1 X164.149 Y84.539 E81.67223
G1 X165.185 Y84.536 E81.7825
G1 X172.014 Y84.552 E82.50933
G1 X172.41 Y84.566 E82.5515
G1 X172.673 Y84.584 E82.57956
G1 X173.36 Y84.671 E82.65326
G1 X174.032 Y84.837 E82.72693
G1 X174.678 Y85.078 E82.80032
G1 X175.088 Y85.274 E82.84868
G1 X175.355 Y85.415 E82.88082
G1 X175.948 Y85.774 E82.9546
G1 X176.495 Y86.198 E83.02826
G1 X176.777 Y86.46 E83.06923
G1 X177.004 Y86.685 E83.10325
G1 X177.467 Y87.2 E83.17695
G1 X177.867 Y87.765 E83.25063
G1 X178.121 Y88.212 E83.30535
G1 X178.271 Y88.505 E83.34039
G1 X178.55 Y89.138 E83.41401
G1 X178.755 Y89.8 E83.48777
G1 X178.882 Y90.481 E83.5615
G1 X178.917 Y90.848 E83.60074
G1 X178.934 Y91.108 E83.62847
G1 X178.947 Y91.484 E83.66851
G1 X178.965 Y98.899 E84.45771
G1 X178.961 Y99.985 E84.5733
G1 X178.961 Y193.062 E94.47971
G1 X178.964 Y194.16 E94.59657
G1 X178.948 Y201.538 E95.38183
G1 X178.912 Y202.141 E95.44613
G1 X178.933 Y202.308 E95.46404
G1 X178.947 Y202.724 E95.50834
G1 X178.948 Y208.499 E96.12299
G1 X178.943 Y208.499 E96.12352
G1 X178.93 Y209.048 E96.18197
G1 X178.834 Y209.734 E96.25569
G1 X178.72 Y210.205 E96.30727
G1 X178.613 Y210.58 E96.34878
G1 X178.385 Y211.234 E96.42249
G1 X178.083 Y211.857 E96.49618
G1 X177.535 Y212.673 E96.60079
G1 X177.276 Y212.998 E96.64503
G1 X176.814 Y213.514 E96.71874
G1 X176.296 Y213.973 E96.7924
G1 X175.818 Y214.313 E96.85483
G1 X175.743 Y214.361 E96.86431
G1 X175.139 Y214.7 E96.93803
G1 X174.406 Y214.999 E97.02229
G1 X173.941 Y215.154 E97.07445
G1 X173.273 Y215.335 E97.14811
G1 X172.588 Y215.437 E97.22182
G1 X171.896 Y215.46 E97.29552
G1 X171.758 Y215.449 E97.31025
G1 X164.725 Y215.464 E98.05879
G1 X163.101 Y215.461 E98.23164
G1 X150 Y215.462 E99.62601
G1 X149.74 Y215.456 E99.65369
G1 X149.463 Y215.444 E99.6832
G1 X149.258 Y215.432 E99.70506
G1 X148.705 Y215.389 E99.76409
G1 X148.276 Y215.34 E99.81005
G1 X147.725 Y215.257 E99.86935
G1 X147.251 Y215.166 E99.92072
G1 X146.713 Y215.04 E99.97953
G1 X146.298 Y214.927 E100.02531
G1 X145.768 Y214.762 E100.08439
G1 X145.33 Y214.607 E100.13384
G1 X144.813 Y214.401 E100.19307
G1 X144.407 Y214.221 E100.24034
G1 X143.91 Y213.979 E100.29918
G1 X143.506 Y213.763 E100.34793
G1 X143.026 Y213.482 E100.40713
G1 X142.637 Y213.234 E100.45623
G1 X142.183 Y212.919 E100.51504
G1 X141.827 Y212.652 E100.56241
G1 X141.286 Y212.212 E100.63663
G1 X141.106 Y212.059 E100.66177
G1 X140.883 Y211.859 E100.69365
G1 X128.216 Y199.956 E102.54366
G1 X127.566 Y199.349 E102.63832
G1 X123.23 Y195.255 E103.27301
G1 X122.755 Y194.751 E103.34672
G1 X122.482 Y194.401 E103.39397
G1 X122.24 Y194.061 E103.43838
G1 X122.165 Y193.95 E103.45264
G1 X121.812 Y193.355 E103.52628
G1 X121.528 Y192.723 E103.60002
G1 X121.335 Y192.121 E103.6673
G1 X121.282 Y191.92 E103.68943
G1 X121.166 Y191.376 E103.74863
G1 X121.135 Y191.19 E103.7687
G1 X121.053 Y190.219 E103.87241
G1 X121.035 Y183.009 E104.63979
G1 X121.039 Y181.954 E104.75208
G1 X121.039 Y99.725 E113.50391
G1 X121.036 Y98.658 E113.61748
G1 X121.052 Y91.487 E114.38071
G1 X121.057 Y91.487 E114.38124
G1 X121.07 Y90.948 E114.43862
G1 X121.167 Y90.262 E114.51236
G1 X121.281 Y89.79 E114.56404
G1 X121.388 Y89.416 E114.60544
G1 X121.617 Y88.762 E114.67919
G1 X121.919 Y88.139 E114.75288
G0 F7500 X122.662 Y88.452
G1 F1500 X123.09 Y87.825 E114.83368
G1 X123.349 Y87.5 E114.87791
G1 X123.782 Y87.022 E114.94656
G1 X124.27 Y86.601 E115.01515
G1 X124.613 Y86.361 E115.05971
G1 X124.688 Y86.313 E115.06918
G1 X125.251 Y86 E115.13774
G1 X125.847 Y85.76 E115.20613
G1 X126.312 Y85.605 E115.2583
G1 X126.935 Y85.439 E115.32692
G1 X127.573 Y85.352 E115.39545
G1 X128.218 Y85.345 E115.4641
G1 X128.27 Y85.351 E115.46967
G1 X132.247 Y85.335 E115.89296
G1 X132.867 Y85.339 E115.95895
G1 X164.151 Y85.339 E119.28858
G1 X165.183 Y85.336 E119.39842
G1 X172.012 Y85.352 E120.12525
G1 X172.355 Y85.364 E120.16178
G1 X172.618 Y85.382 E120.18983
G1 X173.257 Y85.466 E120.25843
G1 X173.881 Y85.628 E120.32704
G1 X174.359 Y85.811 E120.38152
G1 X174.714 Y85.982 E120.42346
G1 X174.981 Y86.123 E120.4556
G1 X175.532 Y86.459 E120.52428
G1 X176.214 Y87.028 E120.61882
G1 X176.441 Y87.253 E120.65283
G1 X176.87 Y87.734 E120.72143
G1 X177.235 Y88.265 E120.79001
G1 X177.409 Y88.576 E120.82794
G1 X177.559 Y88.869 E120.86297
G1 X177.816 Y89.46 E120.93156
G1 X177.999 Y90.079 E121.00027
G1 X178.119 Y90.9 E121.08857
G1 X178.136 Y91.16 E121.11631
G1 X178.147 Y91.486 E121.15102
G1 X178.165 Y98.896 E121.93969
G1 X178.161 Y99.982 E122.05528
G1 X178.161 Y193.062 E131.96201
G1 X178.164 Y194.158 E132.07866
G1 X178.148 Y201.536 E132.86392
G1 X178.109 Y202.156 E132.93004
G1 X178.129 Y202.298 E132.9453
G1 X178.147 Y202.724 E132.99068
G1 X178.148 Y208.499 E133.60533
G1 X178.129 Y209.027 E133.66156
G1 X178.031 Y209.664 E133.73015
G1 X177.95 Y209.986 E133.76549
G1 X177.843 Y210.361 E133.807
G1 X177.628 Y210.969 E133.87564
G1 X177.34 Y211.545 E133.94418
G1 X176.91 Y212.175 E134.02536
G1 X176.651 Y212.5 E134.06959
G1 X176.218 Y212.978 E134.13823
G1 X175.73 Y213.399 E134.20683
G1 X175.387 Y213.639 E134.25139
G1 X175.312 Y213.687 E134.26086
G1 X174.749 Y214 E134.32942
G1 X174.153 Y214.24 E134.39781
G1 X173.688 Y214.395 E134.44997
G1 X173.065 Y214.561 E134.5186
G1 X172.427 Y214.648 E134.58713
G1 X171.782 Y214.655 E134.65578
G1 X171.725 Y214.649 E134.66188
G1 X164.726 Y214.664 E135.4068
G1 X163.102 Y214.661 E135.57965
G1 X150 Y214.662 E136.97413
G1 X149.775 Y214.657 E136.99808
G1 X149.498 Y214.645 E137.02759
G1 X149.32 Y214.634 E137.04657
G1 X148.767 Y214.591 E137.10561
G1 X148.395 Y214.549 E137.14545
G1 X147.844 Y214.466 E137.20476
G1 X147.433 Y214.387 E137.2493
G1 X146.895 Y214.261 E137.30811
G1 X146.535 Y214.163 E137.34782
G1 X146.005 Y213.998 E137.4069
G1 X145.626 Y213.864 E137.44969
G1 X145.109 Y213.658 E137.50892
G1 X144.758 Y213.502 E137.5498
G1 X144.261 Y213.26 E137.60863
G1 X143.91 Y213.073 E137.65096
G1 X143.43 Y212.792 E137.71016
G1 X143.093 Y212.576 E137.75276
G1 X142.639 Y212.261 E137.81158
G1 X142.331 Y212.03 E137.85255
G1 X141.804 Y211.602 E137.92481
G1 X141.624 Y211.449 E137.94995
G1 X141.431 Y211.276 E137.97754
G1 X128.775 Y199.384 E139.82589
G1 X128.115 Y198.767 E139.92205
G1 X123.779 Y194.673 E140.55675
G1 X123.339 Y194.202 E140.62535
G1 X123.131 Y193.933 E140.66154
G1 X122.903 Y193.613 E140.70336
G1 X122.828 Y193.502 E140.71762
G1 X122.501 Y192.947 E140.78618
G1 X122.245 Y192.355 E140.85483
G1 X122.109 Y191.917 E140.90364
G1 X122.056 Y191.716 E140.92576
G1 X121.955 Y191.245 E140.97703
G1 X121.924 Y191.059 E140.9971
G1 X121.853 Y190.217 E141.08704
G1 X121.835 Y183.012 E141.85388
G1 X121.839 Y181.957 E141.96617
G1 X121.839 Y99.725 E150.71832
G1 X121.836 Y98.659 E150.83178
G1 X121.852 Y91.488 E151.59501
G1 X121.871 Y90.969 E151.65028
G1 X121.969 Y90.332 E151.71888
G1 X122.051 Y90.01 E151.75424
G1 X122.158 Y89.636 E151.79565
G1 X122.373 Y89.028 E151.86429
G1 X122.662 Y88.452 E151.93287
G0 F7500 X123.402 Y88.772
G1 F1500 X123.716 Y88.324 E151.9911
G1 X123.975 Y87.999 E152.03533
G1 X124.375 Y87.561 E152.09846
G1 X125.044 Y87.035 E152.18904
G1 X125.119 Y86.987 E152.19852
G1 X125.639 Y86.702 E152.26163
G1 X126.1 Y86.519 E152.31442
G1 X126.565 Y86.364 E152.36659
G1 X127.138 Y86.215 E152.4296
G1 X127.727 Y86.144 E152.49274
G1 X128.197 Y86.151 E152.54277
G1 X132.241 Y86.135 E152.97319
G1 X132.861 Y86.139 E153.03918
G1 X164.154 Y86.139 E156.36977
G1 X165.181 Y86.136 E156.47908
G1 X172.01 Y86.152 E157.20591
G1 X172.3 Y86.162 E157.23679
G1 X172.563 Y86.18 E157.26485
G1 X173.151 Y86.261 E157.32802
G1 X173.722 Y86.419 E157.39108
G1 X174.04 Y86.545 E157.42748
G1 X174.341 Y86.689 E157.46299
G1 X174.608 Y86.83 E157.49513
G1 X175.112 Y87.142 E157.55822
G1 X175.65 Y87.596 E157.63314
G1 X175.877 Y87.821 E157.66716
G1 X176.27 Y88.266 E157.73035
G1 X176.697 Y88.941 E157.81536
G1 X176.847 Y89.234 E157.85039
G1 X177.081 Y89.779 E157.91352
G1 X177.239 Y90.35 E157.97658
G1 X177.321 Y90.952 E158.04124
