;FLAVOR:Marlin
;TIME:5609
;Filament used: 14.6434m
;Layer height: 0.32
;MINX:99.9
;MINY:117.4
;MINZ:0.32
;MAXX:200.1
;MAXY:182.6
;MAXZ:49.92
;Generated with Cura_SteamEngine master
M140 S90
M105
M190 S90
M104 S240
M105
M109 S240
M82 ;absolute extrusion mode
G28 ;Home
G1 Z15.0 F2000 ;Move the platform
G92 E0
G92 E0
G1 F1500 E-4
;LAYER_COUNT:156
;LAYER:0
M107 P2
G0 F7500 X108.273 Y123.77 Z0.32
;TYPE:SKIRT
G1 F1500 E0
G1 X108.921 Y123.211 E0.09108
G1 X109.211 Y122.973 E0.13101
G1 X109.888 Y122.445 E0.22239
G1 X110.186 Y122.224 E0.26188
G1 X110.886 Y121.731 E0.353
G1 X111.194 Y121.525 E0.39244
G1 X111.92 Y121.065 E0.48392
G1 X112.246 Y120.87 E0.52435
G1 X112.992 Y120.448 E0.61557
G1 X113.307 Y120.28 E0.65356
G1 X114.071 Y119.894 E0.74467
G1 X114.425 Y119.726 E0.78637
G1 X115.21 Y119.379 E0.87772
G1 X115.542 Y119.242 E0.91595
G1 X116.341 Y118.933 E1.00712
G1 X116.7 Y118.804 E1.04773
G1 X117.515 Y118.535 E1.13907
G1 X117.875 Y118.426 E1.1791
G1 X118.701 Y118.198 E1.27031
G1 X119.057 Y118.109 E1.30936
G1 X119.894 Y117.921 E1.40066
G1 X120.259 Y117.848 E1.44028
G1 X121.105 Y117.701 E1.53167
G1 X121.474 Y117.646 E1.57138
G1 X122.324 Y117.541 E1.66254
G1 X122.698 Y117.505 E1.70253
G1 X123.554 Y117.442 E1.79388
G1 X123.926 Y117.423 E1.83352
G1 X124.782 Y117.402 E1.92466
G1 X124.968 Y117.4 E1.94445
G1 X169.357 Y117.4 E6.66888
G1 X170.135 Y117.44 E6.7518
G1 X170.906 Y117.559 E6.83483
G1 X171.66 Y117.757 E6.9178
G1 X172.389 Y118.031 E7.00069
G1 X173.087 Y118.378 E7.08365
G1 X173.746 Y118.795 E7.16665
G1 X174.358 Y119.278 E7.24963
G1 X174.918 Y119.82 E7.33258
G1 X175.42 Y120.417 E7.4156
G1 X175.857 Y121.062 E7.49852
G1 X176.226 Y121.748 E7.58142
G1 X176.523 Y122.469 E7.66442
G1 X176.745 Y123.217 E7.74746
G1 X176.889 Y123.983 E7.83041
G1 X176.957 Y124.993 E7.93815
G1 X176.965 Y133.976 E8.89424
G1 X176.964 Y141.928 E9.74059
G1 X176.966 Y142.224 E9.77209
G1 X176.957 Y145.342 E10.10395
G1 X182.008 Y145.334 E10.64154
G1 X186.252 Y145.343 E11.09324
G1 X186.54 Y144.938 E11.14613
G1 X187.054 Y144.353 E11.22902
G1 X187.626 Y143.823 E11.31201
G1 X188.249 Y143.354 E11.39501
G1 X188.916 Y142.952 E11.4779
G1 X189.622 Y142.62 E11.56093
G1 X190.357 Y142.362 E11.64384
G1 X191.115 Y142.181 E11.72678
G1 X191.888 Y142.079 E11.80977
G1 X192.667 Y142.056 E11.89271
G1 X193.445 Y142.113 E11.97574
G1 X194.212 Y142.249 E12.05865
G1 X194.962 Y142.464 E12.14169
G1 X195.685 Y142.754 E12.2246
G1 X196.375 Y143.116 E12.30753
G1 X197.025 Y143.548 E12.3906
G1 X197.626 Y144.043 E12.47346
G1 X198.174 Y144.598 E12.55648
G1 X198.662 Y145.205 E12.63937
G1 X199.085 Y145.86 E12.72236
G1 X199.439 Y146.555 E12.80537
G1 X199.72 Y147.282 E12.88833
G1 X199.925 Y148.034 E12.97128
G1 X200.052 Y148.803 E13.05424
G1 X200.1 Y149.654 E13.14496
G1 X200.1 Y154.8 E13.69266
G1 X200.06 Y155.578 E13.77557
G1 X199.941 Y156.349 E13.8586
G1 X199.743 Y157.103 E13.94157
G1 X199.469 Y157.832 E14.02446
G1 X199.122 Y158.53 E14.10743
G1 X198.705 Y159.189 E14.19043
G1 X198.222 Y159.801 E14.27341
G1 X197.68 Y160.361 E14.35635
G1 X197.083 Y160.863 E14.43937
G1 X196.438 Y161.3 E14.52229
G1 X195.752 Y161.669 E14.6052
G1 X195.031 Y161.966 E14.68819
G1 X194.283 Y162.188 E14.77123
G1 X193.517 Y162.332 E14.85419
G1 X192.5 Y162.4 E14.96267
G1 X185.762 Y162.4 E15.67982
G1 X185.775 Y162.486 E15.68907
G1 X185.845 Y163.169 E15.76215
G1 X185.858 Y163.397 E15.78645
G1 X185.87 Y163.83 E15.83256
G1 X185.87 Y166.143 E16.07873
G1 X185.859 Y166.556 E16.12271
G1 X185.845 Y166.813 E16.1501
G1 X185.771 Y167.531 E16.22692
G1 X185.737 Y167.757 E16.25125
G1 X185.593 Y168.477 E16.3294
G1 X185.539 Y168.692 E16.35299
G1 X185.351 Y169.325 E16.42327
G1 X185.277 Y169.539 E16.44737
G1 X184.956 Y170.321 E16.53734
G1 X184.857 Y170.529 E16.56186
G1 X184.521 Y171.158 E16.63776
G1 X184.404 Y171.354 E16.66205
G1 X184.013 Y171.945 E16.73747
G1 X183.877 Y172.131 E16.762
G1 X183.422 Y172.694 E16.83904
G1 X183.27 Y172.865 E16.86339
G1 X182.962 Y173.192 E16.9112
G1 X180.384 Y175.768 E17.29909
G1 X180.009 Y176.106 E17.35282
G1 X179.941 Y176.549 E17.40052
G1 X179.743 Y177.303 E17.48349
G1 X179.469 Y178.032 E17.56638
G1 X179.122 Y178.73 E17.64934
G1 X178.705 Y179.389 E17.73235
G1 X178.222 Y180.001 E17.81532
G1 X177.68 Y180.561 E17.89827
G1 X177.083 Y181.063 E17.98129
G1 X176.438 Y181.5 E18.06421
G1 X175.752 Y181.869 E18.14712
G1 X175.031 Y182.166 E18.23011
G1 X174.283 Y182.388 E18.31315
G1 X173.517 Y182.532 E18.39611
G1 X172.5 Y182.6 E18.50459
G1 X125.09 Y182.6 E23.55055
G1 X124.56 Y182.582 E23.60699
G1 X124.288 Y182.563 E23.63602
G1 X123.148 Y182.395 E23.75866
G1 X122.855 Y182.329 E23.79062
G1 X121.844 Y182.026 E23.90296
G1 X121.592 Y181.931 E23.93162
G1 X121.483 Y181.881 E23.94438
G1 X120.724 Y181.982 E24.02588
G1 X120.31 Y182.004 E24.07
G1 X120.008 Y182.012 E24.10216
G1 X118.971 Y181.969 E24.21262
G1 X118.691 Y181.938 E24.24261
G1 X117.921 Y181.812 E24.32565
G1 X117.518 Y181.714 E24.36979
G1 X117.237 Y181.637 E24.4008
G1 X116.586 Y181.426 E24.47364
G1 X115.775 Y181.123 E24.56578
G1 X115.418 Y180.979 E24.60675
G1 X114.625 Y180.636 E24.69871
G1 X114.285 Y180.48 E24.73852
G1 X113.509 Y180.098 E24.83058
G1 X113.178 Y179.924 E24.87038
G1 X112.423 Y179.505 E24.96228
G1 X112.098 Y179.314 E25.0024
G1 X111.363 Y178.857 E25.09452
G1 X111.043 Y178.647 E25.13526
G1 X110.334 Y178.155 E25.22711
G1 X110.034 Y177.936 E25.26664
G1 X109.35 Y177.41 E25.35848
G1 X109.057 Y177.172 E25.39865
G1 X108.398 Y176.611 E25.49076
G1 X108.124 Y176.367 E25.52981
G1 X107.493 Y175.775 E25.6219
G1 X107.219 Y175.504 E25.66292
G1 X106.62 Y174.882 E25.75483
G1 X106.368 Y174.607 E25.79453
G1 X105.799 Y173.955 E25.88663
G1 X105.558 Y173.665 E25.92676
G1 X105.024 Y172.988 E26.01853
G1 X104.796 Y172.683 E26.05906
G1 X104.295 Y171.978 E26.15112
G1 X104.09 Y171.676 E26.18996
G1 X103.623 Y170.947 E26.28211
G1 X103.424 Y170.618 E26.32303
G1 X102.996 Y169.869 E26.41485
G1 X102.82 Y169.542 E26.45437
G1 X102.428 Y168.771 E26.54643
G1 X102.258 Y168.414 E26.58851
G1 X101.894 Y167.595 E26.6839
G1 X101.756 Y167.262 E26.72227
G1 X101.443 Y166.457 E26.81419
G1 X101.313 Y166.098 E26.85483
G1 X101.052 Y165.312 E26.94298
G1 X100.943 Y164.954 E26.98281
G1 X100.706 Y164.102 E27.07693
G1 X100.614 Y163.734 E27.1173
G1 X100.422 Y162.881 E27.21036
G1 X100.349 Y162.52 E27.24956
G1 X100.204 Y161.69 E27.33924
G1 X100.148 Y161.31 E27.38012
G1 X100.041 Y160.44 E27.47341
G1 X100.004 Y160.067 E27.51331
G1 X99.941 Y159.206 E27.60519
G1 X99.923 Y158.839 E27.6443
G1 X99.902 Y157.992 E27.73447
G1 X99.9 Y157.804 E27.75449
G1 X99.9 Y142.468 E29.38673
G1 X99.902 Y142.282 E29.40653
G1 X99.923 Y141.426 E29.49766
G1 X99.942 Y141.054 E29.53731
G1 X100.005 Y140.198 E29.62866
G1 X100.041 Y139.824 E29.66865
G1 X100.146 Y138.974 E29.75981
G1 X100.201 Y138.605 E29.79951
G1 X100.348 Y137.759 E29.8909
G1 X100.419 Y137.403 E29.92954
G1 X100.606 Y136.566 E30.02082
G1 X100.699 Y136.193 E30.06174
G1 X100.928 Y135.367 E30.15296
G1 X101.037 Y135.01 E30.19269
G1 X101.306 Y134.197 E30.28384
G1 X101.43 Y133.849 E30.32316
G1 X101.739 Y133.048 E30.41453
G1 X101.882 Y132.704 E30.45418
G1 X102.229 Y131.921 E30.54533
G1 X102.39 Y131.58 E30.58547
G1 X102.776 Y130.814 E30.67676
G1 X102.95 Y130.488 E30.71609
G1 X103.372 Y129.743 E30.80722
G1 X103.56 Y129.43 E30.84608
G1 X104.018 Y128.705 E30.93735
G1 X104.232 Y128.384 E30.97842
G1 X104.727 Y127.682 E31.06984
G1 X104.943 Y127.391 E31.10841
G1 X105.469 Y126.716 E31.19949
G1 X105.711 Y126.421 E31.2401
G1 X106.272 Y125.771 E31.33148
G1 X106.52 Y125.498 E31.37074
G1 X107.111 Y124.877 E31.46198
G1 X107.377 Y124.611 E31.50202
G1 X107.998 Y124.02 E31.59326
G1 X108.273 Y123.77 E31.63282
G0 F7500 X108.795 Y124.376
G1 F1500 X109.443 Y123.817 E31.7239
G1 X109.703 Y123.604 E31.75967
G1 X110.38 Y123.076 E31.85105
G1 X110.646 Y122.878 E31.88634
G1 X111.346 Y122.385 E31.97747
G1 X111.623 Y122.201 E32.01286
G1 X112.349 Y121.741 E32.10434
G1 X112.64 Y121.566 E32.14048
G1 X113.386 Y121.144 E32.2317
G1 X113.668 Y120.994 E32.2657
G1 X114.432 Y120.608 E32.3568
G1 X114.749 Y120.458 E32.39413
G1 X115.534 Y120.111 E32.48547
G1 X115.83 Y119.988 E32.51959
G1 X116.629 Y119.679 E32.61077
G1 X116.951 Y119.564 E32.64716
G1 X117.766 Y119.295 E32.7385
G1 X118.088 Y119.197 E32.77433
G1 X118.914 Y118.969 E32.86553
G1 X119.233 Y118.889 E32.90053
G1 X120.07 Y118.701 E32.99183
G1 X120.396 Y118.636 E33.02721
G1 X121.242 Y118.489 E33.11861
G1 X121.572 Y118.44 E33.15411
G1 X122.422 Y118.335 E33.24527
G1 X122.757 Y118.302 E33.2811
G1 X123.613 Y118.239 E33.37245
G1 X123.945 Y118.223 E33.40783
G1 X124.801 Y118.202 E33.49896
G1 X124.968 Y118.2 E33.51673
G1 X169.357 Y118.2 E38.24116
G1 X170.093 Y118.24 E38.31961
G1 X170.821 Y118.359 E38.39812
G1 X171.531 Y118.557 E38.47658
G1 X172.216 Y118.83 E38.55506
G1 X172.867 Y119.176 E38.63352
G1 X173.477 Y119.59 E38.71199
G1 X174.038 Y120.068 E38.79043
G1 X174.545 Y120.604 E38.86896
G1 X174.99 Y121.191 E38.94736
G1 X175.37 Y121.824 E39.02594
G1 X175.678 Y122.493 E39.10432
G1 X175.912 Y123.192 E39.18278
G1 X176.07 Y123.913 E39.26134
G1 X176.157 Y124.994 E39.37676
G1 X176.165 Y133.976 E40.33274
G1 X176.164 Y141.928 E41.17909
G1 X176.166 Y142.222 E41.21038
G1 X176.157 Y145.631 E41.57321
G1 X176.182 Y145.912 E41.60323
G1 X176.291 Y146.065 E41.62323
G1 X176.48 Y146.137 E41.64475
G1 X176.571 Y146.143 E41.65446
G1 X182.006 Y146.134 E42.23292
G1 X186.402 Y146.144 E42.7008
G1 X186.65 Y146.104 E42.72754
G1 X186.763 Y146.003 E42.74367
G1 X187.192 Y145.404 E42.82208
G1 X187.683 Y144.854 E42.90056
G1 X188.231 Y144.361 E42.97901
G1 X188.83 Y143.93 E43.05755
G1 X189.471 Y143.566 E43.13601
G1 X190.148 Y143.274 E43.21448
G1 X190.852 Y143.057 E43.29288
G1 X191.576 Y142.917 E43.37137
G1 X192.311 Y142.857 E43.44986
G1 X193.048 Y142.876 E43.52832
G1 X193.779 Y142.975 E43.60684
G1 X194.494 Y143.153 E43.68526
G1 X195.187 Y143.407 E43.76381
G1 X195.847 Y143.735 E43.84226
G1 X196.468 Y144.132 E43.9207
G1 X197.043 Y144.594 E43.99921
G1 X197.564 Y145.116 E44.0777
G1 X198.025 Y145.691 E44.15614
G1 X198.422 Y146.312 E44.23459
G1 X198.749 Y146.973 E44.31308
G1 X199.003 Y147.665 E44.39153
G1 X199.18 Y148.381 E44.47003
G1 X199.278 Y149.112 E44.54853
G1 X199.3 Y149.654 E44.60627
G1 X199.3 Y154.8 E45.15397
G1 X199.26 Y155.536 E45.23242
G1 X199.141 Y156.264 E45.31093
G1 X198.943 Y156.974 E45.38938
G1 X198.67 Y157.659 E45.46786
G1 X198.324 Y158.31 E45.54633
G1 X197.91 Y158.92 E45.62479
G1 X197.432 Y159.481 E45.70324
G1 X196.896 Y159.988 E45.78176
G1 X196.309 Y160.433 E45.86016
G1 X195.676 Y160.813 E45.93874
G1 X195.007 Y161.121 E46.01713
G1 X194.308 Y161.355 E46.09558
G1 X193.587 Y161.513 E46.17414
G1 X192.5 Y161.6 E46.2902
G1 X184.789 Y161.6 E47.1109
G1 X184.815 Y161.703 E47.12221
G1 X184.949 Y162.374 E47.19503
G1 X184.983 Y162.603 E47.21967
G1 X185.046 Y163.215 E47.28516
G1 X185.059 Y163.443 E47.30946
G1 X185.07 Y163.83 E47.35067
G1 X185.07 Y166.143 E47.59685
G1 X185.06 Y166.513 E47.63624
G1 X185.046 Y166.77 E47.66363
G1 X184.98 Y167.412 E47.73232
G1 X184.946 Y167.638 E47.75665
G1 X184.817 Y168.282 E47.82655
G1 X184.763 Y168.497 E47.85015
G1 X184.595 Y169.063 E47.91298
G1 X184.521 Y169.277 E47.93708
G1 X184.234 Y169.977 E48.01761
G1 X184.135 Y170.185 E48.04212
G1 X183.834 Y170.748 E48.11007
G1 X183.717 Y170.944 E48.13437
G1 X183.367 Y171.473 E48.20188
G1 X183.231 Y171.659 E48.2264
G1 X182.824 Y172.163 E48.29535
G1 X182.672 Y172.334 E48.3197
G1 X182.396 Y172.626 E48.36246
G1 X179.818 Y175.202 E48.75035
G1 X179.262 Y175.699 E48.82972
G1 X179.26 Y175.736 E48.83366
G1 X179.141 Y176.464 E48.91218
G1 X178.943 Y177.174 E48.99063
G1 X178.67 Y177.859 E49.06911
G1 X178.324 Y178.51 E49.14758
G1 X177.91 Y179.12 E49.22604
G1 X177.432 Y179.681 E49.30448
G1 X176.896 Y180.188 E49.38301
G1 X176.309 Y180.633 E49.46141
G1 X175.676 Y181.013 E49.53999
G1 X175.007 Y181.321 E49.61837
G1 X174.308 Y181.555 E49.69683
G1 X173.587 Y181.713 E49.77539
G1 X172.5 Y181.8 E49.89145
G1 X125.09 Y181.8 E54.93741
G1 X124.616 Y181.783 E54.98789
G1 X124.344 Y181.764 E55.01691
G1 X123.324 Y181.615 E55.12663
G1 X123.031 Y181.549 E55.15859
G1 X122.126 Y181.278 E55.25914
G1 X121.874 Y181.183 E55.2878
G1 X121.584 Y181.05 E55.32176
G1 X121.351 Y181.093 E55.34698
G1 X120.289 Y181.205 E55.46063
G1 X119.987 Y181.213 E55.49279
G1 X119.059 Y181.174 E55.59164
G1 X118.779 Y181.143 E55.62163
G1 X117.73 Y180.942 E55.73531
G1 X117.449 Y180.865 E55.76632
G1 X116.866 Y180.677 E55.83151
G1 X116.055 Y180.374 E55.92366
G1 X115.735 Y180.245 E55.96038
G1 X114.942 Y179.902 E56.05234
G1 X114.639 Y179.762 E56.08786
G1 X113.863 Y179.38 E56.17992
G1 X113.566 Y179.225 E56.21557
G1 X112.811 Y178.806 E56.30748
G1 X112.52 Y178.635 E56.3434
G1 X111.785 Y178.178 E56.43552
G1 X111.499 Y177.99 E56.47194
G1 X110.79 Y177.498 E56.56379
G1 X110.522 Y177.301 E56.59919
G1 X109.838 Y176.775 E56.69103
G1 X109.575 Y176.563 E56.72698
G1 X108.916 Y176.002 E56.8191
G1 X108.671 Y175.783 E56.85407
G1 X108.04 Y175.191 E56.94616
G1 X107.795 Y174.949 E56.98281
G1 X107.196 Y174.327 E57.07472
G1 X106.971 Y174.081 E57.1102
G1 X106.402 Y173.429 E57.2023
G1 X106.186 Y173.169 E57.23828
G1 X105.652 Y172.492 E57.33005
G1 X105.448 Y172.22 E57.36624
G1 X104.947 Y171.515 E57.45829
G1 X104.764 Y171.244 E57.49309
G1 X104.297 Y170.515 E57.58524
G1 X104.119 Y170.221 E57.62182
G1 X103.691 Y169.472 E57.71363
G1 X103.533 Y169.18 E57.74897
G1 X103.141 Y168.409 E57.84103
G1 X102.989 Y168.089 E57.87873
G1 X102.625 Y167.27 E57.97412
G1 X102.501 Y166.972 E58.00847
G1 X102.188 Y166.167 E58.1004
G1 X102.072 Y165.846 E58.13673
G1 X101.811 Y165.06 E58.22488
G1 X101.714 Y164.739 E58.26057
G1 X101.477 Y163.887 E58.35469
G1 X101.394 Y163.558 E58.3908
G1 X101.202 Y162.705 E58.48386
G1 X101.137 Y162.382 E58.51893
G1 X100.992 Y161.552 E58.60861
G1 X100.942 Y161.212 E58.64518
G1 X100.835 Y160.342 E58.73848
G1 X100.802 Y160.008 E58.7742
G1 X100.739 Y159.147 E58.86608
G1 X100.723 Y158.82 E58.90093
G1 X100.702 Y157.973 E58.9911
G1 X100.7 Y157.804 E59.00909
G1 X100.7 Y142.468 E60.64134
G1 X100.702 Y142.301 E60.65911
G1 X100.723 Y141.445 E60.75025
G1 X100.739 Y141.113 E60.78562
G1 X100.802 Y140.257 E60.87698
G1 X100.835 Y139.922 E60.9128
G1 X100.94 Y139.072 E61.00396
G1 X100.989 Y138.742 E61.03947
G1 X101.136 Y137.896 E61.13086
G1 X101.2 Y137.577 E61.16549
G1 X101.387 Y136.74 E61.25677
G1 X101.47 Y136.406 E61.2934
G1 X101.699 Y135.58 E61.38462
G1 X101.796 Y135.261 E61.42011
G1 X102.065 Y134.448 E61.51125
G1 X102.177 Y134.137 E61.54644
G1 X102.486 Y133.336 E61.63781
G1 X102.613 Y133.028 E61.67327
G1 X102.96 Y132.245 E61.76442
G1 X103.104 Y131.94 E61.80032
G1 X103.49 Y131.174 E61.89162
G1 X103.646 Y130.883 E61.92676
G1 X104.068 Y130.138 E62.01789
G1 X104.236 Y129.857 E62.05273
G1 X104.694 Y129.132 E62.144
G1 X104.886 Y128.845 E62.18075
G1 X105.381 Y128.143 E62.27218
G1 X105.574 Y127.882 E62.30672
G1 X106.1 Y127.207 E62.3978
G1 X106.316 Y126.944 E62.43403
G1 X106.877 Y126.294 E62.52541
G1 X107.099 Y126.049 E62.5606
G1 X107.69 Y125.428 E62.65184
G1 X107.928 Y125.19 E62.68766
G1 X108.549 Y124.599 E62.77891
G1 X108.795 Y124.376 E62.81425
G0 F7500 X109.318 Y124.982
G1 F1500 X109.966 Y124.423 E62.90533
G1 X110.195 Y124.235 E62.93686
G1 X110.872 Y123.707 E63.02824
G1 X111.107 Y123.533 E63.05936
G1 X111.807 Y123.04 E63.15049
G1 X112.051 Y122.877 E63.18172
G1 X112.777 Y122.417 E63.2732
G1 X113.034 Y122.263 E63.30508
G1 X113.78 Y121.841 E63.39631
G1 X114.028 Y121.708 E63.42626
G1 X114.792 Y121.322 E63.51736
G1 X115.072 Y121.189 E63.55035
G1 X115.857 Y120.842 E63.6417
G1 X116.119 Y120.734 E63.67186
G1 X116.918 Y120.425 E63.76304
G1 X117.201 Y120.323 E63.79506
G1 X118.016 Y120.054 E63.8864
G1 X118.301 Y119.968 E63.91809
G1 X119.127 Y119.74 E64.00929
G1 X119.408 Y119.67 E64.04011
G1 X120.245 Y119.482 E64.13141
G1 X120.533 Y119.425 E64.16266
G1 X121.379 Y119.278 E64.25405
G1 X121.67 Y119.234 E64.28537
G1 X122.52 Y119.129 E64.37653
G1 X122.816 Y119.1 E64.40818
G1 X123.672 Y119.037 E64.49954
G1 X123.965 Y119.023 E64.53076
G1 X124.968 Y119 E64.63754
G1 X169.357 Y119 E69.36197
G1 X170.048 Y119.04 E69.43563
G1 X170.731 Y119.159 E69.50942
G1 X171.394 Y119.357 E69.58307
G1 X172.031 Y119.629 E69.65679
G1 X172.632 Y119.973 E69.73049
