;FLAVOR:Marlin
;TIME:7997
;Filament used: 18.0251m
;Layer height: 0.32
;MINX:119.784
;MINY:99.4
;MINZ:0.32
;MAXX:180.216
;MAXY:192.2
;MAXZ:40.96
;Generated with Cura_SteamEngine master
M140 S90
M105
M190 S90
M104 S240
M105
M109 S240
M82 ;absolute extrusion mode
G28 ;Home
G1 Z15.0 F2000 ;Move the platform
G92 E0
G92 E0
;LAYER_COUNT:128
;LAYER:0
M107 P2
G0 F7500 X124.138 Y119.003 Z0.32
;TYPE:SKIRT
G1 F1500 X126.448 Y116.692 E0.26083
G1 X126.77 Y116.387 E0.29623
G1 X126.973 Y116.205 E0.318
G1 X127.491 Y115.778 E0.37158
G1 X127.668 Y115.644 E0.3893
G1 X128.345 Y115.183 E0.45468
G1 X128.529 Y115.071 E0.47188
G1 X129.269 Y114.672 E0.53899
G1 X129.465 Y114.579 E0.55631
G1 X130.243 Y114.258 E0.62349
G1 X130.45 Y114.185 E0.64101
G1 X131.224 Y113.955 E0.70546
G1 X131.433 Y113.904 E0.72264
G1 X132.218 Y113.753 E0.78645
G1 X132.437 Y113.722 E0.8041
G1 X133.135 Y113.654 E0.86008
G1 X133.357 Y113.642 E0.87783
G1 X133.794 Y113.63 E0.91273
G1 X136.16 Y113.63 E1.10159
G1 X136.548 Y113.639 E1.13257
G1 X136.819 Y113.652 E1.15423
G1 X137.1 Y113.679 E1.17676
G1 X137.1 Y107.5 E1.67
G1 X137.14 Y106.696 E1.73426
G1 X137.26 Y105.9 E1.79851
G1 X137.457 Y105.12 E1.86273
G1 X137.732 Y104.364 E1.92695
G1 X138.08 Y103.638 E1.99121
G1 X138.498 Y102.951 E2.05541
G1 X138.983 Y102.308 E2.1197
G1 X139.528 Y101.717 E2.18387
G1 X140.13 Y101.183 E2.24811
G1 X140.782 Y100.711 E2.31236
G1 X141.478 Y100.306 E2.37664
G1 X142.21 Y99.972 E2.44086
G1 X142.972 Y99.713 E2.50511
G1 X143.755 Y99.53 E2.56929
G1 X144.553 Y99.426 E2.63353
G1 X145.2 Y99.4 E2.68522
G1 X149.86 Y99.4 E3.0572
G1 X150.664 Y99.44 E3.12146
G1 X151.46 Y99.56 E3.18572
G1 X152.24 Y99.757 E3.24994
G1 X152.996 Y100.032 E3.31415
G1 X153.722 Y100.38 E3.37842
G1 X154.409 Y100.798 E3.44261
G1 X155.052 Y101.283 E3.5069
G1 X155.643 Y101.828 E3.57107
G1 X156.177 Y102.43 E3.63531
G1 X156.649 Y103.082 E3.69956
G1 X157.054 Y103.778 E3.76384
G1 X157.388 Y104.51 E3.82807
G1 X157.647 Y105.272 E3.89231
G1 X157.83 Y106.055 E3.9565
G1 X157.934 Y106.853 E4.02074
G1 X157.96 Y107.447 E4.0682
G1 X157.966 Y108.449 E4.14818
G1 X157.957 Y110.443 E4.30735
G1 X157.913 Y111.246 E4.37155
G1 X157.79 Y112.041 E4.43576
G1 X157.589 Y112.82 E4.49998
G1 X157.311 Y113.576 E4.56428
G1 X156.96 Y114.3 E4.62851
G1 X156.538 Y114.985 E4.69273
G1 X156.077 Y115.592 E4.75358
G1 X156.069 Y117.532 E4.90844
G1 X156.079 Y120.103 E5.11367
G1 X156.502 Y120.622 E5.16711
G1 X156.574 Y120.625 E5.17286
G1 X160.005 Y120.622 E5.44674
G1 X165.067 Y120.623 E5.85081
G1 X165.981 Y120.621 E5.92377
G1 X171.008 Y120.626 E6.32505
G1 X171.451 Y120.639 E6.36043
G1 X171.684 Y120.652 E6.37905
G1 X172.484 Y120.736 E6.44326
G1 X173.38 Y120.929 E6.51643
G1 X173.591 Y120.987 E6.5339
G1 X174.355 Y121.238 E6.59809
G1 X174.999 Y121.519 E6.65418
G1 X175.214 Y121.624 E6.67328
G1 X176.237 Y122.219 E6.76774
G1 X176.437 Y122.356 E6.78709
G1 X177.077 Y122.844 E6.85134
G1 X177.666 Y123.392 E6.91556
G1 X178.339 Y124.179 E6.99822
G1 X178.51 Y124.407 E7.02097
G1 X178.96 Y125.074 E7.08519
G1 X179.342 Y125.782 E7.14941
G1 X179.706 Y126.681 E7.22683
G1 X179.77 Y126.871 E7.24284
G1 X179.989 Y127.646 E7.30712
G1 X180.092 Y128.177 E7.3503
G1 X180.112 Y128.302 E7.3604
G1 X180.2 Y129.102 E7.42465
G1 X180.214 Y129.566 E7.4617
G1 X180.216 Y130.588 E7.54329
G1 X180.203 Y135.91 E7.96811
G1 X180.203 Y169.45 E10.64542
G1 X180.216 Y176.726 E11.22622
G1 X180.215 Y177.843 E11.31539
G1 X180.174 Y178.647 E11.37965
G1 X180.087 Y179.202 E11.42449
G1 X180.096 Y179.203 E11.42521
G1 X180.012 Y179.715 E11.46663
G1 X179.879 Y180.362 E11.51936
G1 X179.809 Y180.643 E11.54247
G1 X179.576 Y181.413 E11.60669
G1 X179.14 Y182.413 E11.69377
G1 X179.007 Y182.669 E11.7168
G1 X178.842 Y182.995 E11.74597
G1 X178.443 Y183.694 E11.81021
G1 X177.977 Y184.35 E11.87445
G1 X177.266 Y185.14 E11.95929
G1 X177.114 Y185.288 E11.97622
G1 X176.51 Y185.82 E12.04047
G1 X175.858 Y186.289 E12.10458
G1 X175.601 Y186.455 E12.129
G1 X174.904 Y186.858 E12.19327
G1 X174.171 Y187.189 E12.25747
G1 X173.408 Y187.446 E12.32174
G1 X172.438 Y187.657 E12.40098
G1 X172.23 Y187.689 E12.41778
G1 X171.429 Y187.772 E12.48206
G1 X170.998 Y187.783 E12.51648
G1 X159.001 Y187.783 E13.47413
G1 X158.197 Y187.743 E13.53839
G1 X157.79 Y187.692 E13.57113
G1 X157.585 Y187.661 E13.58768
G1 X156.796 Y187.501 E13.65194
G1 X156.027 Y187.264 E13.71618
G1 X155.286 Y186.952 E13.78036
G1 X154.401 Y186.456 E13.86134
G1 X154.144 Y186.29 E13.88576
G1 X153.491 Y185.82 E13.94999
G1 X152.926 Y185.326 E14.00989
G1 X152.772 Y185.178 E14.02694
G1 X152.221 Y184.592 E14.09115
G1 X151.73 Y183.955 E14.15535
G1 X151.169 Y183.018 E14.24253
G1 X150.836 Y182.365 E14.30104
G1 X150.507 Y181.631 E14.36525
G1 X150.2 Y180.676 E14.44532
G1 X150.129 Y180.396 E14.46838
G1 X149.99 Y179.732 E14.52253
G1 X149.905 Y179.22 E14.56396
G1 X149.911 Y179.219 E14.56445
G1 X149.821 Y178.602 E14.61422
G1 X149.785 Y177.854 E14.674
G1 X149.783 Y176.85 E14.75414
G1 X149.797 Y170.533 E15.25839
G1 X149.276 Y170.497 E15.30008
G1 X148.896 Y170.462 E15.33054
G1 X147.984 Y170.356 E15.40383
G1 X147.626 Y170.306 E15.43269
G1 X146.717 Y170.159 E15.50619
G1 X146.345 Y170.09 E15.53639
G1 X145.445 Y169.901 E15.6098
G1 X145.081 Y169.816 E15.63964
G1 X144.192 Y169.586 E15.71294
G1 X143.84 Y169.486 E15.74215
G1 X142.962 Y169.216 E15.81547
G1 X142.605 Y169.097 E15.84551
G1 X141.739 Y168.786 E15.91896
G1 X141.396 Y168.654 E15.9483
G1 X140.545 Y168.304 E16.02175
G1 X140.195 Y168.151 E16.05224
G1 X139.363 Y167.762 E16.12556
G1 X139.042 Y167.603 E16.15415
G1 X138.227 Y167.177 E16.22756
G1 X137.888 Y166.989 E16.2585
G1 X137.095 Y166.525 E16.33184
G1 X136.781 Y166.331 E16.36131
G1 X136.011 Y165.832 E16.43455
G1 X135.708 Y165.626 E16.4638
G1 X134.959 Y165.091 E16.53727
G1 X134.807 Y164.98 E16.55229
G1 X123.027 Y156.145 E17.72771
G1 X122.408 Y155.631 E17.79193
G1 X121.843 Y155.058 E17.85617
G1 X121.338 Y154.431 E17.92043
G1 X120.897 Y153.758 E17.98466
G1 X120.526 Y153.044 E18.04889
G1 X120.227 Y152.297 E18.11312
G1 X120.003 Y151.524 E18.17736
G1 X119.858 Y150.732 E18.24163
G1 X119.787 Y149.687 E18.32524
G1 X119.784 Y148.553 E18.41576
G1 X119.797 Y142.815 E18.8738
G1 X119.797 Y135.167 E19.48429
G1 X119.785 Y128.688 E20.00147
G1 X119.786 Y127.493 E20.09686
G1 X119.827 Y126.69 E20.16105
G1 X119.947 Y125.894 E20.22531
G1 X120.145 Y125.114 E20.28954
G1 X120.42 Y124.358 E20.35376
G1 X120.769 Y123.632 E20.41806
G1 X121.188 Y122.945 E20.48229
G1 X121.673 Y122.303 E20.54652
G1 X122.219 Y121.712 E20.61075
G1 X122.413 Y121.54 E20.63144
G1 X122.579 Y121.164 E20.66425
G1 X122.975 Y120.463 E20.72852
G1 X123.244 Y120.066 E20.7668
G1 X123.29 Y120.002 E20.77309
G1 X123.791 Y119.372 E20.83734
G1 X124.138 Y119.003 E20.87778
G0 F7500 X124.563 Y119.427
G1 F1500 X126.873 Y117.116 E21.13861
G1 X127.17 Y116.834 E21.1713
G1 X127.373 Y116.652 E21.19306
G1 X127.853 Y116.256 E21.24273
G1 X128.03 Y116.122 E21.26046
G1 X128.657 Y115.696 E21.32096
G1 X128.841 Y115.584 E21.33816
G1 X129.526 Y115.214 E21.40031
G1 X129.722 Y115.121 E21.41762
G1 X130.443 Y114.824 E21.47987
G1 X130.65 Y114.751 E21.49739
G1 X131.366 Y114.538 E21.55702
G1 X131.575 Y114.487 E21.57419
G1 X132.302 Y114.347 E21.63329
G1 X132.521 Y114.316 E21.65095
G1 X133.167 Y114.253 E21.70276
G1 X133.389 Y114.241 E21.7205
G1 X133.794 Y114.23 E21.75285
G1 X136.16 Y114.23 E21.94171
G1 X136.519 Y114.239 E21.97038
G1 X136.79 Y114.252 E21.99203
G1 X137.477 Y114.316 E22.04711
G1 X137.7 Y114.348 E22.06509
G1 X137.7 Y107.5 E22.61173
G1 X137.74 Y106.727 E22.67352
G1 X137.859 Y105.962 E22.73532
G1 X138.057 Y105.213 E22.79716
G1 X138.331 Y104.489 E22.85895
G1 X138.678 Y103.796 E22.92082
G1 X139.095 Y103.144 E22.9826
G1 X139.577 Y102.538 E23.04441
G1 X140.118 Y101.984 E23.10622
G1 X140.714 Y101.49 E23.16801
G1 X141.358 Y101.059 E23.22987
G1 X142.042 Y100.697 E23.29164
G1 X142.76 Y100.408 E23.35342
G1 X143.505 Y100.194 E23.4153
G1 X144.267 Y100.058 E23.47709
G1 X145.2 Y100 E23.55171
G1 X149.86 Y100 E23.92369
G1 X150.633 Y100.04 E23.98547
G1 X151.398 Y100.159 E24.04727
G1 X152.147 Y100.357 E24.10912
G1 X152.871 Y100.631 E24.17091
G1 X153.564 Y100.978 E24.23277
G1 X154.216 Y101.395 E24.29455
G1 X154.822 Y101.877 E24.35636
G1 X155.376 Y102.418 E24.41817
G1 X155.87 Y103.014 E24.47997
G1 X156.301 Y103.658 E24.54182
G1 X156.663 Y104.342 E24.6036
G1 X156.952 Y105.06 E24.66538
G1 X157.166 Y105.805 E24.72726
G1 X157.302 Y106.567 E24.78904
G1 X157.36 Y107.451 E24.85976
G1 X157.366 Y108.446 E24.93919
G1 X157.357 Y110.44 E25.09836
G1 X157.313 Y111.213 E25.16016
G1 X157.191 Y111.977 E25.22192
G1 X156.989 Y112.725 E25.28377
G1 X156.712 Y113.448 E25.34557
G1 X156.362 Y114.139 E25.4074
G1 X155.942 Y114.79 E25.46924
G1 X155.478 Y115.369 E25.52847
G1 X155.469 Y117.53 E25.70097
G1 X155.48 Y120.321 E25.92377
G1 X155.523 Y120.368 E25.92885
G1 X156.092 Y121.066 E26.00074
G1 X156.206 Y121.209 E26.01533
G1 X156.487 Y121.222 E26.03779
G1 X156.546 Y121.225 E26.0425
G1 X160.004 Y121.222 E26.31854
G1 X165.067 Y121.223 E26.72269
G1 X165.98 Y121.221 E26.79557
G1 X171.007 Y121.226 E27.19684
G1 X171.418 Y121.238 E27.22967
G1 X171.651 Y121.251 E27.24829
G1 X172.421 Y121.334 E27.31011
G1 X173.221 Y121.507 E27.37545
G1 X173.432 Y121.565 E27.39292
G1 X174.167 Y121.809 E27.45474
G1 X174.735 Y122.058 E27.50424
G1 X174.95 Y122.163 E27.52334
G1 X175.897 Y122.714 E27.6108
G1 X176.097 Y122.851 E27.63015
G1 X176.713 Y123.321 E27.692
G1 X177.276 Y123.852 E27.75378
G1 X177.859 Y124.539 E27.8257
G1 X178.03 Y124.767 E27.84845
G1 X178.462 Y125.41 E27.91029
G1 X178.825 Y126.093 E27.97203
G1 X179.138 Y126.873 E28.03912
G1 X179.202 Y127.063 E28.05512
G1 X179.411 Y127.808 E28.11689
G1 X179.5 Y128.272 E28.1546
G1 X179.52 Y128.397 E28.16471
G1 X179.603 Y129.167 E28.22653
G1 X179.614 Y129.567 E28.25847
G1 X179.616 Y130.586 E28.33981
G1 X179.603 Y135.908 E28.76464
G1 X179.603 Y169.45 E31.4421
G1 X179.616 Y176.726 E32.02291
G1 X179.615 Y177.843 E32.11207
G1 X179.574 Y178.616 E32.17386
G1 X179.497 Y179.105 E32.21338
G1 X179.504 Y179.106 E32.21394
G1 X179.42 Y179.618 E32.25536
G1 X179.297 Y180.217 E32.30417
G1 X179.227 Y180.498 E32.32729
G1 X179.001 Y181.239 E32.38913
G1 X178.607 Y182.137 E32.4674
G1 X178.472 Y182.398 E32.49086
G1 X178.307 Y182.724 E32.52003
G1 X177.922 Y183.396 E32.58185
G1 X177.47 Y184.024 E32.64361
G1 X176.847 Y184.711 E32.71764
G1 X176.695 Y184.859 E32.73458
G1 X176.113 Y185.369 E32.79635
G1 X175.532 Y185.785 E32.85339
G1 X175.275 Y185.951 E32.87781
G1 X174.604 Y186.337 E32.9396
G1 X173.897 Y186.652 E33.00139
G1 X173.16 Y186.892 E33.06326
G1 X172.346 Y187.064 E33.12967
G1 X172.138 Y187.096 E33.14647
G1 X170.998 Y187.183 E33.23773
G1 X159.001 Y187.183 E34.19538
G1 X157.88 Y187.099 E34.28512
G1 X157.675 Y187.068 E34.30167
G1 X156.916 Y186.913 E34.36351
G1 X156.177 Y186.68 E34.42536
G1 X155.467 Y186.373 E34.48711
G1 X154.727 Y185.952 E34.55507
G1 X154.47 Y185.786 E34.57949
G1 X153.842 Y185.333 E34.6413
G1 X153.342 Y184.894 E34.69441
G1 X153.188 Y184.746 E34.71146
G1 X152.658 Y184.181 E34.7733
G1 X152.189 Y183.565 E34.8351
G1 X151.704 Y182.745 E34.91115
G1 X151.371 Y182.092 E34.96966
G1 X151.055 Y181.385 E35.03148
G1 X150.782 Y180.528 E35.10327
G1 X150.711 Y180.248 E35.12633
G1 X150.582 Y179.633 E35.17649
G1 X150.497 Y179.121 E35.21792
G1 X150.503 Y179.12 E35.21841
G1 X150.416 Y178.516 E35.26712
G1 X150.385 Y177.852 E35.32018
G1 X150.383 Y176.851 E35.40008
G1 X150.397 Y170.543 E35.90362
G1 X150.395 Y169.969 E35.94944
G1 X150.234 Y169.961 E35.9623
G1 X149.317 Y169.898 E36.03568
G1 X148.965 Y169.866 E36.06389
G1 X148.053 Y169.76 E36.13718
G1 X147.722 Y169.714 E36.16386
G1 X146.813 Y169.567 E36.23736
G1 X146.469 Y169.503 E36.26529
G1 X145.569 Y169.314 E36.3387
G1 X145.231 Y169.235 E36.36641
G1 X144.342 Y169.005 E36.43971
G1 X144.017 Y168.913 E36.46667
G1 X143.139 Y168.643 E36.53999
G1 X142.808 Y168.533 E36.56784
G1 X141.942 Y168.222 E36.64129
G1 X141.624 Y168.099 E36.6685
G1 X140.773 Y167.749 E36.74195
G1 X140.449 Y167.607 E36.77019
G1 X139.617 Y167.218 E36.84351
G1 X139.32 Y167.071 E36.86996
G1 X138.505 Y166.645 E36.94337
G1 X138.191 Y166.471 E36.97202
G1 X137.398 Y166.007 E37.04536
G1 X137.107 Y165.828 E37.07264
G1 X136.337 Y165.329 E37.14588
G1 X136.057 Y165.138 E37.17293
G1 X135.308 Y164.603 E37.24641
G1 X135.167 Y164.5 E37.26035
G1 X123.387 Y155.665 E38.43576
G1 X122.792 Y155.169 E38.49759
G1 X122.252 Y154.614 E38.55941
G1 X121.772 Y154.007 E38.62118
G1 X121.357 Y153.353 E38.68301
G1 X121.011 Y152.66 E38.74484
G1 X120.739 Y151.935 E38.80665
G1 X120.543 Y151.186 E38.86845
G1 X120.425 Y150.421 E38.93024
G1 X120.387 Y149.686 E38.98899
G1 X120.384 Y148.554 E39.07935
G1 X120.397 Y142.816 E39.53738
G1 X120.397 Y135.167 E40.14796
G1 X120.385 Y128.689 E40.66506
G1 X120.386 Y127.494 E40.76045
G1 X120.427 Y126.72 E40.82232
G1 X120.547 Y125.955 E40.88413
G1 X120.745 Y125.207 E40.9459
G1 X121.02 Y124.483 E41.00772
G1 X121.367 Y123.791 E41.06951
G1 X121.784 Y123.139 E41.13129
G1 X122.267 Y122.533 E41.19315
G1 X122.809 Y121.98 E41.25496
G1 X122.908 Y121.898 E41.26522
G1 X123.183 Y121.303 E41.31755
G1 X123.731 Y120.416 E41.40077
G1 X123.777 Y120.352 E41.40707
G1 X124.261 Y119.747 E41.46891
G1 X124.563 Y119.427 E41.50403
G0 F7500 X124.987 Y119.851
G1 F1500 X127.297 Y117.54 E41.76486
G1 X127.571 Y117.28 E41.79502
G1 X127.774 Y117.098 E41.81678
G1 X128.215 Y116.735 E41.86237
G1 X128.392 Y116.601 E41.88009
G1 X128.969 Y116.208 E41.93582
G1 X129.153 Y116.096 E41.95302
G1 X129.783 Y115.756 E42.01016
G1 X129.979 Y115.663 E42.02748
G1 X130.642 Y115.39 E42.08471
G1 X130.849 Y115.317 E42.10224
G1 X131.508 Y115.121 E42.15712
G1 X131.717 Y115.07 E42.17429
G1 X132.386 Y114.941 E42.22868
G1 X132.605 Y114.91 E42.24633
G1 X133.2 Y114.852 E42.29405
G1 X133.422 Y114.84 E42.3118
G1 X133.794 Y114.83 E42.3415
G1 X136.16 Y114.83 E42.53037
G1 X136.491 Y114.838 E42.5568
G1 X136.762 Y114.851 E42.57846
G1 X137.394 Y114.91 E42.62912
G1 X137.614 Y114.941 E42.64686
G1 X138.272 Y115.067 E42.70034
G1 X138.3 Y115.074 E42.70264
G1 X138.3 Y107.5 E43.30723
G1 X138.34 Y106.758 E43.36655
G1 X138.459 Y106.025 E43.42582
G1 X138.657 Y105.309 E43.48512
G1 X138.93 Y104.619 E43.54436
G1 X139.276 Y103.962 E43.60363
G1 X139.691 Y103.345 E43.66298
G1 X140.169 Y102.777 E43.72224
G1 X140.706 Y102.264 E43.78153
G1 X141.295 Y101.811 E43.84084
G1 X141.929 Y101.425 E43.90009
G1 X142.601 Y101.108 E43.9594
G1 X143.303 Y100.866 E44.01867
G1 X144.027 Y100.7 E44.07797
G1 X144.765 Y100.614 E44.13728
G1 X145.2 Y100.6 E44.17202
G1 X149.86 Y100.6 E44.544
G1 X150.602 Y100.64 E44.60331
G1 X151.335 Y100.759 E44.66259
G1 X152.051 Y100.957 E44.72189
G1 X152.741 Y101.23 E44.78112
G1 X153.398 Y101.576 E44.8404
G1 X154.015 Y101.991 E44.89975
G1 X154.583 Y102.469 E44.95901
G1 X155.096 Y103.006 E45.01829
G1 X155.549 Y103.595 E45.07761
G1 X155.935 Y104.229 E45.13686
G1 X156.252 Y104.901 E45.19617
G1 X156.494 Y105.603 E45.25544
G1 X156.66 Y106.327 E45.31473
G1 X156.746 Y107.065 E45.37404
G1 X156.76 Y107.455 E45.40519
G1 X156.766 Y108.443 E45.48406
G1 X156.757 Y110.437 E45.64323
G1 X156.714 Y111.179 E45.70256
G1 X156.591 Y111.911 E45.76181
G1 X156.39 Y112.626 E45.8211
G1 X156.114 Y113.315 E45.88035
G1 X155.765 Y113.971 E45.93966
G1 X155.347 Y114.585 E45.99895
G1 X154.879 Y115.136 E46.05666
G1 X154.869 Y117.528 E46.2476
G1 X154.88 Y120.562 E46.48979
G1 X155.082 Y120.775 E46.51322
G1 X155.605 Y121.416 E46.57926
G1 X155.77 Y121.651 E46.60218
G1 X155.992 Y121.78 E46.62268
G1 X156.093 Y121.801 E46.63091
G1 X156.458 Y121.821 E46.66009
G1 X156.538 Y121.825 E46.66649
G1 X160.004 Y121.822 E46.94316
G1 X165.068 Y121.823 E47.34739
G1 X165.98 Y121.821 E47.42019
G1 X171.007 Y121.826 E47.82146
G1 X171.384 Y121.837 E47.85157
G1 X171.617 Y121.85 E47.8702
G1 X172.356 Y121.931 E47.92954
G1 X173.062 Y122.086 E47.98724
G1 X173.273 Y122.144 E48.00471
G1 X173.977 Y122.379 E48.06395
G1 X174.472 Y122.597 E48.10713
G1 X174.687 Y122.702 E48.12623
G1 X175.558 Y123.209 E48.20668
G1 X175.758 Y123.346 E48.22603
G1 X176.348 Y123.799 E48.2854
G1 X176.885 Y124.311 E48.34463
G1 X177.379 Y124.899 E48.40593
G1 X177.55 Y125.127 E48.42868
G1 X177.963 Y125.744 E48.48795
G1 X178.307 Y126.402 E48.54722
G1 X178.569 Y127.064 E48.60405
