;FLAVOR:Marlin
;TIME:5693
;Filament used: 14.4126m
;Layer height: 0.32
;MINX:99.9
;MINY:117.4
;MINZ:0.32
;MAXX:200.1
;MAXY:182.6
;MAXZ:49.92
;Generated with Cura_SteamEngine master
M140 S90
M105
M190 S90
M104 S240
M105
M109 S240
M82 ;absolute extrusion mode
G28 ;Home
G1 Z15.0 F2000 ;Move the platform
G92 E0
G92 E0
;LAYER_COUNT:156
;LAYER:0
M107 P2
G0 F7500 X108.403 Y123.385 Z0.32
;TYPE:SKIRT
G1 F1500 X109.062 Y122.825 E0.09204
G1 X109.345 Y122.596 E0.13079
G1 X110.029 Y122.069 E0.22269
G1 X110.338 Y121.842 E0.2635
G1 X111.048 Y121.35 E0.35544
G1 X111.36 Y121.145 E0.39517
G1 X112.094 Y120.688 E0.4872
G1 X112.427 Y120.493 E0.52827
G1 X113.183 Y120.074 E0.62026
G1 X113.503 Y119.906 E0.65873
G1 X114.277 Y119.524 E0.75059
G1 X114.627 Y119.362 E0.79164
G1 X115.421 Y119.019 E0.8837
G1 X115.775 Y118.877 E0.92429
G1 X116.586 Y118.574 E1.01644
G1 X117.255 Y118.358 E1.09126
G1 X117.535 Y118.282 E1.12214
G1 X118.673 Y118.065 E1.24544
G1 X118.965 Y118.032 E1.27672
G1 X120.053 Y117.988 E1.39261
G1 X120.344 Y117.997 E1.4236
G1 X121.121 Y118.061 E1.50658
G1 X121.485 Y118.119 E1.54581
G1 X121.611 Y118.062 E1.56052
G1 X121.876 Y117.963 E1.59063
G1 X122.899 Y117.661 E1.70416
G1 X123.18 Y117.599 E1.73479
G1 X124.281 Y117.439 E1.8532
G1 X124.564 Y117.419 E1.88339
G1 X125.1 Y117.4 E1.94048
G1 X172.5 Y117.4 E6.98538
G1 X173.278 Y117.44 E7.06829
G1 X174.049 Y117.559 E7.15132
G1 X174.803 Y117.757 E7.23429
G1 X175.532 Y118.031 E7.31718
G1 X176.23 Y118.378 E7.40014
G1 X176.889 Y118.795 E7.48314
G1 X177.501 Y119.278 E7.56612
G1 X178.061 Y119.82 E7.64907
G1 X178.563 Y120.417 E7.73209
G1 X179 Y121.062 E7.81501
G1 X179.369 Y121.748 E7.89791
G1 X179.666 Y122.469 E7.98091
G1 X179.888 Y123.217 E8.06395
G1 X180.026 Y123.951 E8.14344
G1 X180.657 Y124.506 E8.23288
G1 X182.934 Y126.782 E8.57554
G1 X183.252 Y127.12 E8.62493
G1 X183.452 Y127.346 E8.65705
G1 X184.046 Y128.109 E8.75997
G1 X184.216 Y128.359 E8.79214
G1 X184.708 Y129.194 E8.89529
G1 X184.845 Y129.464 E8.92752
G1 X185.094 Y130.005 E8.9909
G1 X185.127 Y130.085 E9.00011
G1 X185.282 Y130.496 E9.04687
G1 X185.353 Y130.701 E9.06996
G1 X185.512 Y131.219 E9.12763
G1 X185.534 Y131.301 E9.13666
G1 X185.634 Y131.719 E9.18241
G1 X185.678 Y131.93 E9.20535
G1 X185.753 Y132.345 E9.25023
G1 X185.766 Y132.431 E9.25949
G1 X185.836 Y133.088 E9.32981
G1 X185.855 Y133.389 E9.36191
G1 X185.87 Y133.865 E9.4126
G1 X185.871 Y136.128 E9.65345
G1 X185.856 Y136.61 E9.70478
G1 X185.837 Y136.911 E9.73688
G1 X185.749 Y137.6 E9.81081
G1 X192.5 Y137.6 E10.52933
G1 X193.278 Y137.64 E10.61225
G1 X194.049 Y137.759 E10.69528
G1 X194.803 Y137.957 E10.77825
G1 X195.532 Y138.231 E10.86114
G1 X196.23 Y138.578 E10.9441
G1 X196.889 Y138.995 E11.0271
G1 X197.501 Y139.478 E11.11008
G1 X198.061 Y140.02 E11.19303
G1 X198.563 Y140.617 E11.27605
G1 X199 Y141.262 E11.35897
G1 X199.369 Y141.948 E11.44187
G1 X199.666 Y142.669 E11.52487
G1 X199.888 Y143.417 E11.60791
G1 X200.032 Y144.183 E11.69086
G1 X200.1 Y145.2 E11.79935
G1 X200.1 Y150.346 E12.34705
G1 X200.06 Y151.124 E12.42996
G1 X199.941 Y151.895 E12.51299
G1 X199.743 Y152.649 E12.59597
G1 X199.469 Y153.378 E12.67885
G1 X199.122 Y154.076 E12.76182
G1 X198.705 Y154.735 E12.84482
G1 X198.222 Y155.347 E12.9278
G1 X197.68 Y155.907 E13.01074
G1 X197.083 Y156.409 E13.09376
G1 X196.438 Y156.846 E13.17668
G1 X195.752 Y157.215 E13.25959
G1 X195.031 Y157.512 E13.34258
G1 X194.283 Y157.734 E13.42563
G1 X193.517 Y157.878 E13.50858
G1 X192.741 Y157.942 E13.59145
G1 X191.961 Y157.927 E13.67449
G1 X191.188 Y157.832 E13.75738
G1 X190.428 Y157.658 E13.84036
G1 X189.69 Y157.407 E13.92332
G1 X188.981 Y157.082 E14.00634
G1 X188.31 Y156.686 E14.08926
G1 X187.682 Y156.224 E14.17224
G1 X187.106 Y155.699 E14.25519
G1 X186.586 Y155.119 E14.3381
G1 X186.254 Y154.657 E14.39865
G1 X181.262 Y154.666 E14.92996
G1 X176.958 Y154.657 E15.38805
G1 X176.965 Y158.074 E15.75173
G1 X176.964 Y166.538 E16.65257
G1 X176.966 Y167.151 E16.71781
G1 X176.956 Y175.01 E17.55427
G1 X176.915 Y175.788 E17.63719
G1 X176.795 Y176.558 E17.72013
G1 X176.596 Y177.312 E17.80313
G1 X176.321 Y178.041 E17.88605
G1 X175.973 Y178.739 E17.96906
G1 X175.555 Y179.397 E18.05203
G1 X175.072 Y180.009 E18.13501
G1 X174.529 Y180.568 E18.21796
G1 X173.931 Y181.068 E18.30092
G1 X173.286 Y181.505 E18.38384
G1 X172.599 Y181.873 E18.46679
G1 X171.878 Y182.169 E18.54974
G1 X171.13 Y182.39 E18.63275
G1 X170.364 Y182.533 E18.71569
G1 X169.356 Y182.6 E18.82321
G1 X124.968 Y182.6 E23.54753
G1 X124.782 Y182.598 E23.56733
G1 X123.925 Y182.577 E23.65857
G1 X123.553 Y182.558 E23.69822
G1 X122.698 Y182.495 E23.78946
G1 X122.324 Y182.459 E23.82945
G1 X121.474 Y182.354 E23.92061
G1 X121.105 Y182.299 E23.96031
G1 X120.259 Y182.152 E24.05171
G1 X119.903 Y182.081 E24.09034
G1 X119.066 Y181.894 E24.18162
G1 X118.693 Y181.801 E24.22254
G1 X117.867 Y181.572 E24.31377
G1 X117.51 Y181.463 E24.35349
G1 X116.697 Y181.194 E24.44464
G1 X116.349 Y181.07 E24.48396
G1 X115.548 Y180.761 E24.57533
G1 X115.203 Y180.618 E24.61508
G1 X114.418 Y180.27 E24.70647
G1 X114.078 Y180.109 E24.74651
G1 X113.314 Y179.724 E24.83757
G1 X112.989 Y179.55 E24.8768
G1 X112.242 Y179.127 E24.96817
G1 X111.924 Y178.937 E25.0076
G1 X111.2 Y178.479 E25.09878
G1 X110.885 Y178.268 E25.13913
G1 X110.184 Y177.774 E25.2304
G1 X109.889 Y177.556 E25.26944
G1 X109.213 Y177.029 E25.36067
G1 X108.921 Y176.789 E25.4009
G1 X108.272 Y176.229 E25.49214
G1 X107.997 Y175.98 E25.53162
G1 X107.375 Y175.388 E25.62301
G1 X107.109 Y175.122 E25.66305
G1 X106.519 Y174.502 E25.75414
G1 X106.272 Y174.229 E25.79333
G1 X105.711 Y173.579 E25.88471
G1 X105.469 Y173.284 E25.92532
G1 X104.943 Y172.609 E26.0164
G1 X104.726 Y172.316 E26.05521
G1 X104.232 Y171.615 E26.14648
G1 X104.023 Y171.302 E26.18654
G1 X103.564 Y170.577 E26.27786
G1 X103.37 Y170.254 E26.31797
G1 X102.948 Y169.508 E26.40919
G1 X102.78 Y169.193 E26.44719
G1 X102.393 Y168.427 E26.53853
G1 X102.224 Y168.072 E26.58037
G1 X101.878 Y167.289 E26.67148
G1 X101.742 Y166.96 E26.70937
G1 X101.432 Y166.159 E26.80079
G1 X101.302 Y165.795 E26.84193
G1 X101.034 Y164.982 E26.93304
G1 X100.926 Y164.625 E26.97273
G1 X100.698 Y163.799 E27.06393
G1 X100.609 Y163.443 E27.10299
G1 X100.421 Y162.606 E27.19429
G1 X100.348 Y162.241 E27.23391
G1 X100.201 Y161.395 E27.3253
G1 X100.146 Y161.026 E27.36501
G1 X100.041 Y160.176 E27.45616
G1 X100.005 Y159.803 E27.49605
G1 X99.942 Y158.949 E27.58719
G1 X99.923 Y158.576 E27.62694
G1 X99.902 Y157.718 E27.71828
G1 X99.9 Y157.532 E27.73808
G1 X99.9 Y142.179 E29.37214
G1 X99.902 Y141.985 E29.39279
G1 X99.924 Y141.123 E29.48456
G1 X99.944 Y140.745 E29.52485
G1 X100.01 Y139.87 E29.61824
G1 X100.047 Y139.498 E29.65803
G1 X100.15 Y138.675 E29.74631
G1 X100.204 Y138.314 E29.78516
G1 X100.359 Y137.425 E29.8812
G1 X100.44 Y137.024 E29.92475
G1 X100.631 Y136.195 E30.01529
G1 X100.715 Y135.864 E30.05164
G1 X100.937 Y135.066 E30.13979
G1 X101.047 Y134.705 E30.17996
G1 X101.32 Y133.884 E30.27205
G1 X101.446 Y133.534 E30.31164
G1 X101.764 Y132.714 E30.40525
G1 X101.914 Y132.354 E30.44675
G1 X102.268 Y131.564 E30.53889
G1 X102.426 Y131.234 E30.57783
G1 X102.816 Y130.465 E30.6696
G1 X102.999 Y130.127 E30.71051
G1 X103.429 Y129.376 E30.80262
G1 X103.622 Y129.057 E30.8423
G1 X104.087 Y128.33 E30.93415
G1 X104.295 Y128.021 E30.97379
G1 X104.797 Y127.315 E31.06599
G1 X105.024 Y127.012 E31.10629
G1 X105.558 Y126.335 E31.19806
G1 X105.799 Y126.045 E31.23819
G1 X106.368 Y125.393 E31.3303
G1 X106.624 Y125.114 E31.3706
G1 X107.224 Y124.492 E31.46258
G1 X107.49 Y124.23 E31.50232
G1 X108.12 Y123.638 E31.59433
G1 X108.403 Y123.385 E31.63473
G0 F7500 X108.921 Y123.994
G1 F1500 X109.58 Y123.434 E31.72677
G1 X109.833 Y123.229 E31.76143
G1 X110.517 Y122.702 E31.85333
G1 X110.794 Y122.5 E31.88982
G1 X111.504 Y122.008 E31.98176
G1 X111.783 Y121.824 E32.01733
G1 X112.517 Y121.367 E32.10935
G1 X112.815 Y121.192 E32.14614
G1 X113.571 Y120.773 E32.23813
G1 X113.858 Y120.623 E32.2726
G1 X114.632 Y120.241 E32.36446
G1 X114.944 Y120.097 E32.40104
G1 X115.738 Y119.754 E32.49309
G1 X116.055 Y119.626 E32.52948
G1 X116.866 Y119.323 E32.62162
G1 X117.465 Y119.13 E32.6886
G1 X117.745 Y119.054 E32.71948
G1 X118.762 Y118.86 E32.82967
G1 X119.054 Y118.827 E32.86095
G1 X120.028 Y118.787 E32.9647
G1 X120.319 Y118.796 E32.99569
G1 X121.37 Y118.911 E33.10822
G1 X121.583 Y118.951 E33.13128
G1 X121.891 Y118.811 E33.16729
G1 X122.156 Y118.712 E33.1974
G1 X123.071 Y118.442 E33.29894
G1 X123.352 Y118.38 E33.32957
G1 X124.338 Y118.237 E33.43561
G1 X124.621 Y118.217 E33.4658
G1 X125.1 Y118.2 E33.51681
G1 X172.5 Y118.2 E38.56171
G1 X173.236 Y118.24 E38.64016
G1 X173.964 Y118.359 E38.71867
G1 X174.674 Y118.557 E38.79712
G1 X175.359 Y118.83 E38.87561
G1 X176.01 Y119.176 E38.95407
G1 X176.62 Y119.59 E39.03254
G1 X177.181 Y120.068 E39.11098
G1 X177.688 Y120.604 E39.18951
G1 X178.133 Y121.191 E39.2679
G1 X178.513 Y121.824 E39.34648
G1 X178.821 Y122.493 E39.42487
G1 X179.055 Y123.192 E39.50333
G1 X179.213 Y123.913 E39.58188
G1 X179.249 Y124.369 E39.63057
G1 X179.507 Y124.551 E39.66417
G1 X180.091 Y125.072 E39.74747
G1 X182.368 Y127.348 E40.09012
G1 X182.653 Y127.651 E40.1344
G1 X182.853 Y127.877 E40.16652
G1 X183.384 Y128.559 E40.25851
G1 X183.554 Y128.809 E40.29069
G1 X183.995 Y129.556 E40.38301
G1 X184.132 Y129.826 E40.41524
G1 X184.354 Y130.31 E40.47191
G1 X184.387 Y130.39 E40.48112
G1 X184.527 Y130.758 E40.52303
G1 X184.598 Y130.963 E40.54612
G1 X184.74 Y131.426 E40.59766
G1 X184.762 Y131.508 E40.6067
G1 X184.851 Y131.882 E40.64762
G1 X184.895 Y132.093 E40.67056
G1 X184.962 Y132.465 E40.71079
G1 X184.975 Y132.551 E40.72004
G1 X185.037 Y133.139 E40.78297
G1 X185.056 Y133.44 E40.81507
G1 X185.07 Y133.865 E40.86033
G1 X185.071 Y136.128 E41.10119
G1 X185.057 Y136.559 E41.14708
G1 X185.038 Y136.86 E41.17918
G1 X184.928 Y137.723 E41.27178
G1 X184.87 Y138.023 E41.3043
G1 X184.78 Y138.4 E41.34555
G1 X192.5 Y138.4 E42.16721
G1 X193.236 Y138.44 E42.24566
G1 X193.964 Y138.559 E42.32417
G1 X194.674 Y138.757 E42.40262
G1 X195.359 Y139.03 E42.4811
G1 X196.01 Y139.376 E42.55957
G1 X196.62 Y139.79 E42.63803
G1 X197.181 Y140.268 E42.71648
G1 X197.688 Y140.804 E42.795
G1 X198.133 Y141.391 E42.8734
G1 X198.513 Y142.024 E42.95198
G1 X198.821 Y142.693 E43.03037
G1 X199.055 Y143.392 E43.10882
G1 X199.213 Y144.113 E43.18738
G1 X199.3 Y145.2 E43.30344
G1 X199.3 Y150.346 E43.85114
G1 X199.26 Y151.082 E43.92959
G1 X199.141 Y151.81 E44.00811
G1 X198.943 Y152.52 E44.08656
G1 X198.67 Y153.205 E44.16504
G1 X198.324 Y153.856 E44.2435
G1 X197.91 Y154.466 E44.32197
G1 X197.432 Y155.027 E44.40041
G1 X196.896 Y155.534 E44.47894
G1 X196.309 Y155.979 E44.55734
G1 X195.676 Y156.359 E44.63592
G1 X195.007 Y156.667 E44.7143
G1 X194.308 Y156.901 E44.79276
G1 X193.587 Y157.059 E44.87132
G1 X192.854 Y157.137 E44.94977
G1 X192.117 Y157.135 E45.02821
G1 X191.384 Y157.054 E45.1067
G1 X190.664 Y156.894 E45.1852
G1 X189.966 Y156.656 E45.26369
G1 X189.298 Y156.345 E45.34212
G1 X188.667 Y155.963 E45.42062
G1 X188.082 Y155.515 E45.49905
G1 X187.548 Y155.006 E45.57757
G1 X187.073 Y154.443 E45.65596
G1 X186.766 Y154.002 E45.71315
G1 X186.64 Y153.89 E45.7311
G1 X186.394 Y153.857 E45.75751
G1 X181.264 Y153.866 E46.30351
G1 X176.579 Y153.856 E46.80215
G1 X176.327 Y153.911 E46.8296
G1 X176.19 Y154.066 E46.85162
G1 X176.166 Y154.146 E46.86051
G1 X176.157 Y154.419 E46.88958
G1 X176.165 Y158.074 E47.27859
G1 X176.164 Y166.538 E48.17944
G1 X176.166 Y167.15 E48.24457
G1 X176.156 Y175.009 E49.08103
G1 X176.115 Y175.745 E49.15948
G1 X175.995 Y176.472 E49.23791
G1 X175.796 Y177.182 E49.31639
G1 X175.522 Y177.867 E49.39491
G1 X175.176 Y178.517 E49.47328
G1 X174.761 Y179.127 E49.5518
G1 X174.282 Y179.688 E49.63032
G1 X173.745 Y180.193 E49.70877
G1 X173.157 Y180.638 E49.78726
G1 X172.525 Y181.017 E49.86569
G1 X171.855 Y181.324 E49.94413
G1 X171.155 Y181.558 E50.02268
G1 X170.435 Y181.714 E50.10109
G1 X169.356 Y181.8 E50.2163
G1 X124.968 Y181.8 E54.94062
G1 X124.801 Y181.798 E54.9584
G1 X123.944 Y181.777 E55.04964
G1 X123.611 Y181.761 E55.08512
G1 X122.756 Y181.698 E55.17637
G1 X122.422 Y181.665 E55.21209
G1 X121.572 Y181.56 E55.30324
G1 X121.242 Y181.511 E55.33875
G1 X120.396 Y181.364 E55.43014
G1 X120.077 Y181.3 E55.46477
G1 X119.24 Y181.113 E55.55605
G1 X118.906 Y181.03 E55.59268
G1 X118.08 Y180.801 E55.68391
G1 X117.761 Y180.704 E55.7194
G1 X116.948 Y180.435 E55.81054
G1 X116.637 Y180.323 E55.84572
G1 X115.836 Y180.014 E55.9371
G1 X115.527 Y179.887 E55.97265
G1 X114.742 Y179.539 E56.06405
G1 X114.438 Y179.395 E56.09985
G1 X113.674 Y179.01 E56.1909
G1 X113.383 Y178.854 E56.22604
G1 X112.636 Y178.431 E56.31741
G1 X112.352 Y178.261 E56.35264
G1 X111.628 Y177.803 E56.44382
G1 X111.346 Y177.614 E56.47995
G1 X110.645 Y177.12 E56.57123
G1 X110.381 Y176.925 E56.60616
G1 X109.705 Y176.398 E56.69739
G1 X109.444 Y176.183 E56.73338
G1 X108.795 Y175.623 E56.82461
G1 X108.549 Y175.401 E56.85988
G1 X107.927 Y174.809 E56.95127
G1 X107.689 Y174.571 E56.98709
G1 X107.099 Y173.951 E57.07819
G1 X106.877 Y173.706 E57.11337
G1 X106.316 Y173.056 E57.20476
G1 X106.1 Y172.793 E57.24098
G1 X105.574 Y172.118 E57.33206
G1 X105.38 Y171.855 E57.36684
G1 X104.886 Y171.154 E57.45812
G1 X104.699 Y170.874 E57.49395
G1 X104.24 Y170.149 E57.58528
G1 X104.066 Y169.86 E57.62119
G1 X103.644 Y169.114 E57.71241
G1 X103.494 Y168.832 E57.7464
G1 X103.107 Y168.066 E57.83774
G1 X102.956 Y167.748 E57.87521
G1 X102.61 Y166.965 E57.96632
G1 X102.488 Y166.671 E58.0002
G1 X102.178 Y165.87 E58.09161
G1 X102.062 Y165.545 E58.12834
G1 X101.794 Y164.732 E58.21945
G1 X101.697 Y164.412 E58.25504
G1 X101.469 Y163.586 E58.34624
G1 X101.389 Y163.267 E58.38125
G1 X101.201 Y162.43 E58.47255
G1 X101.136 Y162.104 E58.50793
G1 X100.989 Y161.258 E58.59932
G1 X100.94 Y160.928 E58.63483
G1 X100.835 Y160.078 E58.72598
G1 X100.802 Y159.744 E58.7617
G1 X100.739 Y158.89 E58.85284
G1 X100.723 Y158.556 E58.88843
G1 X100.702 Y157.698 E58.97978
G1 X100.7 Y157.532 E58.99745
G1 X100.7 Y142.179 E60.63151
G1 X100.702 Y142.006 E60.64992
G1 X100.724 Y141.144 E60.7417
G1 X100.741 Y140.806 E60.77771
G1 X100.807 Y139.931 E60.87111
G1 X100.841 Y139.598 E60.90673
G1 X100.944 Y138.775 E60.99501
G1 X100.992 Y138.451 E61.02987
G1 X101.147 Y137.562 E61.12592
G1 X101.22 Y137.203 E61.16491
G1 X101.411 Y136.374 E61.25545
G1 X101.486 Y136.078 E61.28795
G1 X101.708 Y135.28 E61.37611
G1 X101.806 Y134.957 E61.41204
G1 X102.079 Y134.136 E61.50412
G1 X102.192 Y133.823 E61.53954
G1 X102.51 Y133.003 E61.63315
G1 X102.645 Y132.681 E61.67031
G1 X102.999 Y131.891 E61.76245
G1 X103.139 Y131.596 E61.7972
G1 X103.529 Y130.827 E61.88897
G1 X103.693 Y130.524 E61.92564
G1 X104.123 Y129.773 E62.01774
G1 X104.296 Y129.488 E62.05323
G1 X104.761 Y128.761 E62.14508
G1 X104.947 Y128.484 E62.18059
G1 X105.449 Y127.778 E62.27279
G1 X105.652 Y127.508 E62.30874
G1 X106.186 Y126.831 E62.40052
G1 X106.402 Y126.571 E62.43649
G1 X106.971 Y125.919 E62.5286
G1 X107.2 Y125.669 E62.56468
G1 X107.8 Y125.047 E62.65666
G1 X108.037 Y124.813 E62.69211
G1 X108.667 Y124.221 E62.78412
G1 X108.921 Y123.994 E62.82038
G0 F7500 X109.439 Y124.604
G1 F1500 X110.098 Y124.044 E62.91242
G1 X110.321 Y123.863 E62.94299
G1 X111.005 Y123.336 E63.03489
G1 X111.25 Y123.157 E63.06718
G1 X111.96 Y122.665 E63.15912
G1 X112.206 Y122.504 E63.19041
G1 X112.94 Y122.047 E63.28244
G1 X113.202 Y121.892 E63.31484
G1 X113.958 Y121.473 E63.40683
G1 X114.212 Y121.341 E63.4373
G1 X114.986 Y120.959 E63.52916
G1 X115.262 Y120.831 E63.56154
G1 X116.056 Y120.488 E63.6536
G1 X116.335 Y120.375 E63.68564
G1 X117.146 Y120.072 E63.77778
G1 X117.674 Y119.903 E63.83679
G1 X117.954 Y119.827 E63.86767
G1 X118.852 Y119.655 E63.96498
G1 X119.144 Y119.622 E63.99626
G1 X120.003 Y119.587 E64.08776
G1 X120.294 Y119.596 E64.11874
G1 X121.222 Y119.697 E64.2181
G1 X121.524 Y119.754 E64.25081
G1 X121.665 Y119.791 E64.26632
G1 X122.171 Y119.56 E64.32552
G1 X122.436 Y119.461 E64.35563
G1 X123.243 Y119.223 E64.44518
G1 X123.524 Y119.161 E64.47581
G1 X124.394 Y119.035 E64.56937
G1 X124.677 Y119.015 E64.59956
G1 X125.1 Y119 E64.64461
G1 X172.5 Y119 E69.68951
G1 X173.191 Y119.04 E69.76318
G1 X173.874 Y119.159 E69.83697
G1 X174.537 Y119.357 E69.91061
