;FLAVOR:Marlin
;TIME:6490
;Filament used: 18.6889m
;Layer height: 0.32
;MINX:120.284
;MINY:107.9
;MINZ:0.32
;MAXX:179.717
;MAXY:200.1
;MAXZ:40
;Generated with Cura_SteamEngine master
M140 S90
M105
M190 S90
M104 S240
M105
M109 S240
M82 ;absolute extrusion mode
G28 ;Home
G1 Z15.0 F2000 ;Move the platform
G92 E0
G92 E0
;LAYER_COUNT:125
;LAYER:0
M107 P2
G0 F7500 X122.711 Y144.77 Z0.32
;TYPE:SKIRT
G1 F1500 X123.326 Y144.256 E0.08531
G1 X135.107 Y135.42 E1.65267
G1 X135.257 Y135.311 E1.67241
G1 X136.005 Y134.778 E1.77016
G1 X136.274 Y134.594 E1.80485
G1 X137.045 Y134.093 E1.90271
G1 X137.354 Y133.903 E1.94132
G1 X138.147 Y133.44 E2.03905
G1 X138.452 Y133.271 E2.07617
G1 X139.267 Y132.844 E2.17409
G1 X139.581 Y132.688 E2.21141
G1 X140.415 Y132.299 E2.30936
G1 X140.731 Y132.161 E2.34606
G1 X141.58 Y131.811 E2.44379
G1 X141.903 Y131.686 E2.48066
G1 X142.767 Y131.375 E2.57839
G1 X143.112 Y131.26 E2.6171
G1 X143.992 Y130.99 E2.71506
G1 X144.325 Y130.896 E2.75189
G1 X145.214 Y130.667 E2.8496
G1 X145.54 Y130.591 E2.88523
G1 X146.44 Y130.401 E2.98313
G1 X146.797 Y130.334 E3.02179
G1 X147.706 Y130.187 E3.11979
G1 X148.042 Y130.141 E3.15589
G1 X148.954 Y130.035 E3.25361
G1 X149.311 Y130.002 E3.29176
G1 X150.229 Y129.939 E3.3897
G1 X150.295 Y129.936 E3.39673
G1 X150.297 Y129.417 E3.45197
G1 X150.284 Y123.125 E4.12164
G1 X150.285 Y122.156 E4.22478
G1 X150.326 Y121.378 E4.3077
G1 X150.391 Y120.897 E4.35936
G1 X150.487 Y120.329 E4.42067
G1 X150.606 Y119.759 E4.48264
G1 X150.676 Y119.478 E4.51346
G1 X150.903 Y118.732 E4.59646
G1 X151.304 Y117.817 E4.70278
G1 X151.448 Y117.539 E4.7361
G1 X151.604 Y117.231 E4.77285
G1 X151.991 Y116.554 E4.85585
G1 X152.446 Y115.921 E4.93882
G1 X153.083 Y115.218 E5.03979
G1 X153.235 Y115.07 E5.06237
G1 X153.821 Y114.555 E5.1454
G1 X154.413 Y114.131 E5.2229
G1 X154.67 Y113.965 E5.25546
G1 X155.346 Y113.576 E5.33847
G1 X156.058 Y113.259 E5.42143
G1 X156.799 Y113.016 E5.50442
G1 X157.638 Y112.837 E5.59573
G1 X157.846 Y112.805 E5.61813
G1 X159.002 Y112.717 E5.74152
G1 X170.999 Y112.717 E7.01839
G1 X172.135 Y112.802 E7.13964
G1 X172.34 Y112.833 E7.1617
G1 X173.104 Y112.989 E7.2447
G1 X173.848 Y113.223 E7.32771
G1 X174.564 Y113.531 E7.41066
G1 X175.328 Y113.964 E7.50413
G1 X175.585 Y114.13 E7.53669
G1 X176.217 Y114.586 E7.61964
G1 X176.727 Y115.034 E7.69189
G1 X176.881 Y115.182 E7.71462
G1 X177.415 Y115.751 E7.79767
G1 X177.887 Y116.37 E7.88052
G1 X178.385 Y117.209 E7.98436
G1 X178.718 Y117.862 E8.06238
G1 X179.037 Y118.574 E8.14542
G1 X179.315 Y119.447 E8.24293
G1 X179.386 Y119.727 E8.27367
G1 X179.516 Y120.35 E8.34141
G1 X179.601 Y120.862 E8.39665
G1 X179.596 Y120.863 E8.39719
G1 X179.683 Y121.47 E8.46246
G1 X179.715 Y122.149 E8.5348
G1 X179.717 Y123.295 E8.65678
G1 X179.703 Y130.565 E9.43054
G1 X179.703 Y164.11 E13.00082
G1 X179.715 Y169.439 E13.568
G1 X179.714 Y170.426 E13.67305
G1 X179.673 Y171.204 E13.75597
G1 X179.573 Y171.875 E13.82817
G1 X179.523 Y172.131 E13.85593
G1 X179.335 Y172.887 E13.93885
G1 X179.07 Y173.62 E14.0218
G1 X178.571 Y174.601 E14.13894
G1 X178.536 Y174.659 E14.14615
G1 X178.18 Y175.195 E14.21464
G1 X178.024 Y175.41 E14.24291
G1 X177.535 Y176.017 E14.32587
G1 X176.986 Y176.57 E14.40881
G1 X176.543 Y176.943 E14.47044
G1 X176.159 Y177.227 E14.52128
G1 X175.978 Y177.352 E14.54469
G1 X174.982 Y177.933 E14.66741
G1 X174.766 Y178.038 E14.69298
G1 X174.048 Y178.343 E14.776
G1 X173.477 Y178.526 E14.83982
G1 X173.261 Y178.586 E14.86368
G1 X172.5 Y178.756 E14.94667
G1 X171.628 Y178.852 E15.04004
G1 X171.401 Y178.864 E15.06424
G1 X171.003 Y178.875 E15.10661
G1 X164.246 Y178.878 E15.82578
G1 X159.202 Y178.877 E16.36262
G1 X158.732 Y178.879 E16.41264
G1 X156.579 Y178.874 E16.64179
G1 X156.238 Y178.889 E16.67812
G1 X155.914 Y179.322 E16.73568
G1 X155.755 Y179.514 E16.76221
G1 X155.58 Y179.709 E16.7901
G1 X155.569 Y182.53 E17.09035
G1 X155.577 Y184.603 E17.31098
G1 X155.745 Y184.789 E17.33766
G1 X156.206 Y185.417 E17.42058
G1 X156.601 Y186.09 E17.50363
G1 X156.924 Y186.799 E17.58655
G1 X157.173 Y187.537 E17.66945
G1 X157.346 Y188.298 E17.75251
G1 X157.439 Y189.072 E17.83548
G1 X157.457 Y189.563 E17.88778
G1 X157.465 Y191.62 E18.10671
G1 X157.461 Y192.533 E18.20388
G1 X157.418 Y193.312 E18.28692
G1 X157.295 Y194.081 E18.36981
G1 X157.094 Y194.834 E18.45276
G1 X156.816 Y195.563 E18.5358
G1 X156.466 Y196.259 E18.61871
G1 X156.046 Y196.916 E18.70171
G1 X155.561 Y197.526 E18.78465
G1 X155.017 Y198.084 E18.86759
G1 X154.418 Y198.583 E18.95057
G1 X153.771 Y199.017 E19.03349
G1 X153.082 Y199.383 E19.11653
G1 X152.36 Y199.677 E19.1995
G1 X151.612 Y199.896 E19.28245
G1 X150.845 Y200.036 E19.36543
G1 X149.861 Y200.1 E19.47038
G1 X145.2 Y200.1 E19.96646
G1 X144.422 Y200.06 E20.04938
G1 X143.651 Y199.941 E20.13241
G1 X142.897 Y199.743 E20.21538
G1 X142.168 Y199.469 E20.29827
G1 X141.47 Y199.122 E20.38123
G1 X140.811 Y198.705 E20.46423
G1 X140.199 Y198.222 E20.54721
G1 X139.639 Y197.68 E20.63016
G1 X139.137 Y197.083 E20.71318
G1 X138.7 Y196.438 E20.7961
G1 X138.331 Y195.752 E20.879
G1 X138.034 Y195.031 E20.962
G1 X137.812 Y194.283 E21.04504
G1 X137.668 Y193.517 E21.128
G1 X137.6 Y192.5 E21.23648
G1 X137.6 Y185.748 E21.95511
G1 X137.233 Y185.806 E21.99466
G1 X136.955 Y185.832 E22.02437
G1 X136.546 Y185.859 E22.068
G1 X136.419 Y185.864 E22.08153
G1 X136.123 Y185.87 E22.11304
G1 X133.861 Y185.871 E22.35379
G1 X133.417 Y185.858 E22.40106
G1 X133.159 Y185.843 E22.42857
G1 X132.469 Y185.771 E22.50241
G1 X132.243 Y185.737 E22.52673
G1 X131.523 Y185.593 E22.60488
G1 X131.308 Y185.539 E22.62847
G1 X130.666 Y185.348 E22.69976
G1 X130.45 Y185.273 E22.7241
G1 X129.678 Y184.956 E22.81292
G1 X129.472 Y184.858 E22.8372
G1 X128.842 Y184.521 E22.91325
G1 X128.646 Y184.404 E22.93754
G1 X128.049 Y184.009 E23.01373
G1 X127.862 Y183.872 E23.0384
G1 X127.305 Y183.421 E23.11468
G1 X127.134 Y183.269 E23.13903
G1 X126.804 Y182.958 E23.18729
G1 X124.49 Y180.64 E23.53589
G1 X123.969 Y180.061 E23.61879
G1 X123.509 Y179.432 E23.70173
G1 X123.116 Y178.758 E23.78477
G1 X122.865 Y178.202 E23.8497
G1 X122.325 Y177.68 E23.92964
G1 X121.823 Y177.083 E24.01265
G1 X121.386 Y176.438 E24.09558
G1 X121.017 Y175.752 E24.17848
G1 X120.72 Y175.031 E24.26147
G1 X120.498 Y174.283 E24.34452
G1 X120.354 Y173.517 E24.42747
G1 X120.286 Y172.513 E24.53458
G1 X120.284 Y171.291 E24.66464
G1 X120.297 Y164.818 E25.35358
G1 X120.297 Y157.167 E26.16789
G1 X120.285 Y151.423 E26.77924
G1 X120.286 Y150.329 E26.89568
G1 X120.327 Y149.551 E26.9786
G1 X120.447 Y148.78 E27.06164
G1 X120.645 Y148.027 E27.14451
G1 X120.92 Y147.297 E27.22754
G1 X121.268 Y146.6 E27.31045
G1 X121.685 Y145.941 E27.39345
G1 X122.168 Y145.329 E27.47643
G1 X122.711 Y144.77 E27.55938
G0 F7500 X123.495 Y145.144
G1 F1500 X123.806 Y144.896 E27.60171
G1 X135.587 Y136.06 E29.16908
G1 X135.721 Y135.962 E29.18675
G1 X136.469 Y135.429 E29.2845
G1 X136.71 Y135.265 E29.31553
G1 X137.481 Y134.764 E29.41339
G1 X137.757 Y134.594 E29.44789
G1 X138.55 Y134.131 E29.54563
G1 X138.823 Y133.98 E29.57883
G1 X139.638 Y133.553 E29.67676
G1 X139.92 Y133.413 E29.71027
G1 X140.754 Y133.024 E29.80821
G1 X141.036 Y132.9 E29.841
G1 X141.885 Y132.55 E29.93874
G1 X142.174 Y132.439 E29.97169
G1 X143.038 Y132.128 E30.06942
G1 X143.346 Y132.025 E30.10399
G1 X144.226 Y131.755 E30.20196
G1 X144.525 Y131.671 E30.23501
G1 X145.414 Y131.442 E30.33272
G1 X145.705 Y131.374 E30.36453
G1 X146.605 Y131.184 E30.46243
G1 X146.924 Y131.124 E30.49697
G1 X147.833 Y130.977 E30.59498
G1 X148.134 Y130.935 E30.62732
G1 X149.046 Y130.829 E30.72504
G1 X149.365 Y130.8 E30.75914
G1 X150.283 Y130.737 E30.85707
G1 X150.608 Y130.722 E30.8917
G1 X151.093 Y130.712 E30.94333
G1 X151.097 Y129.419 E31.08095
G1 X151.084 Y123.126 E31.75073
G1 X151.085 Y122.157 E31.85386
G1 X151.126 Y121.421 E31.93232
G1 X151.18 Y121.031 E31.97422
G1 X151.276 Y120.463 E32.03553
G1 X151.383 Y119.952 E32.0911
G1 X151.453 Y119.671 E32.12192
G1 X151.669 Y118.967 E32.2003
G1 X152.014 Y118.185 E32.29127
G1 X152.183 Y117.859 E32.33035
G1 X152.318 Y117.592 E32.36219
G1 X152.686 Y116.953 E32.44067
G1 X153.121 Y116.358 E32.51912
G1 X153.641 Y115.791 E32.601
G1 X153.793 Y115.643 E32.62358
G1 X154.349 Y115.158 E32.70211
G1 X154.848 Y114.803 E32.76729
G1 X155.105 Y114.637 E32.79985
G1 X155.745 Y114.271 E32.87832
G1 X156.421 Y113.977 E32.95678
G1 X157.124 Y113.757 E33.03518
G1 X157.76 Y113.628 E33.10425
G1 X157.968 Y113.596 E33.12665
G1 X159.002 Y113.517 E33.23702
G1 X170.999 Y113.517 E34.51389
G1 X172.016 Y113.593 E34.62243
G1 X172.221 Y113.624 E34.6445
G1 X172.943 Y113.774 E34.72298
G1 X173.644 Y114.001 E34.80141
G1 X174.317 Y114.302 E34.87987
G1 X174.893 Y114.636 E34.95074
G1 X175.15 Y114.802 E34.9833
G1 X175.747 Y115.235 E35.0618
G1 X176.173 Y115.611 E35.12227
G1 X176.327 Y115.759 E35.145
G1 X176.83 Y116.298 E35.22347
G1 X177.272 Y116.888 E35.30193
G1 X177.673 Y117.573 E35.38641
G1 X178.006 Y118.226 E35.46443
G1 X178.305 Y118.9 E35.5429
G1 X178.539 Y119.644 E35.62591
G1 X178.61 Y119.924 E35.65666
G1 X178.727 Y120.481 E35.71724
G1 X178.812 Y120.993 E35.77247
G1 X178.807 Y120.994 E35.77302
G1 X178.89 Y121.582 E35.83622
G1 X178.915 Y122.151 E35.89684
G1 X178.917 Y123.293 E36.01838
G1 X178.903 Y130.563 E36.79215
G1 X178.903 Y164.11 E40.36264
G1 X178.915 Y169.438 E40.92971
G1 X178.914 Y170.425 E41.03476
G1 X178.873 Y171.161 E41.11322
G1 X178.788 Y171.721 E41.1735
G1 X178.738 Y171.977 E41.20126
G1 X178.558 Y172.692 E41.27974
G1 X178.301 Y173.384 E41.3583
G1 X177.886 Y174.187 E41.45451
G1 X177.851 Y174.245 E41.46172
G1 X177.533 Y174.725 E41.523
G1 X177.377 Y174.94 E41.55127
G1 X176.912 Y175.513 E41.62981
G1 X176.388 Y176.032 E41.70831
G1 X176.048 Y176.314 E41.75532
G1 X175.704 Y176.568 E41.80083
G1 X175.523 Y176.693 E41.82425
G1 X174.632 Y177.214 E41.9341
G1 X174.416 Y177.319 E41.95966
G1 X173.736 Y177.605 E42.03818
G1 X173.263 Y177.755 E42.09099
G1 X173.047 Y177.815 E42.11485
G1 X172.327 Y177.973 E42.1933
G1 X171.586 Y178.054 E42.27264
G1 X171.359 Y178.066 E42.29683
G1 X171.003 Y178.075 E42.33474
G1 X164.246 Y178.078 E43.0539
G1 X159.198 Y178.077 E43.59117
G1 X158.734 Y178.079 E43.64056
G1 X156.553 Y178.074 E43.87269
G1 X156.162 Y178.092 E43.91434
G1 X155.876 Y178.16 E43.94563
G1 X155.688 Y178.291 E43.97002
G1 X155.298 Y178.812 E44.03929
G1 X155.139 Y179.004 E44.06582
G1 X154.782 Y179.403 E44.1228
G1 X154.769 Y182.527 E44.4553
G1 X154.778 Y184.907 E44.70861
G1 X155.2 Y185.388 E44.77672
G1 X155.624 Y185.991 E44.85517
G1 X155.98 Y186.637 E44.93368
G1 X156.265 Y187.317 E45.01215
G1 X156.473 Y188.024 E45.09059
G1 X156.604 Y188.75 E45.1691
G1 X156.657 Y189.567 E45.25624
G1 X156.665 Y191.617 E45.47443
G1 X156.661 Y192.53 E45.5716
G1 X156.618 Y193.266 E45.65007
G1 X156.495 Y193.993 E45.72855
G1 X156.294 Y194.702 E45.80698
G1 X156.018 Y195.386 E45.88549
G1 X155.67 Y196.036 E45.96396
G1 X155.253 Y196.644 E46.04243
G1 X154.772 Y197.203 E46.12092
G1 X154.234 Y197.707 E46.19938
G1 X153.645 Y198.15 E46.27782
G1 X153.011 Y198.526 E46.35627
G1 X152.34 Y198.832 E46.43476
G1 X151.64 Y199.063 E46.51322
G1 X150.919 Y199.217 E46.59169
G1 X149.861 Y199.3 E46.70464
G1 X145.2 Y199.3 E47.20072
G1 X144.464 Y199.26 E47.27917
G1 X143.736 Y199.141 E47.35768
G1 X143.026 Y198.943 E47.43613
G1 X142.341 Y198.67 E47.51461
G1 X141.69 Y198.324 E47.59308
G1 X141.08 Y197.91 E47.67154
G1 X140.519 Y197.432 E47.74999
G1 X140.012 Y196.896 E47.82851
G1 X139.567 Y196.309 E47.90691
G1 X139.187 Y195.676 E47.98549
G1 X138.879 Y195.007 E48.06388
G1 X138.645 Y194.308 E48.14233
G1 X138.487 Y193.587 E48.22089
G1 X138.4 Y192.5 E48.33695
G1 X138.4 Y184.78 E49.15861
G1 X138.27 Y184.817 E49.173
G1 X138 Y184.877 E49.20243
G1 X137.158 Y185.009 E49.29315
G1 X136.88 Y185.035 E49.32286
G1 X136.515 Y185.06 E49.3618
G1 X136.388 Y185.065 E49.37533
G1 X136.123 Y185.07 E49.40354
G1 X133.861 Y185.071 E49.64429
G1 X133.463 Y185.06 E49.68666
G1 X133.205 Y185.045 E49.71417
G1 X132.588 Y184.98 E49.7802
G1 X132.362 Y184.946 E49.80453
G1 X131.718 Y184.817 E49.87443
G1 X131.503 Y184.763 E49.89803
G1 X130.929 Y184.592 E49.96177
G1 X130.713 Y184.517 E49.98611
G1 X130.022 Y184.234 E50.06558
G1 X129.816 Y184.136 E50.08986
G1 X129.252 Y183.834 E50.15795
G1 X129.056 Y183.717 E50.18225
G1 X128.522 Y183.363 E50.25044
G1 X128.335 Y183.226 E50.27511
G1 X127.836 Y182.823 E50.34338
G1 X127.665 Y182.671 E50.36773
G1 X127.371 Y182.393 E50.41079
G1 X125.057 Y180.075 E50.75939
G1 X124.565 Y179.526 E50.83785
G1 X124.135 Y178.927 E50.91633
G1 X123.773 Y178.284 E50.99487
G1 X123.525 Y177.704 E51.06201
G1 X123.205 Y177.432 E51.10671
G1 X122.698 Y176.896 E51.18523
G1 X122.253 Y176.309 E51.26363
G1 X121.873 Y175.676 E51.34221
G1 X121.565 Y175.007 E51.4206
G1 X121.331 Y174.308 E51.49905
G1 X121.173 Y173.587 E51.57761
G1 X121.086 Y172.511 E51.6925
G1 X121.084 Y171.292 E51.82225
G1 X121.097 Y164.819 E52.51118
G1 X121.097 Y157.167 E53.32561
G1 X121.085 Y151.424 E53.93685
G1 X121.086 Y150.33 E54.05329
G1 X121.127 Y149.594 E54.13174
G1 X121.247 Y148.866 E54.21027
G1 X121.445 Y148.156 E54.28872
G1 X121.719 Y147.471 E54.36724
G1 X122.065 Y146.821 E54.44561
G1 X122.48 Y146.211 E54.52414
G1 X122.958 Y145.65 E54.60258
G1 X123.495 Y145.144 E54.68111
G0 F7500 X123.746 Y145.993
G1 F1500 X124.286 Y145.536 E54.7564
G1 X136.067 Y136.7 E56.32377
G1 X136.933 Y136.081 E56.43707
G1 X137.146 Y135.936 E56.46449
G1 X137.917 Y135.435 E56.56235
G1 X138.161 Y135.285 E56.59284
G1 X138.954 Y134.822 E56.69057
G1 X139.194 Y134.688 E56.71983
G1 X140.009 Y134.261 E56.81775
G1 X140.258 Y134.138 E56.84731
G1 X141.092 Y133.749 E56.94526
G1 X141.341 Y133.64 E56.97419
G1 X142.19 Y133.29 E57.07193
G1 X142.445 Y133.192 E57.101
G1 X143.309 Y132.881 E57.19873
G1 X143.581 Y132.79 E57.22926
G1 X144.461 Y132.52 E57.32723
G1 X144.724 Y132.446 E57.35631
G1 X145.613 Y132.217 E57.45402
G1 X145.871 Y132.156 E57.48223
G1 X146.771 Y131.966 E57.58013
G1 X147.052 Y131.914 E57.61055
G1 X147.961 Y131.767 E57.70855
G1 X148.226 Y131.73 E57.73703
G1 X149.138 Y131.624 E57.83475
G1 X149.42 Y131.598 E57.86489
G1 X150.338 Y131.535 E57.96283
G1 X150.625 Y131.522 E57.99341
G1 X151.758 Y131.5 E58.11402
G1 X151.891 Y131.5 E58.12817
G1 X151.897 Y129.422 E58.34934
G1 X151.884 Y123.127 E59.01933
G1 X151.885 Y122.158 E59.12247
G1 X151.969 Y121.164 E59.22864
G1 X152.065 Y120.596 E59.28995
G1 X152.159 Y120.146 E59.33888
G1 X152.229 Y119.865 E59.3697
G1 X152.435 Y119.203 E59.44349
G1 X152.724 Y118.554 E59.5191
G1 X152.893 Y118.228 E59.55818
G1 X153.032 Y117.953 E59.59098
G1 X153.38 Y117.355 E59.66462
G1 X153.794 Y116.8 E59.73831
G1 X154.199 Y116.364 E59.80165
G1 X154.351 Y116.216 E59.82423
G1 X154.875 Y115.762 E59.89802
G1 X155.282 Y115.475 E59.95102
G1 X155.539 Y115.309 E59.98359
G1 X156.141 Y114.967 E60.05728
G1 X156.779 Y114.698 E60.13097
G1 X157.443 Y114.503 E60.20463
G1 X157.882 Y114.419 E60.2522
G1 X158.09 Y114.387 E60.2746
G1 X159.002 Y114.317 E60.37195
G1 X170.999 Y114.317 E61.64882
G1 X171.896 Y114.384 E61.74455
G1 X172.101 Y114.415 E61.76662
G1 X172.779 Y114.558 E61.84037
G1 X173.435 Y114.778 E61.91401
G1 X174.062 Y115.073 E61.98776
G1 X174.459 Y115.308 E62.03686
G1 X174.716 Y115.474 E62.06943
G1 X175.276 Y115.883 E62.14323
G1 X175.619 Y116.188 E62.19208
G1 X175.773 Y116.336 E62.21482
G1 X176.243 Y116.844 E62.28847
G1 X176.652 Y117.403 E62.36219
G1 X176.96 Y117.936 E62.42771
G1 X177.293 Y118.589 E62.50573
G1 X177.572 Y119.223 E62.57945
G1 X177.764 Y119.84 E62.64823
G1 X177.835 Y120.12 E62.67897
G1 X177.938 Y120.612 E62.73247
G1 X178.023 Y121.124 E62.78771
G1 X178.018 Y121.125 E62.78825
G1 X178.097 Y121.693 E62.84929
G1 X178.115 Y122.152 E62.89818
G1 X178.117 Y123.292 E63.01951
G1 X178.103 Y130.562 E63.79328
G1 X178.103 Y164.11 E67.36387
G1 X178.115 Y169.437 E67.93084
G1 X178.114 Y170.424 E68.03589
G1 X178.073 Y171.115 E68.10956
G1 X178.003 Y171.568 E68.15835
G1 X177.953 Y171.824 E68.18611
G1 X177.781 Y172.495 E68.25984
G1 X177.533 Y173.142 E68.33358
G1 X177.201 Y173.774 E68.40956
G1 X177.166 Y173.832 E68.41677
G1 X176.885 Y174.256 E68.47091
G1 X176.729 Y174.471 E68.49918
G1 X176.291 Y175.007 E68.57286
G1 X175.586 Y175.66 E68.67513
G1 X175.25 Y175.91 E68.71971
G1 X175.069 Y176.035 E68.74312
G1 X174.282 Y176.494 E68.84009
