;FLAVOR:Marlin
;TIME:13840
;Filament used: 45.5998m
;Layer height: 0.32
;MINX:110.58
;MINY:110.003
;MINZ:0.32
;MAXX:189.421
;MAXY:191.108
;MAXZ:86.08
;Generated with Cura_SteamEngine master
M140 S90
M105
M190 S90
M104 S240
M105
M109 S240
M82 ;absolute extrusion mode
G28 ;Home
G1 Z15.0 F2000 ;Move the platform
G92 E0
G92 E0
G1 F1500 E-4
;LAYER_COUNT:269
;LAYER:0
M107 P2
G0 F7500 X117.457 Y112.606 Z0.32
;TYPE:SKIRT
G1 F1500 E0
G1 X117.999 Y112.046 E0.08295
G1 X118.596 Y111.544 E0.16596
G1 X119.241 Y111.107 E0.24889
G1 X119.927 Y110.738 E0.33179
G1 X120.648 Y110.441 E0.41478
G1 X121.396 Y110.219 E0.49783
G1 X122.162 Y110.075 E0.58078
G1 X123.174 Y110.007 E0.68874
G1 X127.603 Y110.004 E1.16013
G1 X131.332 Y110.009 E1.55701
G1 X172.023 Y110.01 E5.88785
G1 X175.774 Y110.003 E6.28708
G1 X180.189 Y110.008 E6.75698
G1 X180.967 Y110.049 E6.8399
G1 X181.737 Y110.169 E6.92284
G1 X182.491 Y110.368 E7.00584
G1 X183.22 Y110.643 E7.08877
G1 X183.918 Y110.991 E7.17178
G1 X184.576 Y111.408 E7.25469
G1 X185.188 Y111.891 E7.33767
G1 X185.747 Y112.434 E7.42061
G1 X186.248 Y113.032 E7.50365
G1 X186.685 Y113.677 E7.58657
G1 X187.053 Y114.364 E7.66952
G1 X187.349 Y115.085 E7.75247
G1 X187.57 Y115.833 E7.83548
G1 X187.713 Y116.599 E7.91842
G1 X187.78 Y117.608 E8.02604
G1 X187.78 Y130.3 E9.37688
G1 X187.74 Y131.078 E9.4598
G1 X187.621 Y131.849 E9.54283
G1 X187.423 Y132.603 E9.6258
G1 X187.149 Y133.332 E9.70869
G1 X186.802 Y134.03 E9.79165
G1 X186.385 Y134.689 E9.87465
G1 X185.902 Y135.301 E9.95763
G1 X185.36 Y135.861 E10.04058
G1 X184.763 Y136.363 E10.1236
G1 X184.118 Y136.8 E10.20652
G1 X183.432 Y137.169 E10.28942
G1 X182.711 Y137.466 E10.37242
G1 X181.963 Y137.688 E10.45546
G1 X181.197 Y137.832 E10.53842
G1 X180.202 Y137.9 E10.64456
G1 X169.579 Y137.931 E11.7752
G1 X166.52 Y137.923 E12.10078
G1 X163.927 Y137.932 E12.37676
G1 X162.78 Y137.928 E12.49884
G1 X162.78 Y163.184 E15.1869
G1 X163.981 Y163.18 E15.31472
G1 X166.515 Y163.189 E15.58442
G1 X169.622 Y163.179 E15.91511
G1 X180.204 Y163.212 E17.04138
G1 X180.982 Y163.254 E17.12431
G1 X181.752 Y163.376 E17.20728
G1 X182.505 Y163.576 E17.29021
G1 X183.234 Y163.853 E17.37321
G1 X183.931 Y164.202 E17.45617
G1 X184.588 Y164.621 E17.53911
G1 X185.199 Y165.105 E17.62207
G1 X185.757 Y165.649 E17.70501
G1 X186.257 Y166.248 E17.78806
G1 X186.692 Y166.894 E17.87095
G1 X187.059 Y167.582 E17.95394
G1 X187.354 Y168.304 E18.03695
G1 X187.573 Y169.052 E18.1199
G1 X187.715 Y169.818 E18.20282
G1 X187.78 Y170.812 E18.30884
G1 X187.78 Y183.504 E19.65968
G1 X187.74 Y184.282 E19.74259
G1 X187.621 Y185.053 E19.82562
G1 X187.423 Y185.807 E19.9086
G1 X187.149 Y186.536 E19.99148
G1 X186.802 Y187.234 E20.07445
G1 X186.385 Y187.893 E20.15745
G1 X185.902 Y188.505 E20.24043
G1 X185.36 Y189.065 E20.32337
G1 X184.763 Y189.567 E20.40639
G1 X184.118 Y190.004 E20.48931
G1 X183.432 Y190.373 E20.57222
G1 X182.711 Y190.67 E20.65521
G1 X181.963 Y190.892 E20.73826
G1 X181.197 Y191.036 E20.82121
G1 X180.185 Y191.104 E20.92916
G1 X175.526 Y191.107 E21.42503
G1 X171.6 Y191.103 E21.84289
G1 X128.769 Y191.102 E26.40149
G1 X126.187 Y191.108 E26.6763
G1 X123.166 Y191.103 E26.99784
G1 X122.388 Y191.062 E27.08076
G1 X121.618 Y190.941 E27.16371
G1 X120.864 Y190.742 E27.24671
G1 X120.135 Y190.467 E27.32964
G1 X119.438 Y190.118 E27.4126
G1 X118.78 Y189.7 E27.49557
G1 X118.168 Y189.217 E27.57855
G1 X117.609 Y188.674 E27.66149
G1 X117.109 Y188.076 E27.74446
G1 X116.672 Y187.43 E27.82747
G1 X116.304 Y186.743 E27.91041
G1 X116.009 Y186.022 E27.99333
G1 X115.788 Y185.274 E28.07634
G1 X115.646 Y184.508 E28.15926
G1 X115.579 Y183.503 E28.26646
G1 X115.579 Y117.607 E35.27993
G1 X115.619 Y116.829 E35.36284
G1 X115.738 Y116.058 E35.44588
G1 X115.936 Y115.304 E35.52885
G1 X116.21 Y114.575 E35.61173
G1 X116.557 Y113.877 E35.6947
G1 X116.974 Y113.218 E35.7777
G1 X117.457 Y112.606 E35.86068
G0 F7500 X118.247 Y112.926
G1 F1500 X118.783 Y112.419 E35.9392
G1 X119.37 Y111.974 E36.0176
G1 X120.003 Y111.594 E36.09618
G1 X120.672 Y111.286 E36.17457
G1 X121.371 Y111.052 E36.25302
G1 X122.092 Y110.894 E36.33158
G1 X123.174 Y110.807 E36.44711
G1 X127.602 Y110.804 E36.9184
G1 X131.331 Y110.809 E37.31528
G1 X172.024 Y110.81 E41.64634
G1 X175.773 Y110.803 E42.04535
G1 X180.188 Y110.808 E42.51525
G1 X180.924 Y110.849 E42.59371
G1 X181.651 Y110.969 E42.67213
G1 X182.361 Y111.167 E42.75058
G1 X183.046 Y111.441 E42.82911
G1 X183.697 Y111.788 E42.90762
G1 X184.306 Y112.203 E42.98606
G1 X184.867 Y112.681 E43.0645
G1 X185.373 Y113.218 E43.14303
G1 X185.818 Y113.806 E43.22152
G1 X186.196 Y114.439 E43.29999
G1 X186.504 Y115.108 E43.37837
G1 X186.737 Y115.808 E43.45689
G1 X186.894 Y116.528 E43.53533
G1 X186.98 Y117.608 E43.65064
G1 X186.98 Y130.3 E45.00148
G1 X186.94 Y131.036 E45.07993
G1 X186.821 Y131.764 E45.15844
G1 X186.623 Y132.474 E45.23689
G1 X186.35 Y133.159 E45.31537
G1 X186.004 Y133.81 E45.39384
G1 X185.59 Y134.42 E45.4723
G1 X185.112 Y134.981 E45.55074
G1 X184.576 Y135.488 E45.62927
G1 X183.989 Y135.933 E45.70767
G1 X183.356 Y136.313 E45.78625
G1 X182.687 Y136.621 E45.86464
G1 X181.988 Y136.855 E45.94309
G1 X181.267 Y137.013 E46.02165
G1 X180.2 Y137.1 E46.13559
G1 X169.581 Y137.131 E47.2658
G1 X166.519 Y137.123 E47.5917
G1 X163.93 Y137.132 E47.86725
G1 X161.98 Y137.125 E48.0748
G1 X161.98 Y163.987 E50.93379
G1 X163.978 Y163.98 E51.14644
G1 X166.515 Y163.989 E51.41646
G1 X169.619 Y163.979 E51.74683
G1 X180.201 Y164.012 E52.8731
G1 X180.937 Y164.054 E52.95156
G1 X181.664 Y164.176 E53.03002
G1 X182.374 Y164.376 E53.10853
G1 X183.058 Y164.651 E53.18699
G1 X183.708 Y164.999 E53.26546
G1 X184.317 Y165.415 E53.34396
G1 X184.877 Y165.895 E53.42246
G1 X185.382 Y166.432 E53.50092
G1 X185.825 Y167.021 E53.57936
G1 X186.202 Y167.654 E53.65777
G1 X186.509 Y168.325 E53.73631
G1 X186.741 Y169.025 E53.8148
G1 X186.896 Y169.746 E53.89329
G1 X186.98 Y170.812 E54.0071
G1 X186.98 Y183.504 E55.35794
G1 X186.94 Y184.24 E55.43639
G1 X186.821 Y184.968 E55.5149
G1 X186.623 Y185.678 E55.59335
G1 X186.35 Y186.363 E55.67183
G1 X186.004 Y187.014 E55.7503
G1 X185.59 Y187.624 E55.82876
G1 X185.112 Y188.185 E55.90721
G1 X184.576 Y188.692 E55.98573
G1 X183.989 Y189.137 E56.06413
G1 X183.356 Y189.517 E56.14271
G1 X182.687 Y189.825 E56.2211
G1 X181.988 Y190.059 E56.29955
G1 X181.267 Y190.217 E56.37811
G1 X180.184 Y190.304 E56.49375
G1 X175.527 Y190.307 E56.9894
G1 X171.601 Y190.303 E57.40726
G1 X128.767 Y190.302 E61.96618
G1 X126.189 Y190.308 E62.24057
G1 X123.168 Y190.303 E62.5621
G1 X122.432 Y190.262 E62.64056
G1 X121.704 Y190.141 E62.7191
G1 X120.994 Y189.942 E62.79758
G1 X120.31 Y189.668 E62.876
G1 X119.659 Y189.321 E62.95452
G1 X119.05 Y188.906 E63.03296
G1 X118.489 Y188.427 E63.11147
G1 X117.984 Y187.891 E63.18985
G1 X117.539 Y187.302 E63.26842
G1 X117.161 Y186.669 E63.34689
G1 X116.854 Y185.999 E63.42533
G1 X116.621 Y185.3 E63.50375
G1 X116.465 Y184.579 E63.58226
G1 X116.379 Y183.503 E63.69715
G1 X116.379 Y117.607 E70.71062
G1 X116.419 Y116.871 E70.78907
G1 X116.538 Y116.143 E70.86758
G1 X116.736 Y115.433 E70.94603
G1 X117.009 Y114.748 E71.02451
G1 X117.355 Y114.097 E71.10298
G1 X117.769 Y113.487 E71.18144
G1 X118.247 Y112.926 E71.25989
G0 F7500 X118.563 Y113.774
G1 F1500 X119.035 Y113.268 E71.33353
G1 X119.563 Y112.819 E71.4073
G1 X120.138 Y112.434 E71.48095
G1 X120.755 Y112.119 E71.55468
G1 X121.403 Y111.876 E71.62834
G1 X122.076 Y111.709 E71.70214
G1 X122.762 Y111.621 E71.77575
G1 X123.175 Y111.607 E71.81974
G1 X127.601 Y111.604 E72.29081
G1 X131.33 Y111.609 E72.68769
G1 X172.026 Y111.61 E77.01907
G1 X175.772 Y111.603 E77.41776
G1 X180.187 Y111.608 E77.88766
G1 X180.878 Y111.649 E77.96134
G1 X181.56 Y111.769 E78.03504
G1 X182.224 Y111.967 E78.10879
G1 X182.86 Y112.24 E78.18245
G1 X183.461 Y112.585 E78.25621
G1 X184.018 Y112.996 E78.32988
G1 X184.524 Y113.469 E78.4036
G1 X184.972 Y113.997 E78.4773
G1 X185.356 Y114.573 E78.55098
G1 X185.671 Y115.19 E78.62471
G1 X185.913 Y115.839 E78.69843
G1 X186.079 Y116.511 E78.7721
G1 X186.166 Y117.198 E78.84581
G1 X186.18 Y117.608 E78.88947
G1 X186.18 Y130.3 E80.24031
G1 X186.14 Y130.991 E80.31398
G1 X186.021 Y131.674 E80.38777
G1 X185.823 Y132.337 E80.46141
G1 X185.551 Y132.974 E80.53513
G1 X185.207 Y133.575 E80.60883
G1 X184.796 Y134.133 E80.68259
G1 X184.324 Y134.639 E80.75624
G1 X183.796 Y135.088 E80.83001
G1 X183.221 Y135.473 E80.90366
G1 X182.604 Y135.788 E80.97739
G1 X181.956 Y136.031 E81.05105
G1 X181.283 Y136.198 E81.12485
G1 X180.597 Y136.286 E81.19846
G1 X180.198 Y136.3 E81.24096
G1 X169.583 Y136.331 E82.37074
G1 X166.518 Y136.323 E82.69696
G1 X163.933 Y136.332 E82.97209
G1 X161.18 Y136.322 E83.2651
G1 X161.18 Y164.79 E86.29502
G1 X163.975 Y164.78 E86.5925
G1 X166.515 Y164.789 E86.86284
G1 X169.617 Y164.779 E87.19299
G1 X180.199 Y164.812 E88.31926
G1 X180.89 Y164.854 E88.39295
G1 X181.572 Y164.976 E88.46668
G1 X182.235 Y165.175 E88.54036
G1 X182.871 Y165.449 E88.61407
G1 X183.471 Y165.795 E88.68778
G1 X184.027 Y166.208 E88.7615
G1 X184.532 Y166.682 E88.83521
G1 X184.979 Y167.211 E88.90892
G1 X185.362 Y167.788 E88.98263
G1 X185.676 Y168.405 E89.05632
G1 X185.917 Y169.054 E89.13
G1 X186.081 Y169.727 E89.20373
G1 X186.167 Y170.414 E89.27742
G1 X186.18 Y170.812 E89.3198
G1 X186.18 Y183.504 E90.67064
G1 X186.14 Y184.195 E90.74431
G1 X186.021 Y184.878 E90.8181
G1 X185.823 Y185.541 E90.89174
G1 X185.551 Y186.178 E90.96546
G1 X185.207 Y186.779 E91.03916
G1 X184.796 Y187.337 E91.11292
G1 X184.324 Y187.843 E91.18657
G1 X183.796 Y188.292 E91.26034
G1 X183.221 Y188.677 E91.33399
G1 X182.604 Y188.992 E91.40772
G1 X181.956 Y189.235 E91.48138
G1 X181.283 Y189.402 E91.55518
G1 X180.597 Y189.49 E91.62879
G1 X180.184 Y189.504 E91.67277
G1 X175.528 Y189.507 E92.16832
G1 X171.602 Y189.503 E92.58618
G1 X128.765 Y189.502 E97.14542
G1 X126.19 Y189.508 E97.41949
G1 X123.169 Y189.503 E97.74102
G1 X122.478 Y189.462 E97.81469
G1 X121.796 Y189.341 E97.88841
G1 X121.132 Y189.143 E97.96216
G1 X120.496 Y188.87 E98.03582
G1 X119.895 Y188.525 E98.10958
G1 X119.339 Y188.113 E98.18323
G1 X118.833 Y187.64 E98.25695
G1 X118.385 Y187.111 E98.33073
G1 X118.001 Y186.535 E98.40441
G1 X117.687 Y185.918 E98.4781
G1 X117.445 Y185.269 E98.55182
G1 X117.28 Y184.597 E98.62546
G1 X117.193 Y183.91 E98.69917
G1 X117.179 Y183.503 E98.74251
G1 X117.179 Y117.607 E105.75598
G1 X117.219 Y116.916 E105.82965
G1 X117.338 Y116.233 E105.90344
G1 X117.536 Y115.57 E105.97708
G1 X117.808 Y114.933 E106.0508
G1 X118.152 Y114.332 E106.12451
G1 X118.563 Y113.774 E106.19827
G0 F7500 X119.354 Y114.084
G1 F1500 X119.819 Y113.638 E106.26684
G1 X120.336 Y113.253 E106.33545
G1 X120.897 Y112.934 E106.40414
G1 X121.493 Y112.688 E106.47276
G1 X122.114 Y112.517 E106.54131
G1 X122.752 Y112.425 E106.60992
G1 X123.175 Y112.407 E106.65498
G1 X127.6 Y112.404 E107.12595
G1 X131.329 Y112.409 E107.52283
G1 X172.027 Y112.41 E111.85442
G1 X175.771 Y112.403 E112.2529
G1 X180.186 Y112.408 E112.7228
G1 X180.829 Y112.449 E112.79138
G1 X181.463 Y112.569 E112.86005
G1 X182.076 Y112.766 E112.92858
G1 X182.661 Y113.038 E112.99725
G1 X183.207 Y113.38 E113.06582
G1 X183.707 Y113.787 E113.13444
G1 X184.153 Y114.253 E113.20309
G1 X184.537 Y114.77 E113.27163
G1 X184.855 Y115.331 E113.34027
G1 X185.101 Y115.927 E113.40889
G1 X185.271 Y116.549 E113.47752
G1 X185.363 Y117.187 E113.54613
G1 X185.38 Y117.608 E113.59097
G1 X185.38 Y130.3 E114.94181
G1 X185.34 Y130.943 E115.01038
G1 X185.221 Y131.577 E115.07904
G1 X185.024 Y132.191 E115.14767
G1 X184.753 Y132.776 E115.21629
G1 X184.411 Y133.323 E115.28495
G1 X184.005 Y133.823 E115.3535
G1 X183.54 Y134.269 E115.42207
G1 X183.023 Y134.654 E115.49068
G1 X182.462 Y134.973 E115.55937
G1 X181.866 Y135.219 E115.62799
G1 X181.245 Y135.39 E115.69655
G1 X180.607 Y135.482 E115.76515
G1 X180.195 Y135.5 E115.80905
G1 X169.586 Y135.531 E116.93819
G1 X166.518 Y135.523 E117.26473
G1 X163.936 Y135.532 E117.53954
G1 X160.38 Y135.519 E117.91801
G1 X160.38 Y165.593 E121.11886
G1 X163.972 Y165.58 E121.50117
G1 X166.514 Y165.589 E121.77172
G1 X169.614 Y165.579 E122.10167
G1 X180.196 Y165.612 E123.22794
G1 X180.84 Y165.654 E123.29663
G1 X181.473 Y165.775 E123.36522
G1 X182.086 Y165.974 E123.43381
G1 X182.67 Y166.247 E123.50243
G1 X183.216 Y166.59 E123.57105
G1 X183.715 Y166.998 E123.63966
G1 X184.16 Y167.465 E123.70831
G1 X184.543 Y167.983 E123.77688
G1 X184.86 Y168.545 E123.84555
G1 X185.104 Y169.141 E123.9141
G1 X185.273 Y169.763 E123.9827
G1 X185.364 Y170.402 E124.05139
G1 X185.38 Y170.812 E124.09506
G1 X185.38 Y183.504 E125.44591
G1 X185.34 Y184.147 E125.51447
G1 X185.221 Y184.781 E125.58313
G1 X185.024 Y185.395 E125.65176
G1 X184.753 Y185.98 E125.72038
G1 X184.411 Y186.527 E125.78904
G1 X184.005 Y187.027 E125.85759
G1 X183.54 Y187.473 E125.92617
G1 X183.023 Y187.858 E125.99477
G1 X182.462 Y188.177 E126.06346
G1 X181.866 Y188.423 E126.13209
G1 X181.245 Y188.594 E126.20064
G1 X180.607 Y188.686 E126.26925
G1 X180.183 Y188.704 E126.31442
G1 X175.529 Y188.707 E126.80975
G1 X171.603 Y188.703 E127.22761
G1 X128.763 Y188.702 E131.78717
G1 X126.191 Y188.708 E132.06092
G1 X123.17 Y188.703 E132.38245
G1 X122.527 Y188.662 E132.45102
G1 X121.894 Y188.542 E132.5196
G1 X121.28 Y188.344 E132.58826
G1 X120.696 Y188.072 E132.65683
G1 X120.149 Y187.729 E132.72554
G1 X119.65 Y187.322 E132.79408
G1 X119.204 Y186.856 E132.86273
G1 X118.82 Y186.338 E132.93136
G1 X118.503 Y185.777 E132.99994
G1 X118.257 Y185.181 E133.06857
G1 X118.087 Y184.559 E133.1372
G1 X117.996 Y183.921 E133.20579
G1 X117.979 Y183.503 E133.25031
G1 X117.979 Y117.607 E140.26378
G1 X118.019 Y116.964 E140.33235
G1 X118.138 Y116.33 E140.40101
G1 X118.335 Y115.716 E140.46964
G1 X118.606 Y115.131 E140.53826
G1 X118.948 Y114.584 E140.60692
G1 X119.354 Y114.084 E140.67547
G0 F7500 X119.742 Y114.86
G1 F1500 X120.143 Y114.423 E140.7386
G1 X120.598 Y114.043 E140.80169
G1 X121.101 Y113.729 E140.8648
G1 X121.641 Y113.484 E140.92791
G1 X122.21 Y113.315 E140.99109
G1 X122.795 Y113.224 E141.0541
G1 X123.176 Y113.207 E141.09469
G1 X127.599 Y113.204 E141.56544
G1 X131.328 Y113.209 E141.96233
G1 X172.029 Y113.21 E146.29424
G1 X175.77 Y113.203 E146.6924
G1 X180.185 Y113.208 E147.1623
G1 X180.777 Y113.249 E147.22546
G1 X181.357 Y113.368 E147.28848
G1 X181.917 Y113.565 E147.35166
G1 X182.444 Y113.835 E147.41468
G1 X182.931 Y114.174 E147.47783
G1 X183.368 Y114.575 E147.54096
G1 X183.747 Y115.031 E147.60407
G1 X184.061 Y115.534 E147.66718
G1 X184.304 Y116.075 E147.7303
G1 X184.473 Y116.643 E147.79337
G1 X184.564 Y117.229 E147.85649
G1 X184.58 Y117.608 E147.89686
G1 X184.58 Y130.3 E149.2477
G1 X184.54 Y130.892 E149.31086
G1 X184.421 Y131.472 E149.37387
G1 X184.225 Y132.032 E149.43702
G1 X183.955 Y132.56 E149.50014
G1 X183.617 Y133.047 E149.56323
G1 X183.216 Y133.484 E149.62636
G1 X182.761 Y133.864 E149.68945
G1 X182.258 Y134.178 E149.75256
G1 X181.718 Y134.423 E149.81567
G1 X181.149 Y134.592 E149.87885
G1 X180.564 Y134.683 E149.94186
G1 X180.193 Y134.7 E149.98139
G1 X169.588 Y134.731 E151.11011
G1 X166.517 Y134.723 E151.43696
G1 X163.939 Y134.732 E151.71135
G1 X159.58 Y134.716 E152.17529
G1 X159.58 Y166.396 E155.54707
G1 X163.969 Y166.38 E156.0142
G1 X166.514 Y166.389 E156.28508
G1 X169.612 Y166.379 E156.61481
G1 X180.194 Y166.412 E157.74108
G1 X180.785 Y166.454 E157.80414
G1 X181.366 Y166.575 E157.8673
G1 X181.925 Y166.773 E157.93042
G1 X182.452 Y167.044 E157.99349
G1 X182.938 Y167.384 E158.05662
G1 X183.374 Y167.786 E158.11974
G1 X183.752 Y168.243 E158.18286
G1 X184.065 Y168.746 E158.24592
G1 X184.307 Y169.287 E158.30899
G1 X184.475 Y169.856 E158.37214
G1 X184.564 Y170.442 E158.43522
G1 X184.58 Y170.812 E158.47464
G1 X184.58 Y183.504 E159.82548
G1 X184.54 Y184.096 E159.88863
G1 X184.421 Y184.676 E159.95165
G1 X184.225 Y185.236 E160.0148
G1 X183.955 Y185.764 E160.07791
G1 X183.617 Y186.251 E160.14101
G1 X183.216 Y186.688 E160.20413
G1 X182.761 Y187.068 E160.26723
G1 X182.258 Y187.382 E160.33034
G1 X181.718 Y187.627 E160.39345
G1 X181.149 Y187.796 E160.45662
G1 X180.564 Y187.887 E160.51964
G1 X180.183 Y187.904 E160.56023
G1 X175.53 Y187.907 E161.05546
G1 X171.604 Y187.903 E161.47331
G1 X128.761 Y187.902 E166.0332
G1 X126.193 Y187.908 E166.30651
